;Project Cut 1
;Created by Estlcam version 11 build 11.245
;Machining time about 00:01:47 hours

G90
M03 S24000
G00 Z10.0000


;No. 1: Drill 13
G00 X255.9109 Y266.0537
G00 Z0.5000
G01 Z-1.0000 F600 S24000
G00 Z10.0000


;No. 2: Drill 11
G00 X248.2412 Y446.1480 Z10.0000
G00 Z0.5000
G01 Z-1.0000 F600
G00 Z10.0000


;No. 3: Drill 12
G00 X451.2829 Y455.1515 Z10.0000
G00 Z0.5000
G01 Z-1.0000 F600
G00 Z10.0000
G00 X0.0000 Y0.0000

M05
