;Project Cut 2
;Created by Estlcam version 11 build 11.245
;Machining time about 01:12:03 hours

G90
M03 S24000
G00 Z10.0000


;No. 1: Hole 21
G00 X106.7040 Y157.1172
G00 Z0.5000
G01 Z0.0000 F600 S24000
G01 Z-1.0000
G01 Y159.4422 F1200
G01 X106.2390 Y159.9072
G01 X106.7040 Y159.4422
G01 X136.5290 Y159.4423
G01 X136.9939 Y159.9073
G01 X136.5290 Y159.4423
G01 Y157.1173
G01 X136.9939 Y156.6523
G01 X136.5290 Y157.1173
G01 X106.7040 Y157.1172
G01 X106.2390 Y156.6523
G01 X106.7040 Y157.1172
G01 Z-2.0000 F600
G01 Y159.4422 F1200
G01 X106.2390 Y159.9072
G01 X106.7040 Y159.4422
G01 X136.5290 Y159.4423
G01 X136.9939 Y159.9073
G01 X136.5290 Y159.4423
G01 Y157.1173
G01 X136.9939 Y156.6523
G01 X136.5290 Y157.1173
G01 X106.7040 Y157.1172
G01 X106.2390 Y156.6523
G01 X106.7040 Y157.1172
G01 Z-3.0000 F600
G01 Y159.4422 F1200
G01 X106.2390 Y159.9072
G01 X106.7040 Y159.4422
G01 X136.5290 Y159.4423
G01 X136.9939 Y159.9073
G01 X136.5290 Y159.4423
G01 Y157.1173
G01 X136.9939 Y156.6523
G01 X136.5290 Y157.1173
G01 X106.7040 Y157.1172
G01 X106.2390 Y156.6523
G01 X106.7040 Y157.1172
G01 Z-4.0000 F600
G01 Y159.4422 F1200
G01 X106.2390 Y159.9072
G01 X106.7040 Y159.4422
G01 X136.5290 Y159.4423
G01 X136.9939 Y159.9073
G01 X136.5290 Y159.4423
G01 Y157.1173
G01 X136.9939 Y156.6523
G01 X136.5290 Y157.1173
G01 X106.7040 Y157.1172
G01 X106.2390 Y156.6523
G01 X106.7040 Y157.1172
G01 Z-5.0000 F600
G01 Y159.4422 F1200
G01 X106.2390 Y159.9072
G01 X106.7040 Y159.4422
G01 X136.5290 Y159.4423
G01 X136.9939 Y159.9073
G01 X136.5290 Y159.4423
G01 Y157.1173
G01 X136.9939 Y156.6523
G01 X136.5290 Y157.1173
G01 X106.7040 Y157.1172
G01 X106.2390 Y156.6523
G01 X106.7040 Y157.1172
G01 Z-6.0000 F600
G01 Y159.4422 F1200
G01 X106.2390 Y159.9072
G01 X106.7040 Y159.4422
G01 X136.5290 Y159.4423
G01 X136.9939 Y159.9073
G01 X136.5290 Y159.4423
G01 Y157.1173
G01 X136.9939 Y156.6523
G01 X136.5290 Y157.1173
G01 X106.7040 Y157.1172
G01 X106.2390 Y156.6523
G01 X106.7040 Y157.1172
G00 Z10.0000


;No. 2: Hole 20
G00 X135.2529 Y181.5837 Z10.0000
G00 Z0.5000
G01 Z0.0000 F600
G01 Z-1.0000
G02 X136.0999 Y184.3216 I0.8468 J1.2380 F1200
G01 X173.0999
G02 Y181.3216 I0.0000 J-1.5000
G01 X136.0999
G02 X135.2529 Y181.5837 I-0.0006 J1.4977
G01 Z-2.0000 F600
G02 X136.0999 Y184.3216 I0.8468 J1.2380 F1200
G01 X173.0999
G02 Y181.3216 I0.0000 J-1.5000
G01 X136.0999
G02 X135.2529 Y181.5837 I-0.0006 J1.4977
G01 Z-3.0000 F600
G02 X136.0999 Y184.3216 I0.8468 J1.2380 F1200
G01 X173.0999
G02 Y181.3216 I0.0000 J-1.5000
G01 X136.0999
G02 X135.2529 Y181.5837 I-0.0006 J1.4977
G01 Z-4.0000 F600
G02 X136.0999 Y184.3216 I0.8468 J1.2380 F1200
G01 X173.0999
G02 Y181.3216 I0.0000 J-1.5000
G01 X136.0999
G02 X135.2529 Y181.5837 I-0.0006 J1.4977
G01 Z-5.0000 F600
G02 X136.0999 Y184.3216 I0.8468 J1.2380 F1200
G01 X173.0999
G02 Y181.3216 I0.0000 J-1.5000
G01 X136.0999
G02 X135.2529 Y181.5837 I-0.0006 J1.4977
G01 Z-6.0000 F600
G02 X136.0999 Y184.3216 I0.8468 J1.2380 F1200
G01 X173.0999
G02 Y181.3216 I0.0000 J-1.5000
G01 X136.0999
G02 X135.2529 Y181.5837 I-0.0006 J1.4977
G00 Z10.0000


;No. 3: Hole 18
G00 X106.7039 Y206.2006 Z10.0000
G00 Z0.5000
G01 Z0.0000 F600
G01 Z-1.0000
G01 Y208.5256 F1200
G01 X106.2389 Y208.9905
G01 X106.7039 Y208.5256
G01 X136.5289
G01 X136.9938 Y208.9906
G01 X136.5289 Y208.5256
G01 Y206.2006
G01 X136.9938 Y205.7357
G01 X136.5289 Y206.2006
G01 X106.7039
G01 X106.2389 Y205.7356
G01 X106.7039 Y206.2006
G01 Z-2.0000 F600
G01 Y208.5256 F1200
G01 X106.2389 Y208.9905
G01 X106.7039 Y208.5256
G01 X136.5289
G01 X136.9938 Y208.9906
G01 X136.5289 Y208.5256
G01 Y206.2006
G01 X136.9938 Y205.7357
G01 X136.5289 Y206.2006
G01 X106.7039
G01 X106.2389 Y205.7356
G01 X106.7039 Y206.2006
G01 Z-3.0000 F600
G01 Y208.5256 F1200
G01 X106.2389 Y208.9905
G01 X106.7039 Y208.5256
G01 X136.5289
G01 X136.9938 Y208.9906
G01 X136.5289 Y208.5256
G01 Y206.2006
G01 X136.9938 Y205.7357
G01 X136.5289 Y206.2006
G01 X106.7039
G01 X106.2389 Y205.7356
G01 X106.7039 Y206.2006
G01 Z-4.0000 F600
G01 Y208.5256 F1200
G01 X106.2389 Y208.9905
G01 X106.7039 Y208.5256
G01 X136.5289
G01 X136.9938 Y208.9906
G01 X136.5289 Y208.5256
G01 Y206.2006
G01 X136.9938 Y205.7357
G01 X136.5289 Y206.2006
G01 X106.7039
G01 X106.2389 Y205.7356
G01 X106.7039 Y206.2006
G01 Z-5.0000 F600
G01 Y208.5256 F1200
G01 X106.2389 Y208.9905
G01 X106.7039 Y208.5256
G01 X136.5289
G01 X136.9938 Y208.9906
G01 X136.5289 Y208.5256
G01 Y206.2006
G01 X136.9938 Y205.7357
G01 X136.5289 Y206.2006
G01 X106.7039
G01 X106.2389 Y205.7356
G01 X106.7039 Y206.2006
G01 Z-6.0000 F600
G01 Y208.5256 F1200
G01 X106.2389 Y208.9905
G01 X106.7039 Y208.5256
G01 X136.5289
G01 X136.9938 Y208.9906
G01 X136.5289 Y208.5256
G01 Y206.2006
G01 X136.9938 Y205.7357
G01 X136.5289 Y206.2006
G01 X106.7039
G01 X106.2389 Y205.7356
G01 X106.7039 Y206.2006
G00 Z10.0000


;No. 4: Hole 16
G00 X106.7038 Y255.2839 Z10.0000
G00 Z0.5000
G01 Z0.0000 F600
G01 Z-1.0000
G01 Y257.6089 F1200
G01 X106.2388 Y258.0739
G01 X106.7038 Y257.6089
G01 X136.5288 Y257.6090
G01 X136.9937 Y258.0739
G01 X136.5288 Y257.6090
G01 Y255.2840
G01 X136.9937 Y254.8190
G01 X136.5288 Y255.2840
G01 X106.7038 Y255.2839
G01 X106.2388 Y254.8189
G01 X106.7038 Y255.2839
G01 Z-2.0000 F600
G01 Y257.6089 F1200
G01 X106.2388 Y258.0739
G01 X106.7038 Y257.6089
G01 X136.5288 Y257.6090
G01 X136.9937 Y258.0739
G01 X136.5288 Y257.6090
G01 Y255.2840
G01 X136.9937 Y254.8190
G01 X136.5288 Y255.2840
G01 X106.7038 Y255.2839
G01 X106.2388 Y254.8189
G01 X106.7038 Y255.2839
G01 Z-3.0000 F600
G01 Y257.6089 F1200
G01 X106.2388 Y258.0739
G01 X106.7038 Y257.6089
G01 X136.5288 Y257.6090
G01 X136.9937 Y258.0739
G01 X136.5288 Y257.6090
G01 Y255.2840
G01 X136.9937 Y254.8190
G01 X136.5288 Y255.2840
G01 X106.7038 Y255.2839
G01 X106.2388 Y254.8189
G01 X106.7038 Y255.2839
G01 Z-4.0000 F600
G01 Y257.6089 F1200
G01 X106.2388 Y258.0739
G01 X106.7038 Y257.6089
G01 X136.5288 Y257.6090
G01 X136.9937 Y258.0739
G01 X136.5288 Y257.6090
G01 Y255.2840
G01 X136.9937 Y254.8190
G01 X136.5288 Y255.2840
G01 X106.7038 Y255.2839
G01 X106.2388 Y254.8189
G01 X106.7038 Y255.2839
G01 Z-5.0000 F600
G01 Y257.6089 F1200
G01 X106.2388 Y258.0739
G01 X106.7038 Y257.6089
G01 X136.5288 Y257.6090
G01 X136.9937 Y258.0739
G01 X136.5288 Y257.6090
G01 Y255.2840
G01 X136.9937 Y254.8190
G01 X136.5288 Y255.2840
G01 X106.7038 Y255.2839
G01 X106.2388 Y254.8189
G01 X106.7038 Y255.2839
G01 Z-6.0000 F600
G01 Y257.6089 F1200
G01 X106.2388 Y258.0739
G01 X106.7038 Y257.6089
G01 X136.5288 Y257.6090
G01 X136.9937 Y258.0739
G01 X136.5288 Y257.6090
G01 Y255.2840
G01 X136.9937 Y254.8190
G01 X136.5288 Y255.2840
G01 X106.7038 Y255.2839
G01 X106.2388 Y254.8189
G01 X106.7038 Y255.2839
G00 Z10.0000


;No. 5: Hole 14
G00 X106.7037 Y304.3672 Z10.0000
G00 Z0.5000
G01 Z0.0000 F600
G01 Z-1.0000
G01 Y306.6922 F1200
G01 X106.2387 Y307.1572
G01 X106.7037 Y306.6922
G01 X136.5287 Y306.6923
G01 X136.9936 Y307.1573
G01 X136.5287 Y306.6923
G01 Y304.3673
G01 X136.9936 Y303.9023
G01 X136.5287 Y304.3673
G01 X106.7037 Y304.3672
G01 X106.2387 Y303.9023
G01 X106.7037 Y304.3672
G01 Z-2.0000 F600
G01 Y306.6922 F1200
G01 X106.2387 Y307.1572
G01 X106.7037 Y306.6922
G01 X136.5287 Y306.6923
G01 X136.9936 Y307.1573
G01 X136.5287 Y306.6923
G01 Y304.3673
G01 X136.9936 Y303.9023
G01 X136.5287 Y304.3673
G01 X106.7037 Y304.3672
G01 X106.2387 Y303.9023
G01 X106.7037 Y304.3672
G01 Z-3.0000 F600
G01 Y306.6922 F1200
G01 X106.2387 Y307.1572
G01 X106.7037 Y306.6922
G01 X136.5287 Y306.6923
G01 X136.9936 Y307.1573
G01 X136.5287 Y306.6923
G01 Y304.3673
G01 X136.9936 Y303.9023
G01 X136.5287 Y304.3673
G01 X106.7037 Y304.3672
G01 X106.2387 Y303.9023
G01 X106.7037 Y304.3672
G01 Z-4.0000 F600
G01 Y306.6922 F1200
G01 X106.2387 Y307.1572
G01 X106.7037 Y306.6922
G01 X136.5287 Y306.6923
G01 X136.9936 Y307.1573
G01 X136.5287 Y306.6923
G01 Y304.3673
G01 X136.9936 Y303.9023
G01 X136.5287 Y304.3673
G01 X106.7037 Y304.3672
G01 X106.2387 Y303.9023
G01 X106.7037 Y304.3672
G01 Z-5.0000 F600
G01 Y306.6922 F1200
G01 X106.2387 Y307.1572
G01 X106.7037 Y306.6922
G01 X136.5287 Y306.6923
G01 X136.9936 Y307.1573
G01 X136.5287 Y306.6923
G01 Y304.3673
G01 X136.9936 Y303.9023
G01 X136.5287 Y304.3673
G01 X106.7037 Y304.3672
G01 X106.2387 Y303.9023
G01 X106.7037 Y304.3672
G01 Z-6.0000 F600
G01 Y306.6922 F1200
G01 X106.2387 Y307.1572
G01 X106.7037 Y306.6922
G01 X136.5287 Y306.6923
G01 X136.9936 Y307.1573
G01 X136.5287 Y306.6923
G01 Y304.3673
G01 X136.9936 Y303.9023
G01 X136.5287 Y304.3673
G01 X106.7037 Y304.3672
G01 X106.2387 Y303.9023
G01 X106.7037 Y304.3672
G00 Z10.0000


;No. 6: Hole 12
G00 X106.7036 Y353.4506 Z10.0000
G00 Z0.5000
G01 Z0.0000 F600
G01 Z-1.0000
G01 Y355.7756 F1200
G01 X106.2386 Y356.2405
G01 X106.7036 Y355.7756
G01 X136.5286
G01 X136.9935 Y356.2406
G01 X136.5286 Y355.7756
G01 Y353.4506
G01 X136.9935 Y352.9857
G01 X136.5286 Y353.4506
G01 X106.7036
G01 X106.2386 Y352.9856
G01 X106.7036 Y353.4506
G01 Z-2.0000 F600
G01 Y355.7756 F1200
G01 X106.2386 Y356.2405
G01 X106.7036 Y355.7756
G01 X136.5286
G01 X136.9935 Y356.2406
G01 X136.5286 Y355.7756
G01 Y353.4506
G01 X136.9935 Y352.9857
G01 X136.5286 Y353.4506
G01 X106.7036
G01 X106.2386 Y352.9856
G01 X106.7036 Y353.4506
G01 Z-3.0000 F600
G01 Y355.7756 F1200
G01 X106.2386 Y356.2405
G01 X106.7036 Y355.7756
G01 X136.5286
G01 X136.9935 Y356.2406
G01 X136.5286 Y355.7756
G01 Y353.4506
G01 X136.9935 Y352.9857
G01 X136.5286 Y353.4506
G01 X106.7036
G01 X106.2386 Y352.9856
G01 X106.7036 Y353.4506
G01 Z-4.0000 F600
G01 Y355.7756 F1200
G01 X106.2386 Y356.2405
G01 X106.7036 Y355.7756
G01 X136.5286
G01 X136.9935 Y356.2406
G01 X136.5286 Y355.7756
G01 Y353.4506
G01 X136.9935 Y352.9857
G01 X136.5286 Y353.4506
G01 X106.7036
G01 X106.2386 Y352.9856
G01 X106.7036 Y353.4506
G01 Z-5.0000 F600
G01 Y355.7756 F1200
G01 X106.2386 Y356.2405
G01 X106.7036 Y355.7756
G01 X136.5286
G01 X136.9935 Y356.2406
G01 X136.5286 Y355.7756
G01 Y353.4506
G01 X136.9935 Y352.9857
G01 X136.5286 Y353.4506
G01 X106.7036
G01 X106.2386 Y352.9856
G01 X106.7036 Y353.4506
G01 Z-6.0000 F600
G01 Y355.7756 F1200
G01 X106.2386 Y356.2405
G01 X106.7036 Y355.7756
G01 X136.5286
G01 X136.9935 Y356.2406
G01 X136.5286 Y355.7756
G01 Y353.4506
G01 X136.9935 Y352.9857
G01 X136.5286 Y353.4506
G01 X106.7036
G01 X106.2386 Y352.9856
G01 X106.7036 Y353.4506
G00 Z10.0000


;No. 7: Hole 13
G00 X172.6708 Y353.4507 Z10.0000
G00 Z0.5000
G01 Z0.0000 F600
G01 Z-1.0000
G01 Y355.7757 F1200
G01 X172.2059 Y356.2407
G01 X172.6708 Y355.7757
G01 X202.4958 Y355.7758
G01 X202.9608 Y356.2407
G01 X202.4958 Y355.7758
G01 Y353.4508
G01 X202.9608 Y352.9858
G01 X202.4958 Y353.4508
G01 X172.6708 Y353.4507
G01 X172.2059 Y352.9857
G01 X172.6708 Y353.4507
G01 Z-2.0000 F600
G01 Y355.7757 F1200
G01 X172.2059 Y356.2407
G01 X172.6708 Y355.7757
G01 X202.4958 Y355.7758
G01 X202.9608 Y356.2407
G01 X202.4958 Y355.7758
G01 Y353.4508
G01 X202.9608 Y352.9858
G01 X202.4958 Y353.4508
G01 X172.6708 Y353.4507
G01 X172.2059 Y352.9857
G01 X172.6708 Y353.4507
G01 Z-3.0000 F600
G01 Y355.7757 F1200
G01 X172.2059 Y356.2407
G01 X172.6708 Y355.7757
G01 X202.4958 Y355.7758
G01 X202.9608 Y356.2407
G01 X202.4958 Y355.7758
G01 Y353.4508
G01 X202.9608 Y352.9858
G01 X202.4958 Y353.4508
G01 X172.6708 Y353.4507
G01 X172.2059 Y352.9857
G01 X172.6708 Y353.4507
G01 Z-4.0000 F600
G01 Y355.7757 F1200
G01 X172.2059 Y356.2407
G01 X172.6708 Y355.7757
G01 X202.4958 Y355.7758
G01 X202.9608 Y356.2407
G01 X202.4958 Y355.7758
G01 Y353.4508
G01 X202.9608 Y352.9858
G01 X202.4958 Y353.4508
G01 X172.6708 Y353.4507
G01 X172.2059 Y352.9857
G01 X172.6708 Y353.4507
G01 Z-5.0000 F600
G01 Y355.7757 F1200
G01 X172.2059 Y356.2407
G01 X172.6708 Y355.7757
G01 X202.4958 Y355.7758
G01 X202.9608 Y356.2407
G01 X202.4958 Y355.7758
G01 Y353.4508
G01 X202.9608 Y352.9858
G01 X202.4958 Y353.4508
G01 X172.6708 Y353.4507
G01 X172.2059 Y352.9857
G01 X172.6708 Y353.4507
G01 Z-6.0000 F600
G01 Y355.7757 F1200
G01 X172.2059 Y356.2407
G01 X172.6708 Y355.7757
G01 X202.4958 Y355.7758
G01 X202.9608 Y356.2407
G01 X202.4958 Y355.7758
G01 Y353.4508
G01 X202.9608 Y352.9858
G01 X202.4958 Y353.4508
G01 X172.6708 Y353.4507
G01 X172.2059 Y352.9857
G01 X172.6708 Y353.4507
G00 Z10.0000


;No. 8: Hole 15
G00 X172.6709 Y304.3674 Z10.0000
G00 Z0.5000
G01 Z0.0000 F600
G01 Z-1.0000
G01 Y306.6924 F1200
G01 X172.2060 Y307.1573
G01 X172.6709 Y306.6924
G01 X202.4959
G01 X202.9609 Y307.1574
G01 X202.4959 Y306.6924
G01 Y304.3674
G01 X202.9609 Y303.9025
G01 X202.4959 Y304.3674
G01 X172.6709
G01 X172.2060 Y303.9024
G01 X172.6709 Y304.3674
G01 Z-2.0000 F600
G01 Y306.6924 F1200
G01 X172.2060 Y307.1573
G01 X172.6709 Y306.6924
G01 X202.4959
G01 X202.9609 Y307.1574
G01 X202.4959 Y306.6924
G01 Y304.3674
G01 X202.9609 Y303.9025
G01 X202.4959 Y304.3674
G01 X172.6709
G01 X172.2060 Y303.9024
G01 X172.6709 Y304.3674
G01 Z-3.0000 F600
G01 Y306.6924 F1200
G01 X172.2060 Y307.1573
G01 X172.6709 Y306.6924
G01 X202.4959
G01 X202.9609 Y307.1574
G01 X202.4959 Y306.6924
G01 Y304.3674
G01 X202.9609 Y303.9025
G01 X202.4959 Y304.3674
G01 X172.6709
G01 X172.2060 Y303.9024
G01 X172.6709 Y304.3674
G01 Z-4.0000 F600
G01 Y306.6924 F1200
G01 X172.2060 Y307.1573
G01 X172.6709 Y306.6924
G01 X202.4959
G01 X202.9609 Y307.1574
G01 X202.4959 Y306.6924
G01 Y304.3674
G01 X202.9609 Y303.9025
G01 X202.4959 Y304.3674
G01 X172.6709
G01 X172.2060 Y303.9024
G01 X172.6709 Y304.3674
G01 Z-5.0000 F600
G01 Y306.6924 F1200
G01 X172.2060 Y307.1573
G01 X172.6709 Y306.6924
G01 X202.4959
G01 X202.9609 Y307.1574
G01 X202.4959 Y306.6924
G01 Y304.3674
G01 X202.9609 Y303.9025
G01 X202.4959 Y304.3674
G01 X172.6709
G01 X172.2060 Y303.9024
G01 X172.6709 Y304.3674
G01 Z-6.0000 F600
G01 Y306.6924 F1200
G01 X172.2060 Y307.1573
G01 X172.6709 Y306.6924
G01 X202.4959
G01 X202.9609 Y307.1574
G01 X202.4959 Y306.6924
G01 Y304.3674
G01 X202.9609 Y303.9025
G01 X202.4959 Y304.3674
G01 X172.6709
G01 X172.2060 Y303.9024
G01 X172.6709 Y304.3674
G00 Z10.0000


;No. 9: Hole 17
G00 X172.6710 Y255.2840 Z10.0000
G00 Z0.5000
G01 Z0.0000 F600
G01 Z-1.0000
G01 Y257.6090 F1200
G01 X172.2061 Y258.0740
G01 X172.6710 Y257.6090
G01 X202.4960 Y257.6091
G01 X202.9610 Y258.0741
G01 X202.4960 Y257.6091
G01 Y255.2841
G01 X202.9610 Y254.8191
G01 X202.4960 Y255.2841
G01 X172.6710 Y255.2840
G01 X172.2061 Y254.8191
G01 X172.6710 Y255.2840
G01 Z-2.0000 F600
G01 Y257.6090 F1200
G01 X172.2061 Y258.0740
G01 X172.6710 Y257.6090
G01 X202.4960 Y257.6091
G01 X202.9610 Y258.0741
G01 X202.4960 Y257.6091
G01 Y255.2841
G01 X202.9610 Y254.8191
G01 X202.4960 Y255.2841
G01 X172.6710 Y255.2840
G01 X172.2061 Y254.8191
G01 X172.6710 Y255.2840
G01 Z-3.0000 F600
G01 Y257.6090 F1200
G01 X172.2061 Y258.0740
G01 X172.6710 Y257.6090
G01 X202.4960 Y257.6091
G01 X202.9610 Y258.0741
G01 X202.4960 Y257.6091
G01 Y255.2841
G01 X202.9610 Y254.8191
G01 X202.4960 Y255.2841
G01 X172.6710 Y255.2840
G01 X172.2061 Y254.8191
G01 X172.6710 Y255.2840
G01 Z-4.0000 F600
G01 Y257.6090 F1200
G01 X172.2061 Y258.0740
G01 X172.6710 Y257.6090
G01 X202.4960 Y257.6091
G01 X202.9610 Y258.0741
G01 X202.4960 Y257.6091
G01 Y255.2841
G01 X202.9610 Y254.8191
G01 X202.4960 Y255.2841
G01 X172.6710 Y255.2840
G01 X172.2061 Y254.8191
G01 X172.6710 Y255.2840
G01 Z-5.0000 F600
G01 Y257.6090 F1200
G01 X172.2061 Y258.0740
G01 X172.6710 Y257.6090
G01 X202.4960 Y257.6091
G01 X202.9610 Y258.0741
G01 X202.4960 Y257.6091
G01 Y255.2841
G01 X202.9610 Y254.8191
G01 X202.4960 Y255.2841
G01 X172.6710 Y255.2840
G01 X172.2061 Y254.8191
G01 X172.6710 Y255.2840
G01 Z-6.0000 F600
G01 Y257.6090 F1200
G01 X172.2061 Y258.0740
G01 X172.6710 Y257.6090
G01 X202.4960 Y257.6091
G01 X202.9610 Y258.0741
G01 X202.4960 Y257.6091
G01 Y255.2841
G01 X202.9610 Y254.8191
G01 X202.4960 Y255.2841
G01 X172.6710 Y255.2840
G01 X172.2061 Y254.8191
G01 X172.6710 Y255.2840
G00 Z10.0000


;No. 10: Hole 19
G00 X172.6711 Y206.2007 Z10.0000
G00 Z0.5000
G01 Z0.0000 F600
G01 Z-1.0000
G01 Y208.5257 F1200
G01 X172.2062 Y208.9907
G01 X172.6711 Y208.5257
G01 X202.4961 Y208.5258
G01 X202.9611 Y208.9907
G01 X202.4961 Y208.5258
G01 Y206.2008
G01 X202.9611 Y205.7358
G01 X202.4961 Y206.2008
G01 X172.6711 Y206.2007
G01 X172.2062 Y205.7357
G01 X172.6711 Y206.2007
G01 Z-2.0000 F600
G01 Y208.5257 F1200
G01 X172.2062 Y208.9907
G01 X172.6711 Y208.5257
G01 X202.4961 Y208.5258
G01 X202.9611 Y208.9907
G01 X202.4961 Y208.5258
G01 Y206.2008
G01 X202.9611 Y205.7358
G01 X202.4961 Y206.2008
G01 X172.6711 Y206.2007
G01 X172.2062 Y205.7357
G01 X172.6711 Y206.2007
G01 Z-3.0000 F600
G01 Y208.5257 F1200
G01 X172.2062 Y208.9907
G01 X172.6711 Y208.5257
G01 X202.4961 Y208.5258
G01 X202.9611 Y208.9907
G01 X202.4961 Y208.5258
G01 Y206.2008
G01 X202.9611 Y205.7358
G01 X202.4961 Y206.2008
G01 X172.6711 Y206.2007
G01 X172.2062 Y205.7357
G01 X172.6711 Y206.2007
G01 Z-4.0000 F600
G01 Y208.5257 F1200
G01 X172.2062 Y208.9907
G01 X172.6711 Y208.5257
G01 X202.4961 Y208.5258
G01 X202.9611 Y208.9907
G01 X202.4961 Y208.5258
G01 Y206.2008
G01 X202.9611 Y205.7358
G01 X202.4961 Y206.2008
G01 X172.6711 Y206.2007
G01 X172.2062 Y205.7357
G01 X172.6711 Y206.2007
G01 Z-5.0000 F600
G01 Y208.5257 F1200
G01 X172.2062 Y208.9907
G01 X172.6711 Y208.5257
G01 X202.4961 Y208.5258
G01 X202.9611 Y208.9907
G01 X202.4961 Y208.5258
G01 Y206.2008
G01 X202.9611 Y205.7358
G01 X202.4961 Y206.2008
G01 X172.6711 Y206.2007
G01 X172.2062 Y205.7357
G01 X172.6711 Y206.2007
G01 Z-6.0000 F600
G01 Y208.5257 F1200
G01 X172.2062 Y208.9907
G01 X172.6711 Y208.5257
G01 X202.4961 Y208.5258
G01 X202.9611 Y208.9907
G01 X202.4961 Y208.5258
G01 Y206.2008
G01 X202.9611 Y205.7358
G01 X202.4961 Y206.2008
G01 X172.6711 Y206.2007
G01 X172.2062 Y205.7357
G01 X172.6711 Y206.2007
G00 Z10.0000


;No. 11: Hole 22
G00 X172.6712 Y157.1174 Z10.0000
G00 Z0.5000
G01 Z0.0000 F600
G01 Z-1.0000
G01 Y159.4424 F1200
G01 X172.2063 Y159.9073
G01 X172.6712 Y159.4424
G01 X202.4962
G01 X202.9612 Y159.9074
G01 X202.4962 Y159.4424
G01 Y157.1174
G01 X202.9612 Y156.6525
G01 X202.4962 Y157.1174
G01 X172.6712
G01 X172.2063 Y156.6524
G01 X172.6712 Y157.1174
G01 Z-2.0000 F600
G01 Y159.4424 F1200
G01 X172.2063 Y159.9073
G01 X172.6712 Y159.4424
G01 X202.4962
G01 X202.9612 Y159.9074
G01 X202.4962 Y159.4424
G01 Y157.1174
G01 X202.9612 Y156.6525
G01 X202.4962 Y157.1174
G01 X172.6712
G01 X172.2063 Y156.6524
G01 X172.6712 Y157.1174
G01 Z-3.0000 F600
G01 Y159.4424 F1200
G01 X172.2063 Y159.9073
G01 X172.6712 Y159.4424
G01 X202.4962
G01 X202.9612 Y159.9074
G01 X202.4962 Y159.4424
G01 Y157.1174
G01 X202.9612 Y156.6525
G01 X202.4962 Y157.1174
G01 X172.6712
G01 X172.2063 Y156.6524
G01 X172.6712 Y157.1174
G01 Z-4.0000 F600
G01 Y159.4424 F1200
G01 X172.2063 Y159.9073
G01 X172.6712 Y159.4424
G01 X202.4962
G01 X202.9612 Y159.9074
G01 X202.4962 Y159.4424
G01 Y157.1174
G01 X202.9612 Y156.6525
G01 X202.4962 Y157.1174
G01 X172.6712
G01 X172.2063 Y156.6524
G01 X172.6712 Y157.1174
G01 Z-5.0000 F600
G01 Y159.4424 F1200
G01 X172.2063 Y159.9073
G01 X172.6712 Y159.4424
G01 X202.4962
G01 X202.9612 Y159.9074
G01 X202.4962 Y159.4424
G01 Y157.1174
G01 X202.9612 Y156.6525
G01 X202.4962 Y157.1174
G01 X172.6712
G01 X172.2063 Y156.6524
G01 X172.6712 Y157.1174
G01 Z-6.0000 F600
G01 Y159.4424 F1200
G01 X172.2063 Y159.9073
G01 X172.6712 Y159.4424
G01 X202.4962
G01 X202.9612 Y159.9074
G01 X202.4962 Y159.4424
G01 Y157.1174
G01 X202.9612 Y156.6525
G01 X202.4962 Y157.1174
G01 X172.6712
G01 X172.2063 Y156.6524
G01 X172.6712 Y157.1174
G00 Z10.0000


;No. 12: Hole 34
G00 X332.1051 Y106.7349 Z10.0000
G00 Z0.5000
G01 Z0.0000 F600
G01 Z-1.0000
G01 X333.6871 F1200
G01 X333.4814 Y106.8937
G01 X332.1706
G01 X332.2867 Y107.0524
G01 X333.2947
G01 X332.0756 Y106.5762
G01 X333.9311
G01 X332.0816 Y106.4174
G01 X366.5746
G01 X366.5494 Y106.5762
G01 X336.6401
G01 X336.8987 Y106.7349
G01 X345.0835
G01 X344.6070 Y106.8937
G01 X337.1156
G01 X337.3013 Y107.0524
G01 X344.2819
G01 X343.9629 Y107.2112
G01 X337.4622
G01 X337.6032 Y107.3699
G01 X343.6453
G01 X343.3286 Y107.5287
G01 X337.7257
G01 X337.8331 Y107.6874
G01 X343.0125
G01 X342.6969 Y107.8462
G01 X337.9271
G01 X338.0103 Y108.0049
G01 X342.3818
G01 X342.0670 Y108.1637
G01 X338.0818
G01 X338.1471 Y108.3224
G01 X341.7526
G01 X341.4386 Y108.4812
G01 X338.2024
G01 X338.2501 Y108.6399
G01 X341.1249
G01 X340.8116 Y108.7987
G01 X338.2908
G01 X338.3259 Y108.9574
G01 X340.4989
G01 X340.1867 Y109.1162
G01 X338.3564
G01 X338.3837 Y109.2749
G01 X339.8753
G01 X339.5650 Y109.4337
G01 X338.4092
G01 X338.4348 Y109.5924
G01 X339.2571
G01 X336.8314 Y106.2587
G01 X366.3560
G01 X366.1745 Y106.0999
G01 X337.0132
G01 X337.1696 Y105.9412
G01 X366.0205
G01 X365.8850 Y105.7824
G01 X337.3053
G01 X337.4233 Y105.6237
G01 X365.7664
G01 X365.6635 Y105.4649
G01 X337.5280
G01 X337.6212 Y105.3062
G01 X365.5689
G01 X365.4861 Y105.1474
G01 X337.7043
G01 X337.7781 Y104.9887
G01 X365.4122
G01 X365.3465 Y104.8299
G01 X337.8433
G01 X337.9013 Y104.6712
G01 X365.2882
G01 X365.2366 Y104.5124
G01 X337.9527
G01 X337.9980 Y104.3537
G01 X365.1914
G01 X365.1519 Y104.1949
G01 X338.0375
G01 X338.0716 Y104.0362
G01 X365.1178
G01 X365.0889 Y103.8774
G01 X338.1007
G01 X338.1244 Y103.7187
G01 X365.0651
G01 X365.0463 Y103.5599
G01 X338.1433
G01 X338.1579 Y103.4012
G01 X365.0320
G01 X365.0219 Y103.2424
G01 X363.3704
G01 X363.8117 Y103.0837
G01 X364.9613
G01 X361.9973 Y103.2424
G01 X341.2102
G01 X341.5632 Y103.0837
G01 X361.6259
G01 X361.3872 Y102.9249
G01 X341.8027
G01 X341.9920 Y102.7662
G01 X361.2079
G01 X361.0524 Y102.6074
G01 X342.1400
G01 X342.2592 Y102.4487
G01 X360.9375
G01 X360.8360 Y102.2899
G01 X342.3541
G01 X342.4306 Y102.1312
G01 X360.7586
G01 X360.6985 Y101.9724
G01 X342.4889
G01 X342.5330 Y101.8137
G01 X360.6532
G01 X360.6230 Y101.6549
G01 X342.5621
G01 X342.5773 Y101.4962
G01 X360.6062
G01 X360.6024 Y101.3374
G01 X342.5800
G01 X342.5745 Y101.1787
G01 X360.6114
G01 X360.6238 Y101.0199
G01 X342.5659
G01 X342.5663 Y100.8612
G01 X360.6238
G01 Y100.7024
G01 X342.5667
G01 X342.5670 Y100.5437
G01 X360.6238
G01 Y100.3849
G01 X342.5674
G01 X342.5678 Y100.2262
G01 X360.6238
G01 Y100.0674
G01 X342.5682
G01 X342.5686 Y99.9087
G01 X360.6238
G01 Y99.7499
G01 X342.5689
G01 X342.5693 Y99.5912
G01 X360.6238
G01 Y99.4324
G01 X342.5697
G01 X342.5701 Y99.2737
G01 X360.6238
G01 Y99.1149
G01 X342.5704
G01 X342.5708 Y98.9562
G01 X360.6238
G01 Y98.7974
G01 X342.5712
G01 X345.8035 Y106.7349
G01 X357.3810
G01 X356.9094 Y106.8937
G01 X346.2790
G01 X346.5454 Y107.0524
G01 X356.6428
G01 X356.4480 Y107.2112
G01 X346.7407
G01 X346.8924 Y107.3699
G01 X356.2967
G01 X356.1751 Y107.5287
G01 X347.0143
G01 X347.1120 Y107.6874
G01 X356.0775
G01 X355.9909 Y107.8462
G01 X347.1986
G01 X347.2928 Y108.0049
G01 X355.8966
G01 X355.7926 Y108.1637
G01 X347.3967
G01 X347.5110 Y108.3224
G01 X355.6782
G01 X355.5524 Y108.4812
G01 X347.6368
G01 X347.7752 Y108.6399
G01 X355.4140
G01 X355.2615 Y108.7987
G01 X347.9276
G01 X348.0958 Y108.9574
G01 X355.0932
G01 X354.9070 Y109.1162
G01 X348.2820
G01 X348.4902 Y109.2749
G01 X354.6989
G01 X354.4648 Y109.4337
G01 X348.7243
G01 X348.9917 Y109.5924
G01 X354.1975
G01 X353.8846 Y109.7512
G01 X349.3045
G01 X349.6853 Y109.9099
G01 X353.5039
G01 X352.9986 Y110.0687
G01 X350.1907
G01 X351.5184
G00 Z10.0000
G00 X358.1130 Y106.5762
G00 Z0.5000
G01 Z-1.0000 F600
G01 Y106.7349 F1200
G01 X366.2873
G01 X366.0743 Y106.8937
G01 X358.5855
G01 X358.9076 Y107.0524
G01 X365.8876
G01 X365.7274 Y107.2112
G01 X359.2265
G01 X359.5440 Y107.3699
G01 X365.5877
G01 X365.4645 Y107.5287
G01 X359.8607
G01 X360.1768 Y107.6874
G01 X365.3561
G01 X365.2613 Y107.8462
G01 X360.4923
G01 X360.8075 Y108.0049
G01 X365.1792
G01 X365.1049 Y108.1637
G01 X361.1223
G01 X361.4367 Y108.3224
G01 X365.0425
G01 X364.9877 Y108.4812
G01 X361.7507
G01 X362.0644 Y108.6399
G01 X364.9402
G01 X364.8993 Y108.7987
G01 X362.3776
G01 X362.6904 Y108.9574
G01 X364.8640
G01 X364.8333 Y109.1162
G01 X363.0026
G01 X363.3140 Y109.2749
G01 X364.8058
G01 X364.7803 Y109.4337
G01 X363.6243
G01 X363.9323 Y109.5924
G01 X364.7548
G00 Z10.0000
G00 X339.8337 Y103.4012
G00 Z0.5000
G01 Z-1.0000 F600
G01 Y103.2424 F1200
G01 X338.1683
G01 X338.2282 Y103.0837
G01 X339.3804
G00 Z10.0000
G00 X333.5668 Y106.4174
G00 Z0.5000
G01 Z-1.0000 F600
G01 Y106.2587 F1200
G01 X332.1250
G01 X332.2196 Y106.0999
G01 X333.3711
G00 Z10.0000
G00 X367.7418 Y106.5762
G00 Z0.5000
G01 Z0.0000 F600
G01 Z-1.0000
G01 X371.1137 F1200
G01 X371.1065 Y106.4174
G01 X369.4013
G01 X369.6233 Y106.2587
G01 X371.0644
G01 X370.9700 Y106.0999
G01 X369.8186
G01 X369.5022 Y106.7349
G01 X371.0844
G01 X371.0188 Y106.8937
G01 X369.7078
G01 X369.8945 Y107.0524
G01 X370.9018
G01 X371.1221 Y107.2811
G02 X371.0043 Y105.7082 I-0.7111 J-0.7376
G01 X371.0130 Y105.7135
G02 X370.1240 Y105.5669 I-0.6032 J0.8888
G01 X370.1399 Y105.5622
G02 X369.4955 Y105.9555 I0.3836 J1.3530
G03 X366.1581 Y105.6167 I-1.5122 J-1.7120
G03 X365.3347 Y103.1344 I3.4093 J-2.5086
G01 X365.3316 Y102.9910
G03 X364.6389 Y102.2964 I8.4031 J-9.0714
G01 X364.6525 Y102.3087
G01 X364.6278 Y102.2957
G03 X362.9162 Y103.0131 I-2.6929 J-4.0248
G03 X360.9244 Y101.5022 I-0.3020 J-1.6702
G02 X360.9413 Y98.3517 I-52.6929 J-1.8591
G01 X360.9310 Y98.3436
G01 X342.2548 Y98.3435
G02 X342.2632 Y101.4297 I54.3085 J1.3944
G03 X340.3913 Y103.0224 I-1.6939 J-0.0944
G03 X338.9511 Y102.5171 I0.5285 J-3.8114
G03 X338.5546 Y102.2916 I12.2283 J-21.9701
G03 X337.8620 Y102.9828 I-6.1835 J-5.5031
G03 X337.0172 Y105.6341 I-4.2640 J0.1016
G03 X333.5452 Y105.8315 I-1.8222 J-1.4177
G02 X331.7633 Y106.4073 I-0.7474 J0.7320
G02 X333.5766 Y107.2293 I1.0333 J0.1316
G03 X336.9907 Y107.2005 I1.7223 J1.7887
G03 X338.0606 Y109.2671 I-2.0608 J2.3772
G02 X338.2322 Y110.0836 I3.0911 J-0.2233
G02 X338.7076 Y110.2394 I0.2970 J-0.1029
G03 X344.8783 Y107.1219 I134.8728 J259.2977
G03 X346.9221 Y108.0022 I0.5642 J1.5028
G02 X350.9851 Y110.5306 I4.4822 J-2.6740
G03 X352.2878 Y110.5116 I0.6725 J1.4355
G02 X356.4514 Y107.6863 I-0.4691 J-5.1719
G03 X358.6135 Y107.2611 I1.3069 J0.9359
G03 X364.5725 Y110.2766 I-237.8308 J477.3790
G02 X364.9876 Y110.0078 I0.0850 J-0.3238
G03 X365.2633 Y108.6615 I200.7445 J40.3976
G03 X368.1268 Y106.5419 I2.7503 J0.7216
G03 X369.7695 Y107.3626 I-0.3325 J2.7201
G02 X371.1221 Y107.2811 I0.6295 J-0.8171
G01 X370.9018 Y107.0524
G00 Z10.0000


;No. 13: Drill 5
G00 X339.9065 Y105.5815 Z10.0000
G00 Z0.5000
G01 Z-1.0000 F600
G00 Z0.5000
G00 Z-0.5000
G01 Z-1.5000
G00 Z10.0000


;No. 14: Drill 6
G00 X351.5946 Y107.7476 Z10.0000
G00 Z0.5000
G01 Z-1.0000 F600
G00 Z0.5000
G00 Z-0.5000
G01 Z-1.5000
G00 Z10.0000


;No. 15: Drill 7
G00 X363.2830 Y105.5815 Z10.0000
G00 Z0.5000
G01 Z-1.0000 F600
G00 Z0.5000
G00 Z-0.5000
G01 Z-1.5000
G00 Z10.0000


;No. 16: Hole 24
G00 X434.0572 Y125.6600 Z10.0000
G00 Z0.5000
G01 Z0.0000 F600
G01 Z-1.0000
G01 Y155.4850 F1200
G01 X433.5922 Y155.9500
G01 X434.0572 Y155.4850
G01 X436.3821
G01 X436.8471 Y155.9500
G01 X436.3821 Y155.4850
G01 X436.3822 Y125.6600
G01 X436.8472 Y125.1951
G01 X436.3822 Y125.6600
G01 X434.0572
G01 X433.5922 Y125.1951
G01 X434.0572 Y125.6600
G01 Z-2.0000 F600
G01 Y155.4850 F1200
G01 X433.5922 Y155.9500
G01 X434.0572 Y155.4850
G01 X436.3821
G01 X436.8471 Y155.9500
G01 X436.3821 Y155.4850
G01 X436.3822 Y125.6600
G01 X436.8472 Y125.1951
G01 X436.3822 Y125.6600
G01 X434.0572
G01 X433.5922 Y125.1951
G01 X434.0572 Y125.6600
G01 Z-3.0000 F600
G01 Y155.4850 F1200
G01 X433.5922 Y155.9500
G01 X434.0572 Y155.4850
G01 X436.3821
G01 X436.8471 Y155.9500
G01 X436.3821 Y155.4850
G01 X436.3822 Y125.6600
G01 X436.8472 Y125.1951
G01 X436.3822 Y125.6600
G01 X434.0572
G01 X433.5922 Y125.1951
G01 X434.0572 Y125.6600
G01 Z-4.0000 F600
G01 Y155.4850 F1200
G01 X433.5922 Y155.9500
G01 X434.0572 Y155.4850
G01 X436.3821
G01 X436.8471 Y155.9500
G01 X436.3821 Y155.4850
G01 X436.3822 Y125.6600
G01 X436.8472 Y125.1951
G01 X436.3822 Y125.6600
G01 X434.0572
G01 X433.5922 Y125.1951
G01 X434.0572 Y125.6600
G01 Z-5.0000 F600
G01 Y155.4850 F1200
G01 X433.5922 Y155.9500
G01 X434.0572 Y155.4850
G01 X436.3821
G01 X436.8471 Y155.9500
G01 X436.3821 Y155.4850
G01 X436.3822 Y125.6600
G01 X436.8472 Y125.1951
G01 X436.3822 Y125.6600
G01 X434.0572
G01 X433.5922 Y125.1951
G01 X434.0572 Y125.6600
G01 Z-6.0000 F600
G01 Y155.4850 F1200
G01 X433.5922 Y155.9500
G01 X434.0572 Y155.4850
G01 X436.3821
G01 X436.8471 Y155.9500
G01 X436.3821 Y155.4850
G01 X436.3822 Y125.6600
G01 X436.8472 Y125.1951
G01 X436.3822 Y125.6600
G01 X434.0572
G01 X433.5922 Y125.1951
G01 X434.0572 Y125.6600
G00 Z10.0000


;No. 17: Hole 23
G00 X434.0571 Y191.6273 Z10.0000
G00 Z0.5000
G01 Z0.0000 F600
G01 Z-1.0000
G01 X434.0570 Y221.4523 F1200
G01 X433.5921 Y221.9173
G01 X434.0570 Y221.4523
G01 X436.3820
G01 X436.8470 Y221.9173
G01 X436.3820 Y221.4523
G01 X436.3821 Y191.6273
G01 X436.8470 Y191.1623
G01 X436.3821 Y191.6273
G01 X434.0571
G01 X433.5921 Y191.1624
G01 X434.0571 Y191.6273
G01 Z-2.0000 F600
G01 X434.0570 Y221.4523 F1200
G01 X433.5921 Y221.9173
G01 X434.0570 Y221.4523
G01 X436.3820
G01 X436.8470 Y221.9173
G01 X436.3820 Y221.4523
G01 X436.3821 Y191.6273
G01 X436.8470 Y191.1623
G01 X436.3821 Y191.6273
G01 X434.0571
G01 X433.5921 Y191.1624
G01 X434.0571 Y191.6273
G01 Z-3.0000 F600
G01 X434.0570 Y221.4523 F1200
G01 X433.5921 Y221.9173
G01 X434.0570 Y221.4523
G01 X436.3820
G01 X436.8470 Y221.9173
G01 X436.3820 Y221.4523
G01 X436.3821 Y191.6273
G01 X436.8470 Y191.1623
G01 X436.3821 Y191.6273
G01 X434.0571
G01 X433.5921 Y191.1624
G01 X434.0571 Y191.6273
G01 Z-4.0000 F600
G01 X434.0570 Y221.4523 F1200
G01 X433.5921 Y221.9173
G01 X434.0570 Y221.4523
G01 X436.3820
G01 X436.8470 Y221.9173
G01 X436.3820 Y221.4523
G01 X436.3821 Y191.6273
G01 X436.8470 Y191.1623
G01 X436.3821 Y191.6273
G01 X434.0571
G01 X433.5921 Y191.1624
G01 X434.0571 Y191.6273
G01 Z-5.0000 F600
G01 X434.0570 Y221.4523 F1200
G01 X433.5921 Y221.9173
G01 X434.0570 Y221.4523
G01 X436.3820
G01 X436.8470 Y221.9173
G01 X436.3820 Y221.4523
G01 X436.3821 Y191.6273
G01 X436.8470 Y191.1623
G01 X436.3821 Y191.6273
G01 X434.0571
G01 X433.5921 Y191.1624
G01 X434.0571 Y191.6273
G01 Z-6.0000 F600
G01 X434.0570 Y221.4523 F1200
G01 X433.5921 Y221.9173
G01 X434.0570 Y221.4523
G01 X436.3820
G01 X436.8470 Y221.9173
G01 X436.3820 Y221.4523
G01 X436.3821 Y191.6273
G01 X436.8470 Y191.1623
G01 X436.3821 Y191.6273
G01 X434.0571
G01 X433.5921 Y191.1624
G01 X434.0571 Y191.6273
G00 Z10.0000


;No. 18: Hole 35
G00 X499.5367 Y107.0524 Z10.0000
G00 Z0.5000
G01 Z0.0000 F600
G01 Z-1.0000
G01 X500.5447 F1200
G01 X500.7315 Y106.8937
G01 X499.4206
G01 X499.3551 Y106.7349
G01 X500.9371
G01 X501.1812 Y106.5762
G01 X499.3256
G01 X499.3317 Y106.4174
G01 X533.8246
G01 X533.7995 Y106.5762
G01 X503.8902
G01 X504.1487 Y106.7349
G01 X512.3335
G01 X511.8570 Y106.8937
G01 X504.3656
G01 X504.5513 Y107.0524
G01 X511.5319
G01 X511.2129 Y107.2112
G01 X504.7122
G01 X504.8532 Y107.3699
G01 X510.8954
G01 X510.5786 Y107.5287
G01 X504.9757
G01 X505.0831 Y107.6874
G01 X510.2626
G01 X509.9470 Y107.8462
G01 X505.1772
G01 X505.2603 Y108.0049
G01 X509.6318
G01 X509.3170 Y108.1637
G01 X505.3318
G01 X505.3971 Y108.3224
G01 X509.0026
G01 X508.6886 Y108.4812
G01 X505.4525
G01 X505.5001 Y108.6399
G01 X508.3749
G01 X508.0617 Y108.7987
G01 X505.5408
G01 X505.5759 Y108.9574
G01 X507.7489
G01 X507.4367 Y109.1162
G01 X505.6064
G01 X505.6337 Y109.2749
G01 X507.1253
G01 X506.8151 Y109.4337
G01 X505.6592
G01 X505.6848 Y109.5924
G01 X506.5072
G01 X504.0815 Y106.2587
G01 X533.6060
G01 X533.4245 Y106.0999
G01 X504.2633
G01 X504.4196 Y105.9412
G01 X533.2705
G01 X533.1350 Y105.7824
G01 X504.5554
G01 X504.6733 Y105.6237
G01 X533.0164
G01 X532.9136 Y105.4649
G01 X504.7780
G01 X504.8713 Y105.3062
G01 X532.8189
G01 X532.7361 Y105.1474
G01 X504.9543
G01 X505.0281 Y104.9887
G01 X532.6623
G01 X532.5965 Y104.8299
G01 X505.0933
G01 X505.1513 Y104.6712
G01 X532.5382
G01 X532.4867 Y104.5124
G01 X505.2027
G01 X505.2480 Y104.3537
G01 X532.4414
G01 X532.4019 Y104.1949
G01 X505.2875
G01 X505.3217 Y104.0362
G01 X532.3678
G01 X532.3389 Y103.8774
G01 X505.3507
G01 X505.3744 Y103.7187
G01 X532.3152
G01 X532.2964 Y103.5599
G01 X505.3934
G01 X505.4079 Y103.4012
G01 X532.2820
G01 X532.2719 Y103.2424
G01 X530.6204
G01 X531.0617 Y103.0837
G01 X532.2113
G01 X529.2473 Y103.2424
G01 X508.4602
G01 X508.8132 Y103.0837
G01 X528.8760
G01 X528.6372 Y102.9249
G01 X509.0527
G01 X509.2420 Y102.7662
G01 X528.4579
G01 X528.3025 Y102.6074
G01 X509.3900
G01 X509.5092 Y102.4487
G01 X528.1875
G01 X528.0860 Y102.2899
G01 X509.6041
G01 X509.6806 Y102.1312
G01 X528.0086
G01 X527.9485 Y101.9724
G01 X509.7389
G01 X509.7830 Y101.8137
G01 X527.9033
G01 X527.8730 Y101.6549
G01 X509.8121
G01 X509.8273 Y101.4962
G01 X527.8562
G01 X527.8525 Y101.3374
G01 X509.8300
G01 X509.8245 Y101.1787
G01 X527.8614
G01 X527.8738 Y101.0199
G01 X509.8159
G01 X509.8163 Y100.8612
G01 X527.8738
G01 Y100.7024
G01 X509.8167
G01 X509.8170 Y100.5437
G01 X527.8738
G01 Y100.3849
G01 X509.8174
G01 X509.8178 Y100.2262
G01 X527.8738
G01 Y100.0674
G01 X509.8182
G01 X509.8186 Y99.9087
G01 X527.8738
G01 Y99.7499
G01 X509.8189
G01 X509.8193 Y99.5912
G01 X527.8738
G01 Y99.4324
G01 X509.8197
G01 X509.8201 Y99.2737
G01 X527.8738
G01 Y99.1149
G01 X509.8205
G01 X509.8208 Y98.9562
G01 X527.8738
G01 Y98.7974
G01 X509.8212
G01 X513.0535 Y106.7349
G01 X524.6310
G01 X524.1594 Y106.8937
G01 X513.5290
G01 X513.7954 Y107.0524
G01 X523.8928
G01 X523.6980 Y107.2112
G01 X513.9907
G01 X514.1424 Y107.3699
G01 X523.5467
G01 X523.4252 Y107.5287
G01 X514.2643
G01 X514.3620 Y107.6874
G01 X523.3275
G01 X523.2409 Y107.8462
G01 X514.4486
G01 X514.5428 Y108.0049
G01 X523.1466
G01 X523.0426 Y108.1637
G01 X514.6467
G01 X514.7610 Y108.3224
G01 X522.9282
G01 X522.8024 Y108.4812
G01 X514.8868
G01 X515.0252 Y108.6399
G01 X522.6640
G01 X522.5115 Y108.7987
G01 X515.1776
G01 X515.3459 Y108.9574
G01 X522.3433
G01 X522.1570 Y109.1162
G01 X515.5321
G01 X515.7402 Y109.2749
G01 X521.9489
G01 X521.7148 Y109.4337
G01 X515.9743
G01 X516.2417 Y109.5924
G01 X521.4475
G01 X521.1346 Y109.7512
G01 X516.5545
G01 X516.9353 Y109.9099
G01 X520.7539
G01 X520.2486 Y110.0687
G01 X517.4407
G01 X518.7684
G00 Z10.0000
G00 X525.3630 Y106.5762
G00 Z0.5000
G01 Z-1.0000 F600
G01 Y106.7349 F1200
G01 X533.5374
G01 X533.3243 Y106.8937
G01 X525.8355
G01 X526.1576 Y107.0524
G01 X533.1376
G01 X532.9774 Y107.2112
G01 X526.4765
G01 X526.7940 Y107.3699
G01 X532.8377
G01 X532.7145 Y107.5287
G01 X527.1107
G01 X527.4268 Y107.6874
G01 X532.6061
G01 X532.5113 Y107.8462
G01 X527.7424
G01 X528.0575 Y108.0049
G01 X532.4292
G01 X532.3549 Y108.1637
G01 X528.3723
G01 X528.6867 Y108.3224
G01 X532.2925
G01 X532.2377 Y108.4812
G01 X529.0007
G01 X529.3144 Y108.6399
G01 X532.1902
G01 X532.1493 Y108.7987
G01 X529.6276
G01 X529.9404 Y108.9574
G01 X532.1140
G01 X532.0833 Y109.1162
G01 X530.2526
G01 X530.5640 Y109.2749
G01 X532.0558
G01 X532.0304 Y109.4337
G01 X530.8743
G01 X531.1823 Y109.5924
G01 X532.0048
G00 Z10.0000
G00 X507.0837 Y103.4012
G00 Z0.5000
G01 Z-1.0000 F600
G01 Y103.2424 F1200
G01 X505.4183
G01 X505.4782 Y103.0837
G01 X506.6304
G00 Z10.0000
G00 X500.8168 Y106.4174
G00 Z0.5000
G01 Z-1.0000 F600
G01 Y106.2587 F1200
G01 X499.3750
G01 X499.4696 Y106.0999
G01 X500.6211
G00 Z10.0000
G00 X534.9918 Y106.5762
G00 Z0.5000
G01 Z0.0000 F600
G01 Z-1.0000
G01 X538.3637 F1200
G01 X538.3565 Y106.4174
G01 X536.6513
G01 X536.8733 Y106.2587
G01 X538.3144
G01 X538.2200 Y106.0999
G01 X537.0686
G01 X536.7522 Y106.7349
G01 X538.3344
G01 X538.2688 Y106.8937
G01 X536.9579
G01 X537.1446 Y107.0524
G01 X538.1518
G01 X538.3769 Y107.2764
G02 X538.6760 Y106.4020 I-0.7829 J-0.7561
G01 X538.6782 Y106.4149
G02 X537.3740 Y105.5669 I-1.0091 J0.1251
G01 X537.3965 Y105.5603
G02 X536.7456 Y105.9555 I0.3779 J1.3560
G03 X533.4081 Y105.6167 I-1.5122 J-1.7120
G03 X532.5847 Y103.1344 I3.4093 J-2.5086
G01 X532.5816 Y102.9910
G03 X531.8890 Y102.2964 I8.4031 J-9.0714
G01 X531.9025 Y102.3087
G01 X531.8778 Y102.2957
G03 X530.1662 Y103.0131 I-2.6929 J-4.0248
G03 X528.1744 Y101.5022 I-0.3020 J-1.6702
G02 X528.1913 Y98.3517 I-52.6929 J-1.8591
G01 X528.1810 Y98.3436
G01 X509.5048 Y98.3435
G02 X509.5133 Y101.4297 I54.3085 J1.3944
G03 X507.6413 Y103.0224 I-1.6939 J-0.0944
G03 X506.2011 Y102.5171 I0.5285 J-3.8114
G03 X505.8046 Y102.2916 I18.9601 J-33.8107
G03 X505.1120 Y102.9828 I-6.1835 J-5.5031
G03 X504.2673 Y105.6341 I-4.2640 J0.1016
G03 X500.7952 Y105.8315 I-1.8224 J-1.4212
G02 X499.0145 Y106.3965 I-0.7475 J0.7327
G02 X500.7919 Y107.2592 I1.0280 J0.1443
G03 X504.2407 Y107.2005 I1.7549 J1.7639
G03 X505.3106 Y109.2671 I-2.0608 J2.3772
G02 X505.4822 Y110.0836 I3.0911 J-0.2233
G02 X505.9577 Y110.2394 I0.2970 J-0.1029
G03 X512.1283 Y107.1219 I134.8728 J259.2977
G03 X514.1721 Y108.0022 I0.5642 J1.5028
G02 X518.2351 Y110.5306 I4.4822 J-2.6740
G03 X519.5379 Y110.5116 I0.6725 J1.4355
G02 X523.7014 Y107.6863 I-0.4691 J-5.1719
G03 X525.8635 Y107.2611 I1.3069 J0.9359
G03 X531.8225 Y110.2766 I-237.8308 J477.3790
G02 X532.2377 Y110.0078 I0.0850 J-0.3238
G03 X532.5133 Y108.6615 I341.7229 J69.2604
G03 X535.3768 Y106.5419 I2.7503 J0.7216
G03 X537.0196 Y107.3626 I-0.3325 J2.7201
G02 X538.3769 Y107.2764 I0.6295 J-0.8173
G01 X538.1518 Y107.0524
G00 Z10.0000


;No. 19: Drill 8
G00 X507.1566 Y105.5813 Z10.0000
G00 Z0.5000
G01 Z-1.0000 F600
G00 Z0.5000
G00 Z-0.5000
G01 Z-1.5000
G00 Z10.0000


;No. 20: Drill 9
G00 X518.8446 Y107.7472 Z10.0000
G00 Z0.5000
G01 Z-1.0000 F600
G00 Z0.5000
G00 Z-0.5000
G01 Z-1.5000
G00 Z10.0000


;No. 21: Drill 10
G00 X530.5330 Y105.5813 Z10.0000
G00 Z0.5000
G01 Z-1.0000 F600
G00 Z0.5000
G00 Z-0.5000
G01 Z-1.5000
G00 Z10.0000


;No. 22: Hole 26
G00 X436.3822 Y310.6578 Z10.0000
G00 Z0.5000
G01 Z0.0000 F600
G01 Z-1.0000
G01 X434.0572 F1200
G01 X433.5922 Y310.1929
G01 X434.0572 Y310.6578
G01 X434.0571 Y340.4828
G01 X433.5922 Y340.9478
G01 X434.0571 Y340.4828
G01 X436.3821
G01 X436.8471 Y340.9478
G01 X436.3821 Y340.4828
G01 X436.3822 Y310.6578
G01 X436.8472 Y310.1929
G01 X436.3822 Y310.6578
G01 Z-2.0000 F600
G01 X434.0572 F1200
G01 X433.5922 Y310.1929
G01 X434.0572 Y310.6578
G01 X434.0571 Y340.4828
G01 X433.5922 Y340.9478
G01 X434.0571 Y340.4828
G01 X436.3821
G01 X436.8471 Y340.9478
G01 X436.3821 Y340.4828
G01 X436.3822 Y310.6578
G01 X436.8472 Y310.1929
G01 X436.3822 Y310.6578
G01 Z-3.0000 F600
G01 X434.0572 F1200
G01 X433.5922 Y310.1929
G01 X434.0572 Y310.6578
G01 X434.0571 Y340.4828
G01 X433.5922 Y340.9478
G01 X434.0571 Y340.4828
G01 X436.3821
G01 X436.8471 Y340.9478
G01 X436.3821 Y340.4828
G01 X436.3822 Y310.6578
G01 X436.8472 Y310.1929
G01 X436.3822 Y310.6578
G01 Z-4.0000 F600
G01 X434.0572 F1200
G01 X433.5922 Y310.1929
G01 X434.0572 Y310.6578
G01 X434.0571 Y340.4828
G01 X433.5922 Y340.9478
G01 X434.0571 Y340.4828
G01 X436.3821
G01 X436.8471 Y340.9478
G01 X436.3821 Y340.4828
G01 X436.3822 Y310.6578
G01 X436.8472 Y310.1929
G01 X436.3822 Y310.6578
G01 Z-5.0000 F600
G01 X434.0572 F1200
G01 X433.5922 Y310.1929
G01 X434.0572 Y310.6578
G01 X434.0571 Y340.4828
G01 X433.5922 Y340.9478
G01 X434.0571 Y340.4828
G01 X436.3821
G01 X436.8471 Y340.9478
G01 X436.3821 Y340.4828
G01 X436.3822 Y310.6578
G01 X436.8472 Y310.1929
G01 X436.3822 Y310.6578
G01 Z-6.0000 F600
G01 X434.0572 F1200
G01 X433.5922 Y310.1929
G01 X434.0572 Y310.6578
G01 X434.0571 Y340.4828
G01 X433.5922 Y340.9478
G01 X434.0571 Y340.4828
G01 X436.3821
G01 X436.8471 Y340.9478
G01 X436.3821 Y340.4828
G01 X436.3822 Y310.6578
G01 X436.8472 Y310.1929
G01 X436.3822 Y310.6578
G00 Z10.0000


;No. 23: Hole 25
G00 X436.3821 Y376.6251 Z10.0000
G00 Z0.5000
G01 Z0.0000 F600
G01 Z-1.0000
G01 X434.0571 F1200
G01 X433.5921 Y376.1601
G01 X434.0571 Y376.6251
G01 X434.0570 Y406.4501
G01 X433.5920 Y406.9151
G01 X434.0570 Y406.4501
G01 X436.3820
G01 X436.8470 Y406.9151
G01 X436.3820 Y406.4501
G01 X436.3821 Y376.6251
G01 X436.8470 Y376.1601
G01 X436.3821 Y376.6251
G01 Z-2.0000 F600
G01 X434.0571 F1200
G01 X433.5921 Y376.1601
G01 X434.0571 Y376.6251
G01 X434.0570 Y406.4501
G01 X433.5920 Y406.9151
G01 X434.0570 Y406.4501
G01 X436.3820
G01 X436.8470 Y406.9151
G01 X436.3820 Y406.4501
G01 X436.3821 Y376.6251
G01 X436.8470 Y376.1601
G01 X436.3821 Y376.6251
G01 Z-3.0000 F600
G01 X434.0571 F1200
G01 X433.5921 Y376.1601
G01 X434.0571 Y376.6251
G01 X434.0570 Y406.4501
G01 X433.5920 Y406.9151
G01 X434.0570 Y406.4501
G01 X436.3820
G01 X436.8470 Y406.9151
G01 X436.3820 Y406.4501
G01 X436.3821 Y376.6251
G01 X436.8470 Y376.1601
G01 X436.3821 Y376.6251
G01 Z-4.0000 F600
G01 X434.0571 F1200
G01 X433.5921 Y376.1601
G01 X434.0571 Y376.6251
G01 X434.0570 Y406.4501
G01 X433.5920 Y406.9151
G01 X434.0570 Y406.4501
G01 X436.3820
G01 X436.8470 Y406.9151
G01 X436.3820 Y406.4501
G01 X436.3821 Y376.6251
G01 X436.8470 Y376.1601
G01 X436.3821 Y376.6251
G01 Z-5.0000 F600
G01 X434.0571 F1200
G01 X433.5921 Y376.1601
G01 X434.0571 Y376.6251
G01 X434.0570 Y406.4501
G01 X433.5920 Y406.9151
G01 X434.0570 Y406.4501
G01 X436.3820
G01 X436.8470 Y406.9151
G01 X436.3820 Y406.4501
G01 X436.3821 Y376.6251
G01 X436.8470 Y376.1601
G01 X436.3821 Y376.6251
G01 Z-6.0000 F600
G01 X434.0571 F1200
G01 X433.5921 Y376.1601
G01 X434.0571 Y376.6251
G01 X434.0570 Y406.4501
G01 X433.5920 Y406.9151
G01 X434.0570 Y406.4501
G01 X436.3820
G01 X436.8470 Y406.9151
G01 X436.3820 Y406.4501
G01 X436.3821 Y376.6251
G01 X436.8470 Y376.1601
G01 X436.3821 Y376.6251
G00 Z10.0000


;No. 24: Hole 33
G00 X541.1870 Y429.3216 Z10.0000
G00 Z0.5000
G01 Z0.0000 F600
G01 Z-1.0000
G01 X587.3770 F1200
G01 Y429.4804
G01 X541.1870
G01 Y429.6391
G01 X587.3770
G01 Y429.7979
G01 X541.1870
G01 Y429.9566
G01 X587.3770
G01 Y430.1154
G01 X541.1870
G01 Y430.2741
G01 X587.3770
G01 Y430.4329
G01 X541.1870
G01 Y430.5916
G01 X587.3770
G01 Y430.7504
G01 X541.1870
G01 Y430.9091
G01 X587.3770
G01 Y431.0679
G01 X541.1870
G01 Y431.2266
G01 X587.3770
G01 Y431.3854
G01 X541.1870
G01 Y431.5441
G01 X587.3770
G01 Y431.7029
G01 X541.1870
G01 Y431.8616
G01 X587.3770
G01 Y432.0204
G01 X541.1870
G01 Y432.1791
G01 X587.3770
G01 Y432.3379
G01 X541.1870
G01 Y432.4966
G01 X587.3770
G01 Y432.6554
G01 X541.1870
G01 Y432.8141
G01 X587.3770
G01 Y432.9729
G01 X541.1870
G01 Y433.1316
G01 X587.3770
G01 Y433.2904
G01 X541.1870
G01 Y433.4491
G01 X587.3770
G01 Y433.6079
G01 X541.1870
G01 Y433.7666
G01 X587.3770
G01 Y433.9254
G01 X541.1870
G01 Y434.0841
G01 X587.3770
G01 Y434.2429
G01 X541.1870
G01 Y434.4016
G01 X587.3770
G01 Y434.5604
G01 X541.1870
G01 Y434.7191
G01 X587.3770
G01 Y434.8779
G01 X541.1870
G01 Y435.0366
G01 X587.3770
G01 X587.6945 Y434.9411
G01 Y428.8916
G01 X588.1595 Y428.4267
G01 X587.6945 Y428.8916
G01 X540.8695
G01 X540.4046 Y428.4266
G01 X540.8695 Y428.8916
G01 Y435.4666
G01 X540.4046 Y435.9315
G01 X540.8695 Y435.4666
G01 X587.6945
G01 X588.1595 Y435.9316
G01 X587.6945 Y435.4666
G01 Y434.9411
G01 X587.3770 Y435.0366
G00 Z10.0000


;No. 25: Drill 3
G00 X545.1070 Y432.1790 Z10.0000
G00 Z0.5000
G01 Z-1.0000 F600
G00 Z0.5000
G00 Z-0.5000
G01 Z-1.5000
G00 Z10.0000


;No. 26: Drill 4
G00 X583.4571 Y432.1791 Z10.0000
G00 Z0.5000
G01 Z-1.0000 F600
G00 Z0.5000
G00 Z-0.5000
G01 Z-1.5000
G00 Z10.0000


;No. 27: Hole 30
G00 X539.4348 Y635.1942 Z10.0000
G00 Z0.5000
G01 Z0.0000 F600
G01 Z-1.0000
G01 Y637.5192 F1200
G01 X538.9698 Y637.9841
G01 X539.4348 Y637.5192
G01 X569.2598
G01 X569.7247 Y637.9842
G01 X569.2598 Y637.5192
G01 Y635.1942
G01 X569.7247 Y634.7292
G01 X569.2598 Y635.1942
G01 X539.4348
G01 X538.9698 Y634.7292
G01 X539.4348 Y635.1942
G01 Z-2.0000 F600
G01 Y637.5192 F1200
G01 X538.9698 Y637.9841
G01 X539.4348 Y637.5192
G01 X569.2598
G01 X569.7247 Y637.9842
G01 X569.2598 Y637.5192
G01 Y635.1942
G01 X569.7247 Y634.7292
G01 X569.2598 Y635.1942
G01 X539.4348
G01 X538.9698 Y634.7292
G01 X539.4348 Y635.1942
G01 Z-3.0000 F600
G01 Y637.5192 F1200
G01 X538.9698 Y637.9841
G01 X539.4348 Y637.5192
G01 X569.2598
G01 X569.7247 Y637.9842
G01 X569.2598 Y637.5192
G01 Y635.1942
G01 X569.7247 Y634.7292
G01 X569.2598 Y635.1942
G01 X539.4348
G01 X538.9698 Y634.7292
G01 X539.4348 Y635.1942
G01 Z-4.0000 F600
G01 Y637.5192 F1200
G01 X538.9698 Y637.9841
G01 X539.4348 Y637.5192
G01 X569.2598
G01 X569.7247 Y637.9842
G01 X569.2598 Y637.5192
G01 Y635.1942
G01 X569.7247 Y634.7292
G01 X569.2598 Y635.1942
G01 X539.4348
G01 X538.9698 Y634.7292
G01 X539.4348 Y635.1942
G01 Z-5.0000 F600
G01 Y637.5192 F1200
G01 X538.9698 Y637.9841
G01 X539.4348 Y637.5192
G01 X569.2598
G01 X569.7247 Y637.9842
G01 X569.2598 Y637.5192
G01 Y635.1942
G01 X569.7247 Y634.7292
G01 X569.2598 Y635.1942
G01 X539.4348
G01 X538.9698 Y634.7292
G01 X539.4348 Y635.1942
G01 Z-6.0000 F600
G01 Y637.5192 F1200
G01 X538.9698 Y637.9841
G01 X539.4348 Y637.5192
G01 X569.2598
G01 X569.7247 Y637.9842
G01 X569.2598 Y637.5192
G01 Y635.1942
G01 X569.7247 Y634.7292
G01 X569.2598 Y635.1942
G01 X539.4348
G01 X538.9698 Y634.7292
G01 X539.4348 Y635.1942
G00 Z10.0000


;No. 28: Hole 29
G00 X473.4675 Y635.1941 Z10.0000
G00 Z0.5000
G01 Z0.0000 F600
G01 Z-1.0000
G01 Y637.5191 F1200
G01 X473.0025 Y637.9841
G01 X473.4675 Y637.5191
G01 X503.2925
G01 X503.7574 Y637.9841
G01 X503.2925 Y637.5191
G01 Y635.1941
G01 X503.7574 Y634.7292
G01 X503.2925 Y635.1941
G01 X473.4675
G01 X473.0025 Y634.7291
G01 X473.4675 Y635.1941
G01 Z-2.0000 F600
G01 Y637.5191 F1200
G01 X473.0025 Y637.9841
G01 X473.4675 Y637.5191
G01 X503.2925
G01 X503.7574 Y637.9841
G01 X503.2925 Y637.5191
G01 Y635.1941
G01 X503.7574 Y634.7292
G01 X503.2925 Y635.1941
G01 X473.4675
G01 X473.0025 Y634.7291
G01 X473.4675 Y635.1941
G01 Z-3.0000 F600
G01 Y637.5191 F1200
G01 X473.0025 Y637.9841
G01 X473.4675 Y637.5191
G01 X503.2925
G01 X503.7574 Y637.9841
G01 X503.2925 Y637.5191
G01 Y635.1941
G01 X503.7574 Y634.7292
G01 X503.2925 Y635.1941
G01 X473.4675
G01 X473.0025 Y634.7291
G01 X473.4675 Y635.1941
G01 Z-4.0000 F600
G01 Y637.5191 F1200
G01 X473.0025 Y637.9841
G01 X473.4675 Y637.5191
G01 X503.2925
G01 X503.7574 Y637.9841
G01 X503.2925 Y637.5191
G01 Y635.1941
G01 X503.7574 Y634.7292
G01 X503.2925 Y635.1941
G01 X473.4675
G01 X473.0025 Y634.7291
G01 X473.4675 Y635.1941
G01 Z-5.0000 F600
G01 Y637.5191 F1200
G01 X473.0025 Y637.9841
G01 X473.4675 Y637.5191
G01 X503.2925
G01 X503.7574 Y637.9841
G01 X503.2925 Y637.5191
G01 Y635.1941
G01 X503.7574 Y634.7292
G01 X503.2925 Y635.1941
G01 X473.4675
G01 X473.0025 Y634.7291
G01 X473.4675 Y635.1941
G01 Z-6.0000 F600
G01 Y637.5191 F1200
G01 X473.0025 Y637.9841
G01 X473.4675 Y637.5191
G01 X503.2925
G01 X503.7574 Y637.9841
G01 X503.2925 Y637.5191
G01 Y635.1941
G01 X503.7574 Y634.7292
G01 X503.2925 Y635.1941
G01 X473.4675
G01 X473.0025 Y634.7291
G01 X473.4675 Y635.1941
G00 Z10.0000


;No. 29: Hole 28
G00 X407.3703 Y635.1942 Z10.0000
G00 Z0.5000
G01 Z0.0000 F600
G01 Z-1.0000
G01 Y637.5192 F1200
G01 X406.9054 Y637.9841
G01 X407.3703 Y637.5192
G01 X437.1953
G01 X437.6603 Y637.9842
G01 X437.1953 Y637.5192
G01 Y635.1942
G01 X437.6603 Y634.7292
G01 X437.1953 Y635.1942
G01 X407.3703
G01 X406.9054 Y634.7292
G01 X407.3703 Y635.1942
G01 Z-2.0000 F600
G01 Y637.5192 F1200
G01 X406.9054 Y637.9841
G01 X407.3703 Y637.5192
G01 X437.1953
G01 X437.6603 Y637.9842
G01 X437.1953 Y637.5192
G01 Y635.1942
G01 X437.6603 Y634.7292
G01 X437.1953 Y635.1942
G01 X407.3703
G01 X406.9054 Y634.7292
G01 X407.3703 Y635.1942
G01 Z-3.0000 F600
G01 Y637.5192 F1200
G01 X406.9054 Y637.9841
G01 X407.3703 Y637.5192
G01 X437.1953
G01 X437.6603 Y637.9842
G01 X437.1953 Y637.5192
G01 Y635.1942
G01 X437.6603 Y634.7292
G01 X437.1953 Y635.1942
G01 X407.3703
G01 X406.9054 Y634.7292
G01 X407.3703 Y635.1942
G01 Z-4.0000 F600
G01 Y637.5192 F1200
G01 X406.9054 Y637.9841
G01 X407.3703 Y637.5192
G01 X437.1953
G01 X437.6603 Y637.9842
G01 X437.1953 Y637.5192
G01 Y635.1942
G01 X437.6603 Y634.7292
G01 X437.1953 Y635.1942
G01 X407.3703
G01 X406.9054 Y634.7292
G01 X407.3703 Y635.1942
G01 Z-5.0000 F600
G01 Y637.5192 F1200
G01 X406.9054 Y637.9841
G01 X407.3703 Y637.5192
G01 X437.1953
G01 X437.6603 Y637.9842
G01 X437.1953 Y637.5192
G01 Y635.1942
G01 X437.6603 Y634.7292
G01 X437.1953 Y635.1942
G01 X407.3703
G01 X406.9054 Y634.7292
G01 X407.3703 Y635.1942
G01 Z-6.0000 F600
G01 Y637.5192 F1200
G01 X406.9054 Y637.9841
G01 X407.3703 Y637.5192
G01 X437.1953
G01 X437.6603 Y637.9842
G01 X437.1953 Y637.5192
G01 Y635.1942
G01 X437.6603 Y634.7292
G01 X437.1953 Y635.1942
G01 X407.3703
G01 X406.9054 Y634.7292
G01 X407.3703 Y635.1942
G00 Z10.0000


;No. 30: Hole 27
G00 X341.4031 Y635.1941 Z10.0000
G00 Z0.5000
G01 Z0.0000 F600
G01 Z-1.0000
G01 Y637.5191 F1200
G01 X340.9381 Y637.9841
G01 X341.4031 Y637.5191
G01 X371.2281
G01 X371.6930 Y637.9841
G01 X371.2281 Y637.5191
G01 Y635.1941
G01 X371.6930 Y634.7292
G01 X371.2281 Y635.1941
G01 X341.4031
G01 X340.9381 Y634.7291
G01 X341.4031 Y635.1941
G01 Z-2.0000 F600
G01 Y637.5191 F1200
G01 X340.9381 Y637.9841
G01 X341.4031 Y637.5191
G01 X371.2281
G01 X371.6930 Y637.9841
G01 X371.2281 Y637.5191
G01 Y635.1941
G01 X371.6930 Y634.7292
G01 X371.2281 Y635.1941
G01 X341.4031
G01 X340.9381 Y634.7291
G01 X341.4031 Y635.1941
G01 Z-3.0000 F600
G01 Y637.5191 F1200
G01 X340.9381 Y637.9841
G01 X341.4031 Y637.5191
G01 X371.2281
G01 X371.6930 Y637.9841
G01 X371.2281 Y637.5191
G01 Y635.1941
G01 X371.6930 Y634.7292
G01 X371.2281 Y635.1941
G01 X341.4031
G01 X340.9381 Y634.7291
G01 X341.4031 Y635.1941
G01 Z-4.0000 F600
G01 Y637.5191 F1200
G01 X340.9381 Y637.9841
G01 X341.4031 Y637.5191
G01 X371.2281
G01 X371.6930 Y637.9841
G01 X371.2281 Y637.5191
G01 Y635.1941
G01 X371.6930 Y634.7292
G01 X371.2281 Y635.1941
G01 X341.4031
G01 X340.9381 Y634.7291
G01 X341.4031 Y635.1941
G01 Z-5.0000 F600
G01 Y637.5191 F1200
G01 X340.9381 Y637.9841
G01 X341.4031 Y637.5191
G01 X371.2281
G01 X371.6930 Y637.9841
G01 X371.2281 Y637.5191
G01 Y635.1941
G01 X371.6930 Y634.7292
G01 X371.2281 Y635.1941
G01 X341.4031
G01 X340.9381 Y634.7291
G01 X341.4031 Y635.1941
G01 Z-6.0000 F600
G01 Y637.5191 F1200
G01 X340.9381 Y637.9841
G01 X341.4031 Y637.5191
G01 X371.2281
G01 X371.6930 Y637.9841
G01 X371.2281 Y637.5191
G01 Y635.1941
G01 X371.6930 Y634.7292
G01 X371.2281 Y635.1941
G01 X341.4031
G01 X340.9381 Y634.7291
G01 X341.4031 Y635.1941
G00 Z10.0000


;No. 31: Hole 6
G00 X172.6707 Y644.6108 Z10.0000
G00 Z0.5000
G01 Z0.0000 F600
G01 Z-1.0000
G01 Y646.9358 F1200
G01 X172.2058 Y647.4008
G01 X172.6707 Y646.9358
G01 X202.4957
G01 X202.9607 Y647.4008
G01 X202.4957 Y646.9358
G01 Y644.6108
G01 X202.9607 Y644.1459
G01 X202.4957 Y644.6108
G01 X172.6707
G01 X172.2058 Y644.1459
G01 X172.6707 Y644.6108
G01 Z-2.0000 F600
G01 Y646.9358 F1200
G01 X172.2058 Y647.4008
G01 X172.6707 Y646.9358
G01 X202.4957
G01 X202.9607 Y647.4008
G01 X202.4957 Y646.9358
G01 Y644.6108
G01 X202.9607 Y644.1459
G01 X202.4957 Y644.6108
G01 X172.6707
G01 X172.2058 Y644.1459
G01 X172.6707 Y644.6108
G01 Z-3.0000 F600
G01 Y646.9358 F1200
G01 X172.2058 Y647.4008
G01 X172.6707 Y646.9358
G01 X202.4957
G01 X202.9607 Y647.4008
G01 X202.4957 Y646.9358
G01 Y644.6108
G01 X202.9607 Y644.1459
G01 X202.4957 Y644.6108
G01 X172.6707
G01 X172.2058 Y644.1459
G01 X172.6707 Y644.6108
G01 Z-4.0000 F600
G01 Y646.9358 F1200
G01 X172.2058 Y647.4008
G01 X172.6707 Y646.9358
G01 X202.4957
G01 X202.9607 Y647.4008
G01 X202.4957 Y646.9358
G01 Y644.6108
G01 X202.9607 Y644.1459
G01 X202.4957 Y644.6108
G01 X172.6707
G01 X172.2058 Y644.1459
G01 X172.6707 Y644.6108
G01 Z-5.0000 F600
G01 Y646.9358 F1200
G01 X172.2058 Y647.4008
G01 X172.6707 Y646.9358
G01 X202.4957
G01 X202.9607 Y647.4008
G01 X202.4957 Y646.9358
G01 Y644.6108
G01 X202.9607 Y644.1459
G01 X202.4957 Y644.6108
G01 X172.6707
G01 X172.2058 Y644.1459
G01 X172.6707 Y644.6108
G01 Z-6.0000 F600
G01 Y646.9358 F1200
G01 X172.2058 Y647.4008
G01 X172.6707 Y646.9358
G01 X202.4957
G01 X202.9607 Y647.4008
G01 X202.4957 Y646.9358
G01 Y644.6108
G01 X202.9607 Y644.1459
G01 X202.4957 Y644.6108
G01 X172.6707
G01 X172.2058 Y644.1459
G01 X172.6707 Y644.6108
G00 Z10.0000


;No. 32: Hole 8
G00 X172.6707 Y595.5275 Z10.0000
G00 Z0.5000
G01 Z0.0000 F600
G01 Z-1.0000
G01 Y597.8525 F1200
G01 X172.2058 Y598.3175
G01 X172.6707 Y597.8525
G01 X202.4957
G01 X202.9607 Y598.3175
G01 X202.4957 Y597.8525
G01 Y595.5275
G01 X202.9607 Y595.0625
G01 X202.4957 Y595.5275
G01 X172.6707
G01 X172.2058 Y595.0625
G01 X172.6707 Y595.5275
G01 Z-2.0000 F600
G01 Y597.8525 F1200
G01 X172.2058 Y598.3175
G01 X172.6707 Y597.8525
G01 X202.4957
G01 X202.9607 Y598.3175
G01 X202.4957 Y597.8525
G01 Y595.5275
G01 X202.9607 Y595.0625
G01 X202.4957 Y595.5275
G01 X172.6707
G01 X172.2058 Y595.0625
G01 X172.6707 Y595.5275
G01 Z-3.0000 F600
G01 Y597.8525 F1200
G01 X172.2058 Y598.3175
G01 X172.6707 Y597.8525
G01 X202.4957
G01 X202.9607 Y598.3175
G01 X202.4957 Y597.8525
G01 Y595.5275
G01 X202.9607 Y595.0625
G01 X202.4957 Y595.5275
G01 X172.6707
G01 X172.2058 Y595.0625
G01 X172.6707 Y595.5275
G01 Z-4.0000 F600
G01 Y597.8525 F1200
G01 X172.2058 Y598.3175
G01 X172.6707 Y597.8525
G01 X202.4957
G01 X202.9607 Y598.3175
G01 X202.4957 Y597.8525
G01 Y595.5275
G01 X202.9607 Y595.0625
G01 X202.4957 Y595.5275
G01 X172.6707
G01 X172.2058 Y595.0625
G01 X172.6707 Y595.5275
G01 Z-5.0000 F600
G01 Y597.8525 F1200
G01 X172.2058 Y598.3175
G01 X172.6707 Y597.8525
G01 X202.4957
G01 X202.9607 Y598.3175
G01 X202.4957 Y597.8525
G01 Y595.5275
G01 X202.9607 Y595.0625
G01 X202.4957 Y595.5275
G01 X172.6707
G01 X172.2058 Y595.0625
G01 X172.6707 Y595.5275
G01 Z-6.0000 F600
G01 Y597.8525 F1200
G01 X172.2058 Y598.3175
G01 X172.6707 Y597.8525
G01 X202.4957
G01 X202.9607 Y598.3175
G01 X202.4957 Y597.8525
G01 Y595.5275
G01 X202.9607 Y595.0625
G01 X202.4957 Y595.5275
G01 X172.6707
G01 X172.2058 Y595.0625
G01 X172.6707 Y595.5275
G00 Z10.0000


;No. 33: Hole 11
G00 X135.8015 Y570.6782 Z10.0000
G00 Z0.5000
G01 Z0.0000 F600
G01 Z-1.0000
G02 X136.0996 Y573.6483 I0.2981 J1.4701 F1200
G01 X173.0996
G02 Y570.6483 I0.0000 J-1.5000
G01 X136.0996
G02 X135.8015 Y570.6782 I0.0016 J1.5154
G01 Z-2.0000 F600
G02 X136.0996 Y573.6483 I0.2981 J1.4701 F1200
G01 X173.0996
G02 Y570.6483 I0.0000 J-1.5000
G01 X136.0996
G02 X135.8015 Y570.6782 I0.0016 J1.5154
G01 Z-3.0000 F600
G02 X136.0996 Y573.6483 I0.2981 J1.4701 F1200
G01 X173.0996
G02 Y570.6483 I0.0000 J-1.5000
G01 X136.0996
G02 X135.8015 Y570.6782 I0.0016 J1.5154
G01 Z-4.0000 F600
G02 X136.0996 Y573.6483 I0.2981 J1.4701 F1200
G01 X173.0996
G02 Y570.6483 I0.0000 J-1.5000
G01 X136.0996
G02 X135.8015 Y570.6782 I0.0016 J1.5154
G01 Z-5.0000 F600
G02 X136.0996 Y573.6483 I0.2981 J1.4701 F1200
G01 X173.0996
G02 Y570.6483 I0.0000 J-1.5000
G01 X136.0996
G02 X135.8015 Y570.6782 I0.0016 J1.5154
G01 Z-6.0000 F600
G02 X136.0996 Y573.6483 I0.2981 J1.4701 F1200
G01 X173.0996
G02 Y570.6483 I0.0000 J-1.5000
G01 X136.0996
G02 X135.8015 Y570.6782 I0.0016 J1.5154
G00 Z10.0000


;No. 34: Hole 9
G00 X106.7035 Y546.4442 Z10.0000
G00 Z0.5000
G01 Z0.0000 F600
G01 Z-1.0000
G01 Y548.7692 F1200
G01 X106.2385 Y549.2341
G01 X106.7035 Y548.7692
G01 X136.5285
G01 X136.9934 Y549.2341
G01 X136.5285 Y548.7692
G01 Y546.4442
G01 X136.9934 Y545.9792
G01 X136.5285 Y546.4442
G01 X106.7035
G01 X106.2385 Y545.9792
G01 X106.7035 Y546.4442
G01 Z-2.0000 F600
G01 Y548.7692 F1200
G01 X106.2385 Y549.2341
G01 X106.7035 Y548.7692
G01 X136.5285
G01 X136.9934 Y549.2341
G01 X136.5285 Y548.7692
G01 Y546.4442
G01 X136.9934 Y545.9792
G01 X136.5285 Y546.4442
G01 X106.7035
G01 X106.2385 Y545.9792
G01 X106.7035 Y546.4442
G01 Z-3.0000 F600
G01 Y548.7692 F1200
G01 X106.2385 Y549.2341
G01 X106.7035 Y548.7692
G01 X136.5285
G01 X136.9934 Y549.2341
G01 X136.5285 Y548.7692
G01 Y546.4442
G01 X136.9934 Y545.9792
G01 X136.5285 Y546.4442
G01 X106.7035
G01 X106.2385 Y545.9792
G01 X106.7035 Y546.4442
G01 Z-4.0000 F600
G01 Y548.7692 F1200
G01 X106.2385 Y549.2341
G01 X106.7035 Y548.7692
G01 X136.5285
G01 X136.9934 Y549.2341
G01 X136.5285 Y548.7692
G01 Y546.4442
G01 X136.9934 Y545.9792
G01 X136.5285 Y546.4442
G01 X106.7035
G01 X106.2385 Y545.9792
G01 X106.7035 Y546.4442
G01 Z-5.0000 F600
G01 Y548.7692 F1200
G01 X106.2385 Y549.2341
G01 X106.7035 Y548.7692
G01 X136.5285
G01 X136.9934 Y549.2341
G01 X136.5285 Y548.7692
G01 Y546.4442
G01 X136.9934 Y545.9792
G01 X136.5285 Y546.4442
G01 X106.7035
G01 X106.2385 Y545.9792
G01 X106.7035 Y546.4442
G01 Z-6.0000 F600
G01 Y548.7692 F1200
G01 X106.2385 Y549.2341
G01 X106.7035 Y548.7692
G01 X136.5285
G01 X136.9934 Y549.2341
G01 X136.5285 Y548.7692
G01 Y546.4442
G01 X136.9934 Y545.9792
G01 X136.5285 Y546.4442
G01 X106.7035
G01 X106.2385 Y545.9792
G01 X106.7035 Y546.4442
G00 Z10.0000


;No. 35: Hole 7
G00 X106.7035 Y595.5275 Z10.0000
G00 Z0.5000
G01 Z0.0000 F600
G01 Z-1.0000
G01 Y597.8525 F1200
G01 X106.2385 Y598.3175
G01 X106.7035 Y597.8525
G01 X136.5285
G01 X136.9934 Y598.3175
G01 X136.5285 Y597.8525
G01 Y595.5275
G01 X136.9934 Y595.0625
G01 X136.5285 Y595.5275
G01 X106.7035
G01 X106.2385 Y595.0625
G01 X106.7035 Y595.5275
G01 Z-2.0000 F600
G01 Y597.8525 F1200
G01 X106.2385 Y598.3175
G01 X106.7035 Y597.8525
G01 X136.5285
G01 X136.9934 Y598.3175
G01 X136.5285 Y597.8525
G01 Y595.5275
G01 X136.9934 Y595.0625
G01 X136.5285 Y595.5275
G01 X106.7035
G01 X106.2385 Y595.0625
G01 X106.7035 Y595.5275
G01 Z-3.0000 F600
G01 Y597.8525 F1200
G01 X106.2385 Y598.3175
G01 X106.7035 Y597.8525
G01 X136.5285
G01 X136.9934 Y598.3175
G01 X136.5285 Y597.8525
G01 Y595.5275
G01 X136.9934 Y595.0625
G01 X136.5285 Y595.5275
G01 X106.7035
G01 X106.2385 Y595.0625
G01 X106.7035 Y595.5275
G01 Z-4.0000 F600
G01 Y597.8525 F1200
G01 X106.2385 Y598.3175
G01 X106.7035 Y597.8525
G01 X136.5285
G01 X136.9934 Y598.3175
G01 X136.5285 Y597.8525
G01 Y595.5275
G01 X136.9934 Y595.0625
G01 X136.5285 Y595.5275
G01 X106.7035
G01 X106.2385 Y595.0625
G01 X106.7035 Y595.5275
G01 Z-5.0000 F600
G01 Y597.8525 F1200
G01 X106.2385 Y598.3175
G01 X106.7035 Y597.8525
G01 X136.5285
G01 X136.9934 Y598.3175
G01 X136.5285 Y597.8525
G01 Y595.5275
G01 X136.9934 Y595.0625
G01 X136.5285 Y595.5275
G01 X106.7035
G01 X106.2385 Y595.0625
G01 X106.7035 Y595.5275
G01 Z-6.0000 F600
G01 Y597.8525 F1200
G01 X106.2385 Y598.3175
G01 X106.7035 Y597.8525
G01 X136.5285
G01 X136.9934 Y598.3175
G01 X136.5285 Y597.8525
G01 Y595.5275
G01 X136.9934 Y595.0625
G01 X136.5285 Y595.5275
G01 X106.7035
G01 X106.2385 Y595.0625
G01 X106.7035 Y595.5275
G00 Z10.0000


;No. 36: Hole 5
G00 X106.7035 Y644.6108 Z10.0000
G00 Z0.5000
G01 Z0.0000 F600
G01 Z-1.0000
G01 Y646.9358 F1200
G01 X106.2385 Y647.4008
G01 X106.7035 Y646.9358
G01 X136.5285
G01 X136.9934 Y647.4008
G01 X136.5285 Y646.9358
G01 Y644.6108
G01 X136.9934 Y644.1459
G01 X136.5285 Y644.6108
G01 X106.7035
G01 X106.2385 Y644.1459
G01 X106.7035 Y644.6108
G01 Z-2.0000 F600
G01 Y646.9358 F1200
G01 X106.2385 Y647.4008
G01 X106.7035 Y646.9358
G01 X136.5285
G01 X136.9934 Y647.4008
G01 X136.5285 Y646.9358
G01 Y644.6108
G01 X136.9934 Y644.1459
G01 X136.5285 Y644.6108
G01 X106.7035
G01 X106.2385 Y644.1459
G01 X106.7035 Y644.6108
G01 Z-3.0000 F600
G01 Y646.9358 F1200
G01 X106.2385 Y647.4008
G01 X106.7035 Y646.9358
G01 X136.5285
G01 X136.9934 Y647.4008
G01 X136.5285 Y646.9358
G01 Y644.6108
G01 X136.9934 Y644.1459
G01 X136.5285 Y644.6108
G01 X106.7035
G01 X106.2385 Y644.1459
G01 X106.7035 Y644.6108
G01 Z-4.0000 F600
G01 Y646.9358 F1200
G01 X106.2385 Y647.4008
G01 X106.7035 Y646.9358
G01 X136.5285
G01 X136.9934 Y647.4008
G01 X136.5285 Y646.9358
G01 Y644.6108
G01 X136.9934 Y644.1459
G01 X136.5285 Y644.6108
G01 X106.7035
G01 X106.2385 Y644.1459
G01 X106.7035 Y644.6108
G01 Z-5.0000 F600
G01 Y646.9358 F1200
G01 X106.2385 Y647.4008
G01 X106.7035 Y646.9358
G01 X136.5285
G01 X136.9934 Y647.4008
G01 X136.5285 Y646.9358
G01 Y644.6108
G01 X136.9934 Y644.1459
G01 X136.5285 Y644.6108
G01 X106.7035
G01 X106.2385 Y644.1459
G01 X106.7035 Y644.6108
G01 Z-6.0000 F600
G01 Y646.9358 F1200
G01 X106.2385 Y647.4008
G01 X106.7035 Y646.9358
G01 X136.5285
G01 X136.9934 Y647.4008
G01 X136.5285 Y646.9358
G01 Y644.6108
G01 X136.9934 Y644.1459
G01 X136.5285 Y644.6108
G01 X106.7035
G01 X106.2385 Y644.1459
G01 X106.7035 Y644.6108
G00 Z10.0000


;No. 37: Hole 3
G00 X106.7035 Y693.6942 Z10.0000
G00 Z0.5000
G01 Z0.0000 F600
G01 Z-1.0000
G01 Y696.0192 F1200
G01 X106.2385 Y696.4841
G01 X106.7035 Y696.0192
G01 X136.5285
G01 X136.9934 Y696.4841
G01 X136.5285 Y696.0192
G01 Y693.6942
G01 X136.9934 Y693.2292
G01 X136.5285 Y693.6942
G01 X106.7035
G01 X106.2385 Y693.2292
G01 X106.7035 Y693.6942
G01 Z-2.0000 F600
G01 Y696.0192 F1200
G01 X106.2385 Y696.4841
G01 X106.7035 Y696.0192
G01 X136.5285
G01 X136.9934 Y696.4841
G01 X136.5285 Y696.0192
G01 Y693.6942
G01 X136.9934 Y693.2292
G01 X136.5285 Y693.6942
G01 X106.7035
G01 X106.2385 Y693.2292
G01 X106.7035 Y693.6942
G01 Z-3.0000 F600
G01 Y696.0192 F1200
G01 X106.2385 Y696.4841
G01 X106.7035 Y696.0192
G01 X136.5285
G01 X136.9934 Y696.4841
G01 X136.5285 Y696.0192
G01 Y693.6942
G01 X136.9934 Y693.2292
G01 X136.5285 Y693.6942
G01 X106.7035
G01 X106.2385 Y693.2292
G01 X106.7035 Y693.6942
G01 Z-4.0000 F600
G01 Y696.0192 F1200
G01 X106.2385 Y696.4841
G01 X106.7035 Y696.0192
G01 X136.5285
G01 X136.9934 Y696.4841
G01 X136.5285 Y696.0192
G01 Y693.6942
G01 X136.9934 Y693.2292
G01 X136.5285 Y693.6942
G01 X106.7035
G01 X106.2385 Y693.2292
G01 X106.7035 Y693.6942
G01 Z-5.0000 F600
G01 Y696.0192 F1200
G01 X106.2385 Y696.4841
G01 X106.7035 Y696.0192
G01 X136.5285
G01 X136.9934 Y696.4841
G01 X136.5285 Y696.0192
G01 Y693.6942
G01 X136.9934 Y693.2292
G01 X136.5285 Y693.6942
G01 X106.7035
G01 X106.2385 Y693.2292
G01 X106.7035 Y693.6942
G01 Z-6.0000 F600
G01 Y696.0192 F1200
G01 X106.2385 Y696.4841
G01 X106.7035 Y696.0192
G01 X136.5285
G01 X136.9934 Y696.4841
G01 X136.5285 Y696.0192
G01 Y693.6942
G01 X136.9934 Y693.2292
G01 X136.5285 Y693.6942
G01 X106.7035
G01 X106.2385 Y693.2292
G01 X106.7035 Y693.6942
G00 Z10.0000


;No. 38: Hole 1
G00 X106.7035 Y742.7775 Z10.0000
G00 Z0.5000
G01 Z0.0000 F600
G01 Z-1.0000
G01 Y745.1025 F1200
G01 X106.2385 Y745.5675
G01 X106.7035 Y745.1025
G01 X136.5285
G01 X136.9934 Y745.5675
G01 X136.5285 Y745.1025
G01 Y742.7775
G01 X136.9934 Y742.3125
G01 X136.5285 Y742.7775
G01 X106.7035
G01 X106.2385 Y742.3125
G01 X106.7035 Y742.7775
G01 Z-2.0000 F600
G01 Y745.1025 F1200
G01 X106.2385 Y745.5675
G01 X106.7035 Y745.1025
G01 X136.5285
G01 X136.9934 Y745.5675
G01 X136.5285 Y745.1025
G01 Y742.7775
G01 X136.9934 Y742.3125
G01 X136.5285 Y742.7775
G01 X106.7035
G01 X106.2385 Y742.3125
G01 X106.7035 Y742.7775
G01 Z-3.0000 F600
G01 Y745.1025 F1200
G01 X106.2385 Y745.5675
G01 X106.7035 Y745.1025
G01 X136.5285
G01 X136.9934 Y745.5675
G01 X136.5285 Y745.1025
G01 Y742.7775
G01 X136.9934 Y742.3125
G01 X136.5285 Y742.7775
G01 X106.7035
G01 X106.2385 Y742.3125
G01 X106.7035 Y742.7775
G01 Z-4.0000 F600
G01 Y745.1025 F1200
G01 X106.2385 Y745.5675
G01 X106.7035 Y745.1025
G01 X136.5285
G01 X136.9934 Y745.5675
G01 X136.5285 Y745.1025
G01 Y742.7775
G01 X136.9934 Y742.3125
G01 X136.5285 Y742.7775
G01 X106.7035
G01 X106.2385 Y742.3125
G01 X106.7035 Y742.7775
G01 Z-5.0000 F600
G01 Y745.1025 F1200
G01 X106.2385 Y745.5675
G01 X106.7035 Y745.1025
G01 X136.5285
G01 X136.9934 Y745.5675
G01 X136.5285 Y745.1025
G01 Y742.7775
G01 X136.9934 Y742.3125
G01 X136.5285 Y742.7775
G01 X106.7035
G01 X106.2385 Y742.3125
G01 X106.7035 Y742.7775
G01 Z-6.0000 F600
G01 Y745.1025 F1200
G01 X106.2385 Y745.5675
G01 X106.7035 Y745.1025
G01 X136.5285
G01 X136.9934 Y745.5675
G01 X136.5285 Y745.1025
G01 Y742.7775
G01 X136.9934 Y742.3125
G01 X136.5285 Y742.7775
G01 X106.7035
G01 X106.2385 Y742.3125
G01 X106.7035 Y742.7775
G00 Z10.0000


;No. 39: Hole 2
G00 X172.6707 Y742.7775 Z10.0000
G00 Z0.5000
G01 Z0.0000 F600
G01 Z-1.0000
G01 Y745.1025 F1200
G01 X172.2058 Y745.5675
G01 X172.6707 Y745.1025
G01 X202.4957
G01 X202.9607 Y745.5675
G01 X202.4957 Y745.1025
G01 Y742.7775
G01 X202.9607 Y742.3125
G01 X202.4957 Y742.7775
G01 X172.6707
G01 X172.2058 Y742.3125
G01 X172.6707 Y742.7775
G01 Z-2.0000 F600
G01 Y745.1025 F1200
G01 X172.2058 Y745.5675
G01 X172.6707 Y745.1025
G01 X202.4957
G01 X202.9607 Y745.5675
G01 X202.4957 Y745.1025
G01 Y742.7775
G01 X202.9607 Y742.3125
G01 X202.4957 Y742.7775
G01 X172.6707
G01 X172.2058 Y742.3125
G01 X172.6707 Y742.7775
G01 Z-3.0000 F600
G01 Y745.1025 F1200
G01 X172.2058 Y745.5675
G01 X172.6707 Y745.1025
G01 X202.4957
G01 X202.9607 Y745.5675
G01 X202.4957 Y745.1025
G01 Y742.7775
G01 X202.9607 Y742.3125
G01 X202.4957 Y742.7775
G01 X172.6707
G01 X172.2058 Y742.3125
G01 X172.6707 Y742.7775
G01 Z-4.0000 F600
G01 Y745.1025 F1200
G01 X172.2058 Y745.5675
G01 X172.6707 Y745.1025
G01 X202.4957
G01 X202.9607 Y745.5675
G01 X202.4957 Y745.1025
G01 Y742.7775
G01 X202.9607 Y742.3125
G01 X202.4957 Y742.7775
G01 X172.6707
G01 X172.2058 Y742.3125
G01 X172.6707 Y742.7775
G01 Z-5.0000 F600
G01 Y745.1025 F1200
G01 X172.2058 Y745.5675
G01 X172.6707 Y745.1025
G01 X202.4957
G01 X202.9607 Y745.5675
G01 X202.4957 Y745.1025
G01 Y742.7775
G01 X202.9607 Y742.3125
G01 X202.4957 Y742.7775
G01 X172.6707
G01 X172.2058 Y742.3125
G01 X172.6707 Y742.7775
G01 Z-6.0000 F600
G01 Y745.1025 F1200
G01 X172.2058 Y745.5675
G01 X172.6707 Y745.1025
G01 X202.4957
G01 X202.9607 Y745.5675
G01 X202.4957 Y745.1025
G01 Y742.7775
G01 X202.9607 Y742.3125
G01 X202.4957 Y742.7775
G01 X172.6707
G01 X172.2058 Y742.3125
G01 X172.6707 Y742.7775
G00 Z10.0000


;No. 40: Hole 4
G00 X172.6707 Y693.6942 Z10.0000
G00 Z0.5000
G01 Z0.0000 F600
G01 Z-1.0000
G01 Y696.0192 F1200
G01 X172.2058 Y696.4841
G01 X172.6707 Y696.0192
G01 X202.4957
G01 X202.9607 Y696.4841
G01 X202.4957 Y696.0192
G01 Y693.6942
G01 X202.9607 Y693.2292
G01 X202.4957 Y693.6942
G01 X172.6707
G01 X172.2058 Y693.2292
G01 X172.6707 Y693.6942
G01 Z-2.0000 F600
G01 Y696.0192 F1200
G01 X172.2058 Y696.4841
G01 X172.6707 Y696.0192
G01 X202.4957
G01 X202.9607 Y696.4841
G01 X202.4957 Y696.0192
G01 Y693.6942
G01 X202.9607 Y693.2292
G01 X202.4957 Y693.6942
G01 X172.6707
G01 X172.2058 Y693.2292
G01 X172.6707 Y693.6942
G01 Z-3.0000 F600
G01 Y696.0192 F1200
G01 X172.2058 Y696.4841
G01 X172.6707 Y696.0192
G01 X202.4957
G01 X202.9607 Y696.4841
G01 X202.4957 Y696.0192
G01 Y693.6942
G01 X202.9607 Y693.2292
G01 X202.4957 Y693.6942
G01 X172.6707
G01 X172.2058 Y693.2292
G01 X172.6707 Y693.6942
G01 Z-4.0000 F600
G01 Y696.0192 F1200
G01 X172.2058 Y696.4841
G01 X172.6707 Y696.0192
G01 X202.4957
G01 X202.9607 Y696.4841
G01 X202.4957 Y696.0192
G01 Y693.6942
G01 X202.9607 Y693.2292
G01 X202.4957 Y693.6942
G01 X172.6707
G01 X172.2058 Y693.2292
G01 X172.6707 Y693.6942
G01 Z-5.0000 F600
G01 Y696.0192 F1200
G01 X172.2058 Y696.4841
G01 X172.6707 Y696.0192
G01 X202.4957
G01 X202.9607 Y696.4841
G01 X202.4957 Y696.0192
G01 Y693.6942
G01 X202.9607 Y693.2292
G01 X202.4957 Y693.6942
G01 X172.6707
G01 X172.2058 Y693.2292
G01 X172.6707 Y693.6942
G01 Z-6.0000 F600
G01 Y696.0192 F1200
G01 X172.2058 Y696.4841
G01 X172.6707 Y696.0192
G01 X202.4957
G01 X202.9607 Y696.4841
G01 X202.4957 Y696.0192
G01 Y693.6942
G01 X202.9607 Y693.2292
G01 X202.4957 Y693.6942
G01 X172.6707
G01 X172.2058 Y693.2292
G01 X172.6707 Y693.6942
G00 Z10.0000


;No. 41: Hole 10
G00 X172.6707 Y546.4442 Z10.0000
G00 Z0.5000
G01 Z0.0000 F600
G01 Z-1.0000
G01 Y548.7692 F1200
G01 X172.2058 Y549.2341
G01 X172.6707 Y548.7692
G01 X202.4957
G01 X202.9607 Y549.2341
G01 X202.4957 Y548.7692
G01 Y546.4442
G01 X202.9607 Y545.9792
G01 X202.4957 Y546.4442
G01 X172.6707
G01 X172.2058 Y545.9792
G01 X172.6707 Y546.4442
G01 Z-2.0000 F600
G01 Y548.7692 F1200
G01 X172.2058 Y549.2341
G01 X172.6707 Y548.7692
G01 X202.4957
G01 X202.9607 Y549.2341
G01 X202.4957 Y548.7692
G01 Y546.4442
G01 X202.9607 Y545.9792
G01 X202.4957 Y546.4442
G01 X172.6707
G01 X172.2058 Y545.9792
G01 X172.6707 Y546.4442
G01 Z-3.0000 F600
G01 Y548.7692 F1200
G01 X172.2058 Y549.2341
G01 X172.6707 Y548.7692
G01 X202.4957
G01 X202.9607 Y549.2341
G01 X202.4957 Y548.7692
G01 Y546.4442
G01 X202.9607 Y545.9792
G01 X202.4957 Y546.4442
G01 X172.6707
G01 X172.2058 Y545.9792
G01 X172.6707 Y546.4442
G01 Z-4.0000 F600
G01 Y548.7692 F1200
G01 X172.2058 Y549.2341
G01 X172.6707 Y548.7692
G01 X202.4957
G01 X202.9607 Y549.2341
G01 X202.4957 Y548.7692
G01 Y546.4442
G01 X202.9607 Y545.9792
G01 X202.4957 Y546.4442
G01 X172.6707
G01 X172.2058 Y545.9792
G01 X172.6707 Y546.4442
G01 Z-5.0000 F600
G01 Y548.7692 F1200
G01 X172.2058 Y549.2341
G01 X172.6707 Y548.7692
G01 X202.4957
G01 X202.9607 Y549.2341
G01 X202.4957 Y548.7692
G01 Y546.4442
G01 X202.9607 Y545.9792
G01 X202.4957 Y546.4442
G01 X172.6707
G01 X172.2058 Y545.9792
G01 X172.6707 Y546.4442
G01 Z-6.0000 F600
G01 Y548.7692 F1200
G01 X172.2058 Y549.2341
G01 X172.6707 Y548.7692
G01 X202.4957
G01 X202.9607 Y549.2341
G01 X202.4957 Y548.7692
G01 Y546.4442
G01 X202.9607 Y545.9792
G01 X202.4957 Y546.4442
G01 X172.6707
G01 X172.2058 Y545.9792
G01 X172.6707 Y546.4442
G00 Z10.0000


;No. 42: Hole 32
G00 X283.0618 Y435.0366 Z10.0000
G00 Z0.5000
G01 Z0.0000 F600
G01 Z-1.0000
G01 X329.2517 F1200
G01 Y434.8779
G01 X283.0618
G01 Y434.7191
G01 X329.2517
G01 Y434.5604
G01 X283.0618
G01 Y434.4016
G01 X329.2517
G01 Y434.2429
G01 X283.0618
G01 Y434.0841
G01 X329.2517
G01 Y433.9254
G01 X283.0618
G01 Y433.7666
G01 X329.2517
G01 Y433.6079
G01 X283.0618
G01 Y433.4491
G01 X329.2517
G01 Y433.2904
G01 X283.0618
G01 Y433.1316
G01 X329.2517
G01 Y432.9729
G01 X283.0618
G01 Y432.8141
G01 X329.2517
G01 Y432.6554
G01 X283.0618
G01 Y432.4966
G01 X329.2517
G01 Y432.3379
G01 X283.0618
G01 Y432.1791
G01 X329.2517
G01 Y432.0204
G01 X283.0618
G01 Y431.8616
G01 X329.2517
G01 Y431.7029
G01 X283.0618
G01 Y431.5441
G01 X329.2517
G01 Y431.3854
G01 X283.0618
G01 Y431.2266
G01 X329.2517
G01 Y431.0679
G01 X283.0618
G01 Y430.9091
G01 X329.2517
G01 Y430.7504
G01 X283.0618
G01 Y430.5916
G01 X329.2517
G01 X329.2518 Y430.4329
G01 X283.0618
G01 Y430.2741
G01 X329.2518
G01 Y430.1154
G01 X283.0618
G01 Y429.9566
G01 X329.2518
G01 Y429.7979
G01 X283.0618
G01 Y429.6391
G01 X329.2518
G01 Y429.4804
G01 X283.0618
G01 Y429.3216
G01 X329.2518
G01 X329.5693 Y429.4171
G01 Y428.8916
G01 X330.0342 Y428.4267
G01 X329.5693 Y428.8916
G01 X282.7443
G01 X282.2793 Y428.4266
G01 X282.7443 Y428.8916
G01 Y435.4666
G01 X282.2793 Y435.9315
G01 X282.7443 Y435.4666
G01 X329.5692
G01 X330.0342 Y435.9316
G01 X329.5692 Y435.4666
G01 X329.5693 Y429.4171
G01 X329.2518 Y429.3216
G00 Z10.0000


;No. 43: Drill 1
G00 X286.9816 Y432.1825 Z10.0000
G00 Z0.5000
G01 Z-1.0000 F600
G00 Z0.5000
G00 Z-0.5000
G01 Z-1.5000
G00 Z10.0000


;No. 44: Drill 2
G00 X325.3318 Y432.1791 Z10.0000
G00 Z0.5000
G01 Z-1.0000 F600
G00 Z0.5000
G00 Z-0.5000
G01 Z-1.5000
G00 Z10.0000


;No. 45: Part 4
G00 X269.1321 Y471.0836 Z10.0000
G00 Z0.5000
G01 Z0.0000 F600
G01 Z-1.0000
G01 Y466.3567 F1200
G03 X270.9782 Y464.7731 I1.6130 J0.0126
G03 X283.3074 Y477.3491 I-0.2575 J12.5841
G01 Y491.5970
G00 Z0.0000
G01 Y497.7720
G01 Z-1.0000 F600
G01 Y543.2799 F1200
G00 Z0.0000
G01 Y549.4549
G01 Z-1.0000 F600
G01 Y588.7664 F1200
G00 Z0.0000
G01 Y594.9414
G01 Z-1.0000 F600
G01 Y615.3856 F1200
G03 X281.7199 Y616.9731 I-1.5875 J0.0000
G01 X279.3073
G00 Z0.0000
G01 X273.1323
G01 Z-1.0000 F600
G01 X270.7196 F1200
G03 X269.1321 Y615.3856 I0.0000 J-1.5875
G01 Y591.9423
G01 X269.5970 Y591.4773
G01 X269.1321 Y591.9423
G01 X265.2196
G03 X263.6321 Y590.3548 I0.0000 J-1.5875
G01 Y576.9423
G00 Z0.0000
G01 Y570.7673
G01 Z-1.0000 F600
G01 Y557.3547 F1200
G03 X265.2196 Y555.7672 I1.5875 J0.0000
G01 X269.1321
G01 X269.5970 Y556.2322
G01 X269.1321 Y555.7672
G01 Y525.9750
G01 X269.5970 Y525.5100
G01 X269.1321 Y525.9750
G01 X265.2196
G03 X263.6321 Y524.3875 I0.0000 J-1.5875
G01 Y510.9750
G00 Z0.0000
G01 Y504.8000
G01 Z-1.0000 F600
G01 Y491.3875 F1200
G03 X265.2196 Y489.8000 I1.5875 J0.0000
G01 X269.1321
G01 X269.5970 Y490.2650
G01 X269.1321 Y489.8000
G01 Y477.2586
G00 Z0.0000
G01 Y471.0836
G00 Z-0.5000
G01 Z-1.0000 F600
G01 Z-2.0000
G01 Y466.3567 F1200
G03 X270.9782 Y464.7731 I1.6130 J0.0126
G03 X283.3074 Y477.3491 I-0.2575 J12.5841
G01 Y491.5970
G00 Z0.0000
G01 Y497.7720
G00 Z-0.5000
G01 Z-1.0000 F600
G01 Z-2.0000
G01 Y543.2799 F1200
G00 Z0.0000
G01 Y549.4549
G00 Z-0.5000
G01 Z-1.0000 F600
G01 Z-2.0000
G01 Y588.7664 F1200
G00 Z0.0000
G01 Y594.9414
G00 Z-0.5000
G01 Z-1.0000 F600
G01 Z-2.0000
G01 Y615.3856 F1200
G03 X281.7199 Y616.9731 I-1.5875 J0.0000
G01 X279.3073
G00 Z0.0000
G01 X273.1323
G00 Z-0.5000
G01 Z-1.0000 F600
G01 Z-2.0000
G01 X270.7196 F1200
G03 X269.1321 Y615.3856 I0.0000 J-1.5875
G01 Y591.9423
G01 X269.5970 Y591.4773
G01 X269.1321 Y591.9423
G01 X265.2196
G03 X263.6321 Y590.3548 I0.0000 J-1.5875
G01 Y576.9423
G00 Z0.0000
G01 Y570.7673
G00 Z-0.5000
G01 Z-1.0000 F600
G01 Z-2.0000
G01 Y557.3547 F1200
G03 X265.2196 Y555.7672 I1.5875 J0.0000
G01 X269.1321
G01 X269.5970 Y556.2322
G01 X269.1321 Y555.7672
G01 Y525.9750
G01 X269.5970 Y525.5100
G01 X269.1321 Y525.9750
G01 X265.2196
G03 X263.6321 Y524.3875 I0.0000 J-1.5875
G01 Y510.9750
G00 Z0.0000
G01 Y504.8000
G00 Z-0.5000
G01 Z-1.0000 F600
G01 Z-2.0000
G01 Y491.3875 F1200
G03 X265.2196 Y489.8000 I1.5875 J0.0000
G01 X269.1321
G01 X269.5970 Y490.2650
G01 X269.1321 Y489.8000
G01 Y477.2586
G00 Z0.0000
G01 Y471.0836
G00 Z-1.5000
G01 Z-2.0000 F600
G01 Z-3.0000
G01 Y466.3567 F1200
G03 X270.9782 Y464.7731 I1.6130 J0.0126
G03 X283.3074 Y477.3491 I-0.2575 J12.5841
G01 Y491.5970
G00 Z0.0000
G01 Y497.7720
G00 Z-1.5000
G01 Z-2.0000 F600
G01 Z-3.0000
G01 Y543.2799 F1200
G00 Z0.0000
G01 Y549.4549
G00 Z-1.5000
G01 Z-2.0000 F600
G01 Z-3.0000
G01 Y588.7664 F1200
G00 Z0.0000
G01 Y594.9414
G00 Z-1.5000
G01 Z-2.0000 F600
G01 Z-3.0000
G01 Y615.3856 F1200
G03 X281.7199 Y616.9731 I-1.5875 J0.0000
G01 X279.3073
G00 Z0.0000
G01 X273.1323
G00 Z-1.5000
G01 Z-2.0000 F600
G01 Z-3.0000
G01 X270.7196 F1200
G03 X269.1321 Y615.3856 I0.0000 J-1.5875
G01 Y591.9423
G01 X269.5970 Y591.4773
G01 X269.1321 Y591.9423
G01 X265.2196
G03 X263.6321 Y590.3548 I0.0000 J-1.5875
G01 Y576.9423
G00 Z0.0000
G01 Y570.7673
G00 Z-1.5000
G01 Z-2.0000 F600
G01 Z-3.0000
G01 Y557.3547 F1200
G03 X265.2196 Y555.7672 I1.5875 J0.0000
G01 X269.1321
G01 X269.5970 Y556.2322
G01 X269.1321 Y555.7672
G01 Y525.9750
G01 X269.5970 Y525.5100
G01 X269.1321 Y525.9750
G01 X265.2196
G03 X263.6321 Y524.3875 I0.0000 J-1.5875
G01 Y510.9750
G00 Z0.0000
G01 Y504.8000
G00 Z-1.5000
G01 Z-2.0000 F600
G01 Z-3.0000
G01 Y491.3875 F1200
G03 X265.2196 Y489.8000 I1.5875 J0.0000
G01 X269.1321
G01 X269.5970 Y490.2650
G01 X269.1321 Y489.8000
G01 Y477.2586
G00 Z0.0000
G01 Y471.0836
G00 Z-2.5000
G01 Z-3.0000 F600
G01 Z-4.0000
G01 Y466.3567 F1200
G03 X270.9782 Y464.7731 I1.6130 J0.0126
G03 X283.3074 Y477.3491 I-0.2575 J12.5841
G01 Y491.5970
G00 Z0.0000
G01 Y497.7720
G00 Z-2.5000
G01 Z-3.0000 F600
G01 Z-4.0000
G01 Y543.2799 F1200
G00 Z0.0000
G01 Y549.4549
G00 Z-2.5000
G01 Z-3.0000 F600
G01 Z-4.0000
G01 Y588.7664 F1200
G00 Z0.0000
G01 Y594.9414
G00 Z-2.5000
G01 Z-3.0000 F600
G01 Z-4.0000
G01 Y615.3856 F1200
G03 X281.7199 Y616.9731 I-1.5875 J0.0000
G01 X279.3073
G00 Z0.0000
G01 X273.1323
G00 Z-2.5000
G01 Z-3.0000 F600
G01 Z-4.0000
G01 X270.7196 F1200
G03 X269.1321 Y615.3856 I0.0000 J-1.5875
G01 Y591.9423
G01 X269.5970 Y591.4773
G01 X269.1321 Y591.9423
G01 X265.2196
G03 X263.6321 Y590.3548 I0.0000 J-1.5875
G01 Y576.9423
G00 Z0.0000
G01 Y570.7673
G00 Z-2.5000
G01 Z-3.0000 F600
G01 Z-4.0000
G01 Y557.3547 F1200
G03 X265.2196 Y555.7672 I1.5875 J0.0000
G01 X269.1321
G01 X269.5970 Y556.2322
G01 X269.1321 Y555.7672
G01 Y525.9750
G01 X269.5970 Y525.5100
G01 X269.1321 Y525.9750
G01 X265.2196
G03 X263.6321 Y524.3875 I0.0000 J-1.5875
G01 Y510.9750
G00 Z0.0000
G01 Y504.8000
G00 Z-2.5000
G01 Z-3.0000 F600
G01 Z-4.0000
G01 Y491.3875 F1200
G03 X265.2196 Y489.8000 I1.5875 J0.0000
G01 X269.1321
G01 X269.5970 Y490.2650
G01 X269.1321 Y489.8000
G01 Y477.2586
G00 Z0.0000
G01 Y471.0836
G00 Z-3.5000
G01 Z-4.0000 F600
G01 Z-5.0000
G01 Y466.3567 F1200
G03 X270.9782 Y464.7731 I1.6130 J0.0126
G03 X283.3074 Y477.3491 I-0.2575 J12.5841
G01 Y491.5970
G00 Z0.0000
G01 Y497.7720
G00 Z-3.5000
G01 Z-4.0000 F600
G01 Z-5.0000
G01 Y543.2799 F1200
G00 Z0.0000
G01 Y549.4549
G00 Z-3.5000
G01 Z-4.0000 F600
G01 Z-5.0000
G01 Y588.7664 F1200
G00 Z0.0000
G01 Y594.9414
G00 Z-3.5000
G01 Z-4.0000 F600
G01 Z-5.0000
G01 Y615.3856 F1200
G03 X281.7199 Y616.9731 I-1.5875 J0.0000
G01 X279.3073
G00 Z0.0000
G01 X273.1323
G00 Z-3.5000
G01 Z-4.0000 F600
G01 Z-5.0000
G01 X270.7196 F1200
G03 X269.1321 Y615.3856 I0.0000 J-1.5875
G01 Y591.9423
G01 X269.5970 Y591.4773
G01 X269.1321 Y591.9423
G01 X265.2196
G03 X263.6321 Y590.3548 I0.0000 J-1.5875
G01 Y576.9423
G00 Z0.0000
G01 Y570.7673
G00 Z-3.5000
G01 Z-4.0000 F600
G01 Z-5.0000
G01 Y557.3547 F1200
G03 X265.2196 Y555.7672 I1.5875 J0.0000
G01 X269.1321
G01 X269.5970 Y556.2322
G01 X269.1321 Y555.7672
G01 Y525.9750
G01 X269.5970 Y525.5100
G01 X269.1321 Y525.9750
G01 X265.2196
G03 X263.6321 Y524.3875 I0.0000 J-1.5875
G01 Y510.9750
G00 Z0.0000
G01 Y504.8000
G00 Z-3.5000
G01 Z-4.0000 F600
G01 Z-5.0000
G01 Y491.3875 F1200
G03 X265.2196 Y489.8000 I1.5875 J0.0000
G01 X269.1321
G01 X269.5970 Y490.2650
G01 X269.1321 Y489.8000
G01 Y477.2586
G00 Z0.0000
G01 Y471.0836
G00 Z-4.5000
G01 Z-5.0000 F600
G01 Z-6.0000
G01 Y466.3567 F1200
G03 X270.9782 Y464.7731 I1.6130 J0.0126
G03 X283.3074 Y477.3491 I-0.2575 J12.5841
G01 Y491.5970
G00 Z0.0000
G01 Y497.7720
G00 Z-4.5000
G01 Z-5.0000 F600
G01 Z-6.0000
G01 Y543.2799 F1200
G00 Z0.0000
G01 Y549.4549
G00 Z-4.5000
G01 Z-5.0000 F600
G01 Z-6.0000
G01 Y588.7664 F1200
G00 Z0.0000
G01 Y594.9414
G00 Z-4.5000
G01 Z-5.0000 F600
G01 Z-6.0000
G01 Y615.3856 F1200
G03 X281.7199 Y616.9731 I-1.5875 J0.0000
G01 X279.3073
G00 Z0.0000
G01 X273.1323
G00 Z-4.5000
G01 Z-5.0000 F600
G01 Z-6.0000
G01 X270.7196 F1200
G03 X269.1321 Y615.3856 I0.0000 J-1.5875
G01 Y591.9423
G01 X269.5970 Y591.4773
G01 X269.1321 Y591.9423
G01 X265.2196
G03 X263.6321 Y590.3548 I0.0000 J-1.5875
G01 Y576.9423
G00 Z0.0000
G01 Y570.7673
G00 Z-4.5000
G01 Z-5.0000 F600
G01 Z-6.0000
G01 Y557.3547 F1200
G03 X265.2196 Y555.7672 I1.5875 J0.0000
G01 X269.1321
G01 X269.5970 Y556.2322
G01 X269.1321 Y555.7672
G01 Y525.9750
G01 X269.5970 Y525.5100
G01 X269.1321 Y525.9750
G01 X265.2196
G03 X263.6321 Y524.3875 I0.0000 J-1.5875
G01 Y510.9750
G00 Z0.0000
G01 Y504.8000
G00 Z-4.5000
G01 Z-5.0000 F600
G01 Z-6.0000
G01 Y491.3875 F1200
G03 X265.2196 Y489.8000 I1.5875 J0.0000
G01 X269.1321
G01 X269.5970 Y490.2650
G01 X269.1321 Y489.8000
G01 Y477.2586
G00 Z0.0000
G01 Y471.0836
G00 Z10.0000


;No. 46: Part 3
G00 X303.6322 Y534.2692 Z10.0000
G00 Z0.5000
G01 Z0.0000 F600
G01 Z-1.0000
G01 Y520.8567 F1200
G03 X305.2197 Y519.2692 I1.5875 J0.0000
G01 X309.1322
G01 X309.5971 Y519.7341
G01 X309.1322 Y519.2692
G01 Y471.8567
G03 X310.7197 Y470.2692 I1.5875 J0.0000
G01 X338.1322
G01 X338.5971 Y470.7341
G01 X338.1322 Y470.2692
G01 Y466.3567
G03 X339.7197 Y464.7692 I1.5875 J0.0000
G01 X353.1322
G00 Z0.0000
G01 X359.3072
G01 Z-1.0000 F600
G01 X372.7197 F1200
G03 X374.3072 Y466.3567 I0.0000 J1.5875
G01 Y470.2692
G01 X373.8422 Y470.7341
G01 X374.3072 Y470.2692
G01 X404.1322
G01 X404.5971 Y470.7341
G01 X404.1322 Y470.2692
G01 Y466.3567
G03 X405.7197 Y464.7692 I1.5875 J0.0000
G01 X419.1322
G00 Z0.0000
G01 X425.3072
G01 Z-1.0000 F600
G01 X438.7197 F1200
G03 X440.3072 Y466.3567 I0.0000 J1.5875
G01 Y470.2692
G01 X439.8422 Y470.7341
G01 X440.3072 Y470.2692
G01 X470.1322
G01 X470.5971 Y470.7341
G01 X470.1322 Y470.2692
G01 Y466.3567
G03 X471.7197 Y464.7692 I1.5875 J0.0000
G01 X485.1322
G00 Z0.0000
G01 X491.3072
G01 Z-1.0000 F600
G01 X504.7197 F1200
G03 X506.3072 Y466.3567 I0.0000 J1.5875
G01 Y470.2692
G01 X505.8422 Y470.7341
G01 X506.3072 Y470.2692
G01 X536.1321
G01 X536.5971 Y470.7341
G01 X536.1321 Y470.2692
G01 Y466.3567
G03 X537.7196 Y464.7692 I1.5875 J0.0000
G01 X551.1321
G00 Z0.0000
G01 X557.3071
G01 Z-1.0000 F600
G01 X570.7196 F1200
G03 X572.3071 Y466.3567 I0.0000 J1.5875
G01 Y470.2692
G01 X571.8422 Y470.7341
G01 X572.3071 Y470.2692
G01 X599.7196
G03 X601.3071 Y471.8567 I0.0000 J1.5875
G01 Y519.2692
G01 X600.8422 Y519.7341
G01 X601.3071 Y519.2692
G01 X605.2196
G03 X606.8071 Y520.8567 I0.0000 J1.5875
G01 Y534.2692
G00 Z0.0000
G01 Y540.4442
G01 Z-1.0000 F600
G01 Y553.8567 F1200
G03 X605.2196 Y555.4442 I-1.5875 J0.0000
G01 X601.3071
G01 X600.8422 Y554.9792
G01 X601.3071 Y555.4442
G01 Y585.2692
G01 X600.8422 Y585.7341
G01 X601.3071 Y585.2692
G01 X605.2196
G03 X606.8071 Y586.8567 I0.0000 J1.5875
G01 Y600.2692
G00 Z0.0000
G01 Y606.4442
G01 Z-1.0000 F600
G01 Y619.8567 F1200
G03 X605.2196 Y621.4442 I-1.5875 J0.0000
G01 X601.3071
G01 X600.8422 Y620.9792
G01 X601.3071 Y621.4442
G01 Y651.2692
G01 X600.8422 Y651.7341
G01 X601.3071 Y651.2692
G01 X605.2196
G03 X606.8071 Y652.8567 I0.0000 J1.5875
G01 Y666.2692
G00 Z0.0000
G01 Y672.4442
G01 Z-1.0000 F600
G01 Y685.8567 F1200
G03 X605.2196 Y687.4442 I-1.5875 J0.0000
G01 X601.3071
G01 X600.8422 Y686.9792
G01 X601.3071 Y687.4442
G01 Y717.2692
G01 X600.8422 Y717.7341
G01 X601.3071 Y717.2692
G01 X605.2196
G03 X606.8071 Y718.8567 I0.0000 J1.5875
G01 Y732.2692
G00 Z0.0000
G01 Y738.4442
G01 Z-1.0000 F600
G01 Y751.8567 F1200
G03 X605.2196 Y753.4442 I-1.5875 J0.0000
G01 X601.3071
G01 X600.8422 Y752.9792
G01 X601.3071 Y753.4442
G01 Y800.8567
G03 X599.7196 Y802.4442 I-1.5875 J0.0000
G01 X572.3071
G01 X571.8422 Y801.9792
G01 X572.3071 Y802.4442
G01 Y806.3567
G03 X570.7196 Y807.9442 I-1.5875 J0.0000
G01 X557.3071
G00 Z0.0000
G01 X551.1321
G01 Z-1.0000 F600
G01 X537.7196 F1200
G03 X536.1321 Y806.3567 I0.0000 J-1.5875
G01 Y802.4442
G01 X536.5971 Y801.9792
G01 X536.1321 Y802.4442
G01 X506.3072
G01 X505.8422 Y801.9792
G01 X506.3072 Y802.4442
G01 Y806.3567
G03 X504.7197 Y807.9442 I-1.5875 J0.0000
G01 X491.3072
G00 Z0.0000
G01 X485.1322
G01 Z-1.0000 F600
G01 X471.7197 F1200
G03 X470.1322 Y806.3567 I0.0000 J-1.5875
G01 Y802.4442
G01 X470.5971 Y801.9792
G01 X470.1322 Y802.4442
G01 X440.3072
G01 X439.8422 Y801.9792
G01 X440.3072 Y802.4442
G01 Y806.3567
G03 X438.7197 Y807.9442 I-1.5875 J0.0000
G01 X425.3072
G00 Z0.0000
G01 X419.1322
G01 Z-1.0000 F600
G01 X405.7197 F1200
G03 X404.1322 Y806.3567 I0.0000 J-1.5875
G01 Y802.4442
G01 X404.5971 Y801.9792
G01 X404.1322 Y802.4442
G01 X374.3072
G01 X373.8422 Y801.9792
G01 X374.3072 Y802.4442
G01 Y806.3567
G03 X372.7197 Y807.9442 I-1.5875 J0.0000
G01 X359.3072
G00 Z0.0000
G01 X353.1322
G01 Z-1.0000 F600
G01 X339.7197 F1200
G03 X338.1322 Y806.3567 I0.0000 J-1.5875
G01 Y802.4442
G01 X338.5971 Y801.9792
G01 X338.1322 Y802.4442
G01 X310.7197
G03 X309.1322 Y800.8567 I0.0000 J-1.5875
G01 Y753.4442
G01 X309.5971 Y752.9792
G01 X309.1322 Y753.4442
G01 X305.2197
G03 X303.6322 Y751.8567 I0.0000 J-1.5875
G01 Y738.4442
G00 Z0.0000
G01 Y732.2692
G01 Z-1.0000 F600
G01 Y718.8567 F1200
G03 X305.2197 Y717.2692 I1.5875 J0.0000
G01 X309.1322
G01 X309.5971 Y717.7341
G01 X309.1322 Y717.2692
G01 Y687.4442
G01 X309.5971 Y686.9792
G01 X309.1322 Y687.4442
G01 X305.2197
G03 X303.6322 Y685.8567 I0.0000 J-1.5875
G01 Y672.4442
G00 Z0.0000
G01 Y666.2692
G01 Z-1.0000 F600
G01 Y652.8567 F1200
G03 X305.2197 Y651.2692 I1.5875 J0.0000
G01 X309.1322
G01 X309.5971 Y651.7341
G01 X309.1322 Y651.2692
G01 Y621.4442
G01 X309.5971 Y620.9792
G01 X309.1322 Y621.4442
G01 X305.2197
G03 X303.6322 Y619.8567 I0.0000 J-1.5875
G01 Y606.4442
G00 Z0.0000
G01 Y600.2692
G01 Z-1.0000 F600
G01 Y586.8567 F1200
G03 X305.2197 Y585.2692 I1.5875 J0.0000
G01 X309.1322
G01 X309.5971 Y585.7341
G01 X309.1322 Y585.2692
G01 Y555.4442
G01 X309.5971 Y554.9792
G01 X309.1322 Y555.4442
G01 X305.2197
G03 X303.6322 Y553.8567 I0.0000 J-1.5875
G01 Y540.4442
G00 Z0.0000
G01 Y534.2692
G00 Z-0.5000
G01 Z-1.0000 F600
G01 Z-2.0000
G01 Y520.8567 F1200
G03 X305.2197 Y519.2692 I1.5875 J0.0000
G01 X309.1322
G01 X309.5971 Y519.7341
G01 X309.1322 Y519.2692
G01 Y471.8567
G03 X310.7197 Y470.2692 I1.5875 J0.0000
G01 X338.1322
G01 X338.5971 Y470.7341
G01 X338.1322 Y470.2692
G01 Y466.3567
G03 X339.7197 Y464.7692 I1.5875 J0.0000
G01 X353.1322
G00 Z0.0000
G01 X359.3072
G00 Z-0.5000
G01 Z-1.0000 F600
G01 Z-2.0000
G01 X372.7197 F1200
G03 X374.3072 Y466.3567 I0.0000 J1.5875
G01 Y470.2692
G01 X373.8422 Y470.7341
G01 X374.3072 Y470.2692
G01 X404.1322
G01 X404.5971 Y470.7341
G01 X404.1322 Y470.2692
G01 Y466.3567
G03 X405.7197 Y464.7692 I1.5875 J0.0000
G01 X419.1322
G00 Z0.0000
G01 X425.3072
G00 Z-0.5000
G01 Z-1.0000 F600
G01 Z-2.0000
G01 X438.7197 F1200
G03 X440.3072 Y466.3567 I0.0000 J1.5875
G01 Y470.2692
G01 X439.8422 Y470.7341
G01 X440.3072 Y470.2692
G01 X470.1322
G01 X470.5971 Y470.7341
G01 X470.1322 Y470.2692
G01 Y466.3567
G03 X471.7197 Y464.7692 I1.5875 J0.0000
G01 X485.1322
G00 Z0.0000
G01 X491.3072
G00 Z-0.5000
G01 Z-1.0000 F600
G01 Z-2.0000
G01 X504.7197 F1200
G03 X506.3072 Y466.3567 I0.0000 J1.5875
G01 Y470.2692
G01 X505.8422 Y470.7341
G01 X506.3072 Y470.2692
G01 X536.1321
G01 X536.5971 Y470.7341
G01 X536.1321 Y470.2692
G01 Y466.3567
G03 X537.7196 Y464.7692 I1.5875 J0.0000
G01 X551.1321
G00 Z0.0000
G01 X557.3071
G00 Z-0.5000
G01 Z-1.0000 F600
G01 Z-2.0000
G01 X570.7196 F1200
G03 X572.3071 Y466.3567 I0.0000 J1.5875
G01 Y470.2692
G01 X571.8422 Y470.7341
G01 X572.3071 Y470.2692
G01 X599.7196
G03 X601.3071 Y471.8567 I0.0000 J1.5875
G01 Y519.2692
G01 X600.8422 Y519.7341
G01 X601.3071 Y519.2692
G01 X605.2196
G03 X606.8071 Y520.8567 I0.0000 J1.5875
G01 Y534.2692
G00 Z0.0000
G01 Y540.4442
G00 Z-0.5000
G01 Z-1.0000 F600
G01 Z-2.0000
G01 Y553.8567 F1200
G03 X605.2196 Y555.4442 I-1.5875 J0.0000
G01 X601.3071
G01 X600.8422 Y554.9792
G01 X601.3071 Y555.4442
G01 Y585.2692
G01 X600.8422 Y585.7341
G01 X601.3071 Y585.2692
G01 X605.2196
G03 X606.8071 Y586.8567 I0.0000 J1.5875
G01 Y600.2692
G00 Z0.0000
G01 Y606.4442
G00 Z-0.5000
G01 Z-1.0000 F600
G01 Z-2.0000
G01 Y619.8567 F1200
G03 X605.2196 Y621.4442 I-1.5875 J0.0000
G01 X601.3071
G01 X600.8422 Y620.9792
G01 X601.3071 Y621.4442
G01 Y651.2692
G01 X600.8422 Y651.7341
G01 X601.3071 Y651.2692
G01 X605.2196
G03 X606.8071 Y652.8567 I0.0000 J1.5875
G01 Y666.2692
G00 Z0.0000
G01 Y672.4442
G00 Z-0.5000
G01 Z-1.0000 F600
G01 Z-2.0000
G01 Y685.8567 F1200
G03 X605.2196 Y687.4442 I-1.5875 J0.0000
G01 X601.3071
G01 X600.8422 Y686.9792
G01 X601.3071 Y687.4442
G01 Y717.2692
G01 X600.8422 Y717.7341
G01 X601.3071 Y717.2692
G01 X605.2196
G03 X606.8071 Y718.8567 I0.0000 J1.5875
G01 Y732.2692
G00 Z0.0000
G01 Y738.4442
G00 Z-0.5000
G01 Z-1.0000 F600
G01 Z-2.0000
G01 Y751.8567 F1200
G03 X605.2196 Y753.4442 I-1.5875 J0.0000
G01 X601.3071
G01 X600.8422 Y752.9792
G01 X601.3071 Y753.4442
G01 Y800.8567
G03 X599.7196 Y802.4442 I-1.5875 J0.0000
G01 X572.3071
G01 X571.8422 Y801.9792
G01 X572.3071 Y802.4442
G01 Y806.3567
G03 X570.7196 Y807.9442 I-1.5875 J0.0000
G01 X557.3071
G00 Z0.0000
G01 X551.1321
G00 Z-0.5000
G01 Z-1.0000 F600
G01 Z-2.0000
G01 X537.7196 F1200
G03 X536.1321 Y806.3567 I0.0000 J-1.5875
G01 Y802.4442
G01 X536.5971 Y801.9792
G01 X536.1321 Y802.4442
G01 X506.3072
G01 X505.8422 Y801.9792
G01 X506.3072 Y802.4442
G01 Y806.3567
G03 X504.7197 Y807.9442 I-1.5875 J0.0000
G01 X491.3072
G00 Z0.0000
G01 X485.1322
G00 Z-0.5000
G01 Z-1.0000 F600
G01 Z-2.0000
G01 X471.7197 F1200
G03 X470.1322 Y806.3567 I0.0000 J-1.5875
G01 Y802.4442
G01 X470.5971 Y801.9792
G01 X470.1322 Y802.4442
G01 X440.3072
G01 X439.8422 Y801.9792
G01 X440.3072 Y802.4442
G01 Y806.3567
G03 X438.7197 Y807.9442 I-1.5875 J0.0000
G01 X425.3072
G00 Z0.0000
G01 X419.1322
G00 Z-0.5000
G01 Z-1.0000 F600
G01 Z-2.0000
G01 X405.7197 F1200
G03 X404.1322 Y806.3567 I0.0000 J-1.5875
G01 Y802.4442
G01 X404.5971 Y801.9792
G01 X404.1322 Y802.4442
G01 X374.3072
G01 X373.8422 Y801.9792
G01 X374.3072 Y802.4442
G01 Y806.3567
G03 X372.7197 Y807.9442 I-1.5875 J0.0000
G01 X359.3072
G00 Z0.0000
G01 X353.1322
G00 Z-0.5000
G01 Z-1.0000 F600
G01 Z-2.0000
G01 X339.7197 F1200
G03 X338.1322 Y806.3567 I0.0000 J-1.5875
G01 Y802.4442
G01 X338.5971 Y801.9792
G01 X338.1322 Y802.4442
G01 X310.7197
G03 X309.1322 Y800.8567 I0.0000 J-1.5875
G01 Y753.4442
G01 X309.5971 Y752.9792
G01 X309.1322 Y753.4442
G01 X305.2197
G03 X303.6322 Y751.8567 I0.0000 J-1.5875
G01 Y738.4442
G00 Z0.0000
G01 Y732.2692
G00 Z-0.5000
G01 Z-1.0000 F600
G01 Z-2.0000
G01 Y718.8567 F1200
G03 X305.2197 Y717.2692 I1.5875 J0.0000
G01 X309.1322
G01 X309.5971 Y717.7341
G01 X309.1322 Y717.2692
G01 Y687.4442
G01 X309.5971 Y686.9792
G01 X309.1322 Y687.4442
G01 X305.2197
G03 X303.6322 Y685.8567 I0.0000 J-1.5875
G01 Y672.4442
G00 Z0.0000
G01 Y666.2692
G00 Z-0.5000
G01 Z-1.0000 F600
G01 Z-2.0000
G01 Y652.8567 F1200
G03 X305.2197 Y651.2692 I1.5875 J0.0000
G01 X309.1322
G01 X309.5971 Y651.7341
G01 X309.1322 Y651.2692
G01 Y621.4442
G01 X309.5971 Y620.9792
G01 X309.1322 Y621.4442
G01 X305.2197
G03 X303.6322 Y619.8567 I0.0000 J-1.5875
G01 Y606.4442
G00 Z0.0000
G01 Y600.2692
G00 Z-0.5000
G01 Z-1.0000 F600
G01 Z-2.0000
G01 Y586.8567 F1200
G03 X305.2197 Y585.2692 I1.5875 J0.0000
G01 X309.1322
G01 X309.5971 Y585.7341
G01 X309.1322 Y585.2692
G01 Y555.4442
G01 X309.5971 Y554.9792
G01 X309.1322 Y555.4442
G01 X305.2197
G03 X303.6322 Y553.8567 I0.0000 J-1.5875
G01 Y540.4442
G00 Z0.0000
G01 Y534.2692
G00 Z-1.5000
G01 Z-2.0000 F600
G01 Z-3.0000
G01 Y520.8567 F1200
G03 X305.2197 Y519.2692 I1.5875 J0.0000
G01 X309.1322
G01 X309.5971 Y519.7341
G01 X309.1322 Y519.2692
G01 Y471.8567
G03 X310.7197 Y470.2692 I1.5875 J0.0000
G01 X338.1322
G01 X338.5971 Y470.7341
G01 X338.1322 Y470.2692
G01 Y466.3567
G03 X339.7197 Y464.7692 I1.5875 J0.0000
G01 X353.1322
G00 Z0.0000
G01 X359.3072
G00 Z-1.5000
G01 Z-2.0000 F600
G01 Z-3.0000
G01 X372.7197 F1200
G03 X374.3072 Y466.3567 I0.0000 J1.5875
G01 Y470.2692
G01 X373.8422 Y470.7341
G01 X374.3072 Y470.2692
G01 X404.1322
G01 X404.5971 Y470.7341
G01 X404.1322 Y470.2692
G01 Y466.3567
G03 X405.7197 Y464.7692 I1.5875 J0.0000
G01 X419.1322
G00 Z0.0000
G01 X425.3072
G00 Z-1.5000
G01 Z-2.0000 F600
G01 Z-3.0000
G01 X438.7197 F1200
G03 X440.3072 Y466.3567 I0.0000 J1.5875
G01 Y470.2692
G01 X439.8422 Y470.7341
G01 X440.3072 Y470.2692
G01 X470.1322
G01 X470.5971 Y470.7341
G01 X470.1322 Y470.2692
G01 Y466.3567
G03 X471.7197 Y464.7692 I1.5875 J0.0000
G01 X485.1322
G00 Z0.0000
G01 X491.3072
G00 Z-1.5000
G01 Z-2.0000 F600
G01 Z-3.0000
G01 X504.7197 F1200
G03 X506.3072 Y466.3567 I0.0000 J1.5875
G01 Y470.2692
G01 X505.8422 Y470.7341
G01 X506.3072 Y470.2692
G01 X536.1321
G01 X536.5971 Y470.7341
G01 X536.1321 Y470.2692
G01 Y466.3567
G03 X537.7196 Y464.7692 I1.5875 J0.0000
G01 X551.1321
G00 Z0.0000
G01 X557.3071
G00 Z-1.5000
G01 Z-2.0000 F600
G01 Z-3.0000
G01 X570.7196 F1200
G03 X572.3071 Y466.3567 I0.0000 J1.5875
G01 Y470.2692
G01 X571.8422 Y470.7341
G01 X572.3071 Y470.2692
G01 X599.7196
G03 X601.3071 Y471.8567 I0.0000 J1.5875
G01 Y519.2692
G01 X600.8422 Y519.7341
G01 X601.3071 Y519.2692
G01 X605.2196
G03 X606.8071 Y520.8567 I0.0000 J1.5875
G01 Y534.2692
G00 Z0.0000
G01 Y540.4442
G00 Z-1.5000
G01 Z-2.0000 F600
G01 Z-3.0000
G01 Y553.8567 F1200
G03 X605.2196 Y555.4442 I-1.5875 J0.0000
G01 X601.3071
G01 X600.8422 Y554.9792
G01 X601.3071 Y555.4442
G01 Y585.2692
G01 X600.8422 Y585.7341
G01 X601.3071 Y585.2692
G01 X605.2196
G03 X606.8071 Y586.8567 I0.0000 J1.5875
G01 Y600.2692
G00 Z0.0000
G01 Y606.4442
G00 Z-1.5000
G01 Z-2.0000 F600
G01 Z-3.0000
G01 Y619.8567 F1200
G03 X605.2196 Y621.4442 I-1.5875 J0.0000
G01 X601.3071
G01 X600.8422 Y620.9792
G01 X601.3071 Y621.4442
G01 Y651.2692
G01 X600.8422 Y651.7341
G01 X601.3071 Y651.2692
G01 X605.2196
G03 X606.8071 Y652.8567 I0.0000 J1.5875
G01 Y666.2692
G00 Z0.0000
G01 Y672.4442
G00 Z-1.5000
G01 Z-2.0000 F600
G01 Z-3.0000
G01 Y685.8567 F1200
G03 X605.2196 Y687.4442 I-1.5875 J0.0000
G01 X601.3071
G01 X600.8422 Y686.9792
G01 X601.3071 Y687.4442
G01 Y717.2692
G01 X600.8422 Y717.7341
G01 X601.3071 Y717.2692
G01 X605.2196
G03 X606.8071 Y718.8567 I0.0000 J1.5875
G01 Y732.2692
G00 Z0.0000
G01 Y738.4442
G00 Z-1.5000
G01 Z-2.0000 F600
G01 Z-3.0000
G01 Y751.8567 F1200
G03 X605.2196 Y753.4442 I-1.5875 J0.0000
G01 X601.3071
G01 X600.8422 Y752.9792
G01 X601.3071 Y753.4442
G01 Y800.8567
G03 X599.7196 Y802.4442 I-1.5875 J0.0000
G01 X572.3071
G01 X571.8422 Y801.9792
G01 X572.3071 Y802.4442
G01 Y806.3567
G03 X570.7196 Y807.9442 I-1.5875 J0.0000
G01 X557.3071
G00 Z0.0000
G01 X551.1321
G00 Z-1.5000
G01 Z-2.0000 F600
G01 Z-3.0000
G01 X537.7196 F1200
G03 X536.1321 Y806.3567 I0.0000 J-1.5875
G01 Y802.4442
G01 X536.5971 Y801.9792
G01 X536.1321 Y802.4442
G01 X506.3072
G01 X505.8422 Y801.9792
G01 X506.3072 Y802.4442
G01 Y806.3567
G03 X504.7197 Y807.9442 I-1.5875 J0.0000
G01 X491.3072
G00 Z0.0000
G01 X485.1322
G00 Z-1.5000
G01 Z-2.0000 F600
G01 Z-3.0000
G01 X471.7197 F1200
G03 X470.1322 Y806.3567 I0.0000 J-1.5875
G01 Y802.4442
G01 X470.5971 Y801.9792
G01 X470.1322 Y802.4442
G01 X440.3072
G01 X439.8422 Y801.9792
G01 X440.3072 Y802.4442
G01 Y806.3567
G03 X438.7197 Y807.9442 I-1.5875 J0.0000
G01 X425.3072
G00 Z0.0000
G01 X419.1322
G00 Z-1.5000
G01 Z-2.0000 F600
G01 Z-3.0000
G01 X405.7197 F1200
G03 X404.1322 Y806.3567 I0.0000 J-1.5875
G01 Y802.4442
G01 X404.5971 Y801.9792
G01 X404.1322 Y802.4442
G01 X374.3072
G01 X373.8422 Y801.9792
G01 X374.3072 Y802.4442
G01 Y806.3567
G03 X372.7197 Y807.9442 I-1.5875 J0.0000
G01 X359.3072
G00 Z0.0000
G01 X353.1322
G00 Z-1.5000
G01 Z-2.0000 F600
G01 Z-3.0000
G01 X339.7197 F1200
G03 X338.1322 Y806.3567 I0.0000 J-1.5875
G01 Y802.4442
G01 X338.5971 Y801.9792
G01 X338.1322 Y802.4442
G01 X310.7197
G03 X309.1322 Y800.8567 I0.0000 J-1.5875
G01 Y753.4442
G01 X309.5971 Y752.9792
G01 X309.1322 Y753.4442
G01 X305.2197
G03 X303.6322 Y751.8567 I0.0000 J-1.5875
G01 Y738.4442
G00 Z0.0000
G01 Y732.2692
G00 Z-1.5000
G01 Z-2.0000 F600
G01 Z-3.0000
G01 Y718.8567 F1200
G03 X305.2197 Y717.2692 I1.5875 J0.0000
G01 X309.1322
G01 X309.5971 Y717.7341
G01 X309.1322 Y717.2692
G01 Y687.4442
G01 X309.5971 Y686.9792
G01 X309.1322 Y687.4442
G01 X305.2197
G03 X303.6322 Y685.8567 I0.0000 J-1.5875
G01 Y672.4442
G00 Z0.0000
G01 Y666.2692
G00 Z-1.5000
G01 Z-2.0000 F600
G01 Z-3.0000
G01 Y652.8567 F1200
G03 X305.2197 Y651.2692 I1.5875 J0.0000
G01 X309.1322
G01 X309.5971 Y651.7341
G01 X309.1322 Y651.2692
G01 Y621.4442
G01 X309.5971 Y620.9792
G01 X309.1322 Y621.4442
G01 X305.2197
G03 X303.6322 Y619.8567 I0.0000 J-1.5875
G01 Y606.4442
G00 Z0.0000
G01 Y600.2692
G00 Z-1.5000
G01 Z-2.0000 F600
G01 Z-3.0000
G01 Y586.8567 F1200
G03 X305.2197 Y585.2692 I1.5875 J0.0000
G01 X309.1322
G01 X309.5971 Y585.7341
G01 X309.1322 Y585.2692
G01 Y555.4442
G01 X309.5971 Y554.9792
G01 X309.1322 Y555.4442
G01 X305.2197
G03 X303.6322 Y553.8567 I0.0000 J-1.5875
G01 Y540.4442
G00 Z0.0000
G01 Y534.2692
G00 Z-2.5000
G01 Z-3.0000 F600
G01 Z-4.0000
G01 Y520.8567 F1200
G03 X305.2197 Y519.2692 I1.5875 J0.0000
G01 X309.1322
G01 X309.5971 Y519.7341
G01 X309.1322 Y519.2692
G01 Y471.8567
G03 X310.7197 Y470.2692 I1.5875 J0.0000
G01 X338.1322
G01 X338.5971 Y470.7341
G01 X338.1322 Y470.2692
G01 Y466.3567
G03 X339.7197 Y464.7692 I1.5875 J0.0000
G01 X353.1322
G00 Z0.0000
G01 X359.3072
G00 Z-2.5000
G01 Z-3.0000 F600
G01 Z-4.0000
G01 X372.7197 F1200
G03 X374.3072 Y466.3567 I0.0000 J1.5875
G01 Y470.2692
G01 X373.8422 Y470.7341
G01 X374.3072 Y470.2692
G01 X404.1322
G01 X404.5971 Y470.7341
G01 X404.1322 Y470.2692
G01 Y466.3567
G03 X405.7197 Y464.7692 I1.5875 J0.0000
G01 X419.1322
G00 Z0.0000
G01 X425.3072
G00 Z-2.5000
G01 Z-3.0000 F600
G01 Z-4.0000
G01 X438.7197 F1200
G03 X440.3072 Y466.3567 I0.0000 J1.5875
G01 Y470.2692
G01 X439.8422 Y470.7341
G01 X440.3072 Y470.2692
G01 X470.1322
G01 X470.5971 Y470.7341
G01 X470.1322 Y470.2692
G01 Y466.3567
G03 X471.7197 Y464.7692 I1.5875 J0.0000
G01 X485.1322
G00 Z0.0000
G01 X491.3072
G00 Z-2.5000
G01 Z-3.0000 F600
G01 Z-4.0000
G01 X504.7197 F1200
G03 X506.3072 Y466.3567 I0.0000 J1.5875
G01 Y470.2692
G01 X505.8422 Y470.7341
G01 X506.3072 Y470.2692
G01 X536.1321
G01 X536.5971 Y470.7341
G01 X536.1321 Y470.2692
G01 Y466.3567
G03 X537.7196 Y464.7692 I1.5875 J0.0000
G01 X551.1321
G00 Z0.0000
G01 X557.3071
G00 Z-2.5000
G01 Z-3.0000 F600
G01 Z-4.0000
G01 X570.7196 F1200
G03 X572.3071 Y466.3567 I0.0000 J1.5875
G01 Y470.2692
G01 X571.8422 Y470.7341
G01 X572.3071 Y470.2692
G01 X599.7196
G03 X601.3071 Y471.8567 I0.0000 J1.5875
G01 Y519.2692
G01 X600.8422 Y519.7341
G01 X601.3071 Y519.2692
G01 X605.2196
G03 X606.8071 Y520.8567 I0.0000 J1.5875
G01 Y534.2692
G00 Z0.0000
G01 Y540.4442
G00 Z-2.5000
G01 Z-3.0000 F600
G01 Z-4.0000
G01 Y553.8567 F1200
G03 X605.2196 Y555.4442 I-1.5875 J0.0000
G01 X601.3071
G01 X600.8422 Y554.9792
G01 X601.3071 Y555.4442
G01 Y585.2692
G01 X600.8422 Y585.7341
G01 X601.3071 Y585.2692
G01 X605.2196
G03 X606.8071 Y586.8567 I0.0000 J1.5875
G01 Y600.2692
G00 Z0.0000
G01 Y606.4442
G00 Z-2.5000
G01 Z-3.0000 F600
G01 Z-4.0000
G01 Y619.8567 F1200
G03 X605.2196 Y621.4442 I-1.5875 J0.0000
G01 X601.3071
G01 X600.8422 Y620.9792
G01 X601.3071 Y621.4442
G01 Y651.2692
G01 X600.8422 Y651.7341
G01 X601.3071 Y651.2692
G01 X605.2196
G03 X606.8071 Y652.8567 I0.0000 J1.5875
G01 Y666.2692
G00 Z0.0000
G01 Y672.4442
G00 Z-2.5000
G01 Z-3.0000 F600
G01 Z-4.0000
G01 Y685.8567 F1200
G03 X605.2196 Y687.4442 I-1.5875 J0.0000
G01 X601.3071
G01 X600.8422 Y686.9792
G01 X601.3071 Y687.4442
G01 Y717.2692
G01 X600.8422 Y717.7341
G01 X601.3071 Y717.2692
G01 X605.2196
G03 X606.8071 Y718.8567 I0.0000 J1.5875
G01 Y732.2692
G00 Z0.0000
G01 Y738.4442
G00 Z-2.5000
G01 Z-3.0000 F600
G01 Z-4.0000
G01 Y751.8567 F1200
G03 X605.2196 Y753.4442 I-1.5875 J0.0000
G01 X601.3071
G01 X600.8422 Y752.9792
G01 X601.3071 Y753.4442
G01 Y800.8567
G03 X599.7196 Y802.4442 I-1.5875 J0.0000
G01 X572.3071
G01 X571.8422 Y801.9792
G01 X572.3071 Y802.4442
G01 Y806.3567
G03 X570.7196 Y807.9442 I-1.5875 J0.0000
G01 X557.3071
G00 Z0.0000
G01 X551.1321
G00 Z-2.5000
G01 Z-3.0000 F600
G01 Z-4.0000
G01 X537.7196 F1200
G03 X536.1321 Y806.3567 I0.0000 J-1.5875
G01 Y802.4442
G01 X536.5971 Y801.9792
G01 X536.1321 Y802.4442
G01 X506.3072
G01 X505.8422 Y801.9792
G01 X506.3072 Y802.4442
G01 Y806.3567
G03 X504.7197 Y807.9442 I-1.5875 J0.0000
G01 X491.3072
G00 Z0.0000
G01 X485.1322
G00 Z-2.5000
G01 Z-3.0000 F600
G01 Z-4.0000
G01 X471.7197 F1200
G03 X470.1322 Y806.3567 I0.0000 J-1.5875
G01 Y802.4442
G01 X470.5971 Y801.9792
G01 X470.1322 Y802.4442
G01 X440.3072
G01 X439.8422 Y801.9792
G01 X440.3072 Y802.4442
G01 Y806.3567
G03 X438.7197 Y807.9442 I-1.5875 J0.0000
G01 X425.3072
G00 Z0.0000
G01 X419.1322
G00 Z-2.5000
G01 Z-3.0000 F600
G01 Z-4.0000
G01 X405.7197 F1200
G03 X404.1322 Y806.3567 I0.0000 J-1.5875
G01 Y802.4442
G01 X404.5971 Y801.9792
G01 X404.1322 Y802.4442
G01 X374.3072
G01 X373.8422 Y801.9792
G01 X374.3072 Y802.4442
G01 Y806.3567
G03 X372.7197 Y807.9442 I-1.5875 J0.0000
G01 X359.3072
G00 Z0.0000
G01 X353.1322
G00 Z-2.5000
G01 Z-3.0000 F600
G01 Z-4.0000
G01 X339.7197 F1200
G03 X338.1322 Y806.3567 I0.0000 J-1.5875
G01 Y802.4442
G01 X338.5971 Y801.9792
G01 X338.1322 Y802.4442
G01 X310.7197
G03 X309.1322 Y800.8567 I0.0000 J-1.5875
G01 Y753.4442
G01 X309.5971 Y752.9792
G01 X309.1322 Y753.4442
G01 X305.2197
G03 X303.6322 Y751.8567 I0.0000 J-1.5875
G01 Y738.4442
G00 Z0.0000
G01 Y732.2692
G00 Z-2.5000
G01 Z-3.0000 F600
G01 Z-4.0000
G01 Y718.8567 F1200
G03 X305.2197 Y717.2692 I1.5875 J0.0000
G01 X309.1322
G01 X309.5971 Y717.7341
G01 X309.1322 Y717.2692
G01 Y687.4442
G01 X309.5971 Y686.9792
G01 X309.1322 Y687.4442
G01 X305.2197
G03 X303.6322 Y685.8567 I0.0000 J-1.5875
G01 Y672.4442
G00 Z0.0000
G01 Y666.2692
G00 Z-2.5000
G01 Z-3.0000 F600
G01 Z-4.0000
G01 Y652.8567 F1200
G03 X305.2197 Y651.2692 I1.5875 J0.0000
G01 X309.1322
G01 X309.5971 Y651.7341
G01 X309.1322 Y651.2692
G01 Y621.4442
G01 X309.5971 Y620.9792
G01 X309.1322 Y621.4442
G01 X305.2197
G03 X303.6322 Y619.8567 I0.0000 J-1.5875
G01 Y606.4442
G00 Z0.0000
G01 Y600.2692
G00 Z-2.5000
G01 Z-3.0000 F600
G01 Z-4.0000
G01 Y586.8567 F1200
G03 X305.2197 Y585.2692 I1.5875 J0.0000
G01 X309.1322
G01 X309.5971 Y585.7341
G01 X309.1322 Y585.2692
G01 Y555.4442
G01 X309.5971 Y554.9792
G01 X309.1322 Y555.4442
G01 X305.2197
G03 X303.6322 Y553.8567 I0.0000 J-1.5875
G01 Y540.4442
G00 Z0.0000
G01 Y534.2692
G00 Z-3.5000
G01 Z-4.0000 F600
G01 Z-5.0000
G01 Y520.8567 F1200
G03 X305.2197 Y519.2692 I1.5875 J0.0000
G01 X309.1322
G01 X309.5971 Y519.7341
G01 X309.1322 Y519.2692
G01 Y471.8567
G03 X310.7197 Y470.2692 I1.5875 J0.0000
G01 X338.1322
G01 X338.5971 Y470.7341
G01 X338.1322 Y470.2692
G01 Y466.3567
G03 X339.7197 Y464.7692 I1.5875 J0.0000
G01 X353.1322
G00 Z0.0000
G01 X359.3072
G00 Z-3.5000
G01 Z-4.0000 F600
G01 Z-5.0000
G01 X372.7197 F1200
G03 X374.3072 Y466.3567 I0.0000 J1.5875
G01 Y470.2692
G01 X373.8422 Y470.7341
G01 X374.3072 Y470.2692
G01 X404.1322
G01 X404.5971 Y470.7341
G01 X404.1322 Y470.2692
G01 Y466.3567
G03 X405.7197 Y464.7692 I1.5875 J0.0000
G01 X419.1322
G00 Z0.0000
G01 X425.3072
G00 Z-3.5000
G01 Z-4.0000 F600
G01 Z-5.0000
G01 X438.7197 F1200
G03 X440.3072 Y466.3567 I0.0000 J1.5875
G01 Y470.2692
G01 X439.8422 Y470.7341
G01 X440.3072 Y470.2692
G01 X470.1322
G01 X470.5971 Y470.7341
G01 X470.1322 Y470.2692
G01 Y466.3567
G03 X471.7197 Y464.7692 I1.5875 J0.0000
G01 X485.1322
G00 Z0.0000
G01 X491.3072
G00 Z-3.5000
G01 Z-4.0000 F600
G01 Z-5.0000
G01 X504.7197 F1200
G03 X506.3072 Y466.3567 I0.0000 J1.5875
G01 Y470.2692
G01 X505.8422 Y470.7341
G01 X506.3072 Y470.2692
G01 X536.1321
G01 X536.5971 Y470.7341
G01 X536.1321 Y470.2692
G01 Y466.3567
G03 X537.7196 Y464.7692 I1.5875 J0.0000
G01 X551.1321
G00 Z0.0000
G01 X557.3071
G00 Z-3.5000
G01 Z-4.0000 F600
G01 Z-5.0000
G01 X570.7196 F1200
G03 X572.3071 Y466.3567 I0.0000 J1.5875
G01 Y470.2692
G01 X571.8422 Y470.7341
G01 X572.3071 Y470.2692
G01 X599.7196
G03 X601.3071 Y471.8567 I0.0000 J1.5875
G01 Y519.2692
G01 X600.8422 Y519.7341
G01 X601.3071 Y519.2692
G01 X605.2196
G03 X606.8071 Y520.8567 I0.0000 J1.5875
G01 Y534.2692
G00 Z0.0000
G01 Y540.4442
G00 Z-3.5000
G01 Z-4.0000 F600
G01 Z-5.0000
G01 Y553.8567 F1200
