;Project CNC Cut 2
;Created by Estlcam version 11 build 11.245
;Machining time about 00:02:52 hours

G90
M03 S24000
G00 Z10.0000


;No. 1: Drill 15
G00 X133.4182 Y267.2413
G00 Z0.5000
G01 Z-1.0000 F600 S24000
G00 Z10.0000


;No. 2: Drill 17
G00 X76.5163 Y449.9563 Z10.0000
G00 Z0.5000
G01 Z-1.0000 F600
G00 Z10.0000


;No. 3: Drill 11
G00 X231.3523 Y481.9972 Z10.0000
G00 Z0.5000
G01 Z-1.0000 F600
G00 Z10.0000


;No. 4: Drill 12
G00 X440.6194 Y457.5714 Z10.0000
G00 Z0.5000
G01 Z-1.0000 F600
G00 Z10.0000


;No. 5: Drill 13
G00 X623.2941 Y449.9563 Z10.0000
G00 Z0.5000
G01 Z-1.0000 F600
G00 Z10.0000


;No. 6: Drill 14
G00 X571.3073 Y267.2414 Z10.0000
G00 Z0.5000
G01 Z-1.0000 F600
G00 Z10.0000


;No. 7: Drill 16
G00 X349.9052 Y69.9290 Z10.0000
G00 Z0.5000
G01 Z-1.0000 F600
G00 Z10.0000
G00 X0.0000 Y0.0000

M05
