;Project CNC Cut 2
;Created by Estlcam version 11 build 11.245
;Machining time about 06:31:12 hours

G90
M03 S24000
G00 Z10.0000


;No. 1: Drill 4
G00 X213.8552 Y129.4038
G00 Z0.5000
G01 Z-1.0000 F600 S24000
G00 Z0.5000
G00 Z-0.5000
G01 Z-1.5000
G00 Z10.0000


;No. 2: Hole 12
G00 X216.1501 Y129.4474 Z10.0000
G00 Z0.5000
G01 Z0.0000 F600
G01 Z-1.0000
G01 X211.5601 F1200
G01 Y129.2887
G01 X216.1501
G01 Y129.1299
G01 X211.5601
G01 Y128.9712
G01 X216.1501
G01 Y128.8124
G01 X211.5601
G01 Y128.6537
G01 X216.1501
G01 Y128.4949
G01 X211.5601
G01 Y128.3362
G01 X216.1501
G01 Y128.1774
G01 X211.5601
G01 Y128.0187
G01 X216.1501
G01 Y127.8599
G01 X211.5601
G01 Y127.7012
G01 X216.1501
G01 Y127.5424
G01 X211.5601
G01 Y127.3837
G01 X216.1501
G01 Y127.2249
G01 X211.5601
G01 Y127.0662
G01 X216.1501
G01 Y126.9074
G01 X211.5601
G01 Y126.7487
G01 X216.1501
G01 Y126.5899
G01 X211.5601
G01 Y126.4312
G01 X216.1501
G01 Y126.2724
G01 X211.5601
G01 Y129.6062
G01 X216.1501
G01 Y129.7649
G01 X211.5601
G01 Y129.9237
G01 X216.1501
G01 Y130.0824
G01 X211.5601
G01 Y130.2412
G01 X216.1501
G01 Y130.3999
G01 X211.5601
G01 Y130.5587
G01 X216.1501
G01 Y130.7174
G01 X211.5601
G01 Y130.8762
G01 X216.1501
G01 Y131.0349
G01 X211.5601
G01 Y131.1937
G01 X216.1501
G01 Y131.3524
G01 X211.5601
G01 Y131.5112
G01 X216.1501
G01 Y131.6699
G01 X211.5601
G01 Y131.8287
G01 X216.1501
G01 Y131.9874
G01 X211.5601
G01 Y132.1462
G01 X216.1501
G01 Y132.3049
G01 X211.5601
G01 Y132.4637
G01 X216.1501
G01 Y132.6224
G01 X211.5601
G01 Y132.7812
G01 X216.1501
G01 Y132.9399
G01 X211.5601
G01 Y133.0987
G01 X216.1501
G01 Y133.2574
G01 X211.5601
G01 Y133.4162
G01 X216.1501
G01 Y133.5749
G01 X211.5601
G01 Y133.7337
G01 X216.1501
G01 Y133.8924
G01 X211.5601
G01 Y134.0512
G01 X216.1501
G01 Y134.2099
G01 X211.5601
G01 Y134.3687
G01 X216.1501
G01 Y134.5274
G01 X211.5601
G01 Y134.6862
G01 X216.1501
G01 Y134.8449
G01 X211.5601
G01 Y135.0037
G01 X216.1501
G01 Y135.1624
G01 X211.5601
G01 Y135.3212
G01 X216.1501
G01 Y135.4799
G01 X211.5601
G01 Y135.6387
G01 X216.1501
G01 Y135.7974
G01 X211.5601
G01 Y135.9562
G01 X216.1501
G01 Y136.1149
G01 X211.5601
G01 Y136.2737
G01 X216.1501
G01 Y136.4324
G01 X211.5601
G01 Y136.5912
G01 X216.1501
G01 Y136.7499
G01 X211.5601
G01 Y136.9087
G01 X216.1501
G01 Y137.0674
G01 X211.5601
G01 Y137.2262
G01 X216.1501
G01 Y137.3849
G01 X211.5601
G01 Y137.5437
G01 X216.1501
G01 Y137.7024
G01 X211.5601
G01 Y137.8612
G01 X216.1501
G01 Y138.0199
G01 X211.5601
G01 Y138.1787
G01 X216.1501
G01 Y138.3374
G01 X211.5601
G01 Y138.4962
G01 X216.1501
G01 Y138.6549
G01 X211.5601
G01 Y138.8137
G01 X216.1501
G01 Y138.9724
G01 X211.5601
G01 Y139.1312
G01 X216.1501
G01 Y139.2899
G01 X211.5601
G01 Y139.4487
G01 X216.1501
G01 Y139.6074
G01 X211.5601
G01 Y139.7662
G01 X216.1501
G01 Y139.9249
G01 X211.5601
G01 Y140.0837
G01 X216.1501
G01 Y140.2424
G01 X211.5601
G01 Y140.4012
G01 X216.1501
G01 Y140.5599
G01 X211.5601
G01 Y140.7187
G01 X216.1501
G01 Y140.8774
G01 X211.5601
G01 Y141.0362
G01 X216.1501
G01 Y141.1949
G01 X211.5601
G01 Y141.3537
G01 X216.1501
G01 Y141.5124
G01 X211.5601
G01 Y141.6712
G01 X216.1501
G01 Y141.8299
G01 X211.5601
G01 Y141.9887
G01 X216.1501
G01 Y142.1474
G01 X211.5601
G01 Y142.3062
G01 X216.1501
G01 Y142.4649
G01 X211.5601
G01 Y142.6237
G01 X216.1501
G01 Y142.7824
G01 X211.5601
G01 Y142.9412
G01 X216.1501
G01 Y143.0999
G01 X211.5601
G01 Y143.2587
G01 X216.1501
G01 Y143.4174
G01 X211.5601
G01 Y143.5762
G01 X216.1501
G01 Y143.7349
G01 X211.5601
G01 Y143.8937
G01 X216.1501
G01 Y144.0524
G01 X211.5601
G01 Y144.2112
G01 X216.1501
G01 Y144.3699
G01 X211.5601
G01 Y144.5287
G01 X216.1501
G01 Y144.6874
G01 X211.5601
G01 Y144.8462
G01 X216.1501
G01 Y145.0049
G01 X211.5601
G01 Y145.1637
G01 X216.1501
G01 Y145.3224
G01 X211.5601
G01 Y145.4812
G01 X216.1501
G01 Y145.6399
G01 X211.5601
G01 Y145.7987
G01 X216.1501
G01 Y145.9574
G01 X211.5601
G01 Y146.1162
G01 X216.1501
G01 Y146.2749
G01 X211.5601
G01 Y146.4337
G01 X216.1501
G01 Y146.5924
G01 X211.5601
G01 Y146.7512
G01 X216.1501
G01 Y146.9099
G01 X211.5601
G01 Y147.0687
G01 X216.1501
G01 Y147.2274
G01 X211.5601
G01 Y147.3862
G01 X216.1501
G01 Y147.5449
G01 X211.5601
G01 Y147.7037
G01 X216.1501
G01 Y147.8624
G01 X211.5601
G01 Y148.0212
G01 X216.1501
G01 Y148.1799
G01 X211.5601
G01 Y148.3387
G01 X216.1501
G01 Y148.4974
G01 X211.5601
G01 Y148.6562
G01 X216.1501
G01 Y148.8149
G01 X211.5601
G01 Y148.9737
G01 X216.1501
G01 Y149.1324
G01 X211.5601
G01 Y149.2912
G01 X216.1501
G01 Y149.4499
G01 X211.5601
G01 Y149.6087
G01 X216.1501
G01 Y149.7674
G01 X211.5601
G01 Y149.9262
G01 X216.1501
G01 Y150.0849
G01 X211.5601
G01 X211.2426 Y149.9830
G01 Y150.5162
G01 X210.7777 Y150.9812
G01 X211.2426 Y150.5162
G01 X216.4676
G01 X216.9326 Y150.9812
G01 X216.4676 Y150.5162
G01 Y125.8412
G01 X216.9326 Y125.3762
G01 X216.4676 Y125.8412
G01 X211.2426
G01 X210.7777 Y125.3762
G01 X211.2426 Y125.8412
G01 Y149.9830
G01 X211.5601 Y150.0849
G00 Z10.0000


;No. 3: Drill 3
G00 X213.8552 Y146.9536 Z10.0000
G00 Z0.5000
G01 Z-1.0000 F600
G00 Z0.5000
G00 Z-0.5000
G01 Z-1.5000
G00 Z10.0000


;No. 4: Hole 15
G00 X240.3101 Y146.9882 Z10.0000
G00 Z0.5000
G01 Z0.0000 F600
G01 Z-1.0000
G01 X459.5001 F1200
G01 Y146.8295
G01 X240.3101
G01 Y146.6707
G01 X459.5001
G01 Y146.5120
G01 X240.3101
G01 Y146.3532
G01 X459.5001
G01 Y146.1945
G01 X240.3101
G01 Y146.0357
G01 X459.5001
G01 Y145.8770
G01 X240.3101
G01 Y145.7182
G01 X459.5001
G01 Y145.5595
G01 X240.3101
G01 Y145.4007
G01 X459.5001
G01 Y145.2420
G01 X240.3101
G01 Y145.0832
G01 X459.5001
G01 Y144.9245
G01 X240.3101
G01 Y144.7657
G01 X459.5001
G01 Y144.6070
G01 X240.3101
G01 Y144.4482
G01 X459.5001
G01 Y144.2895
G01 X240.3101
G01 Y144.1307
G01 X459.5001
G01 Y143.9720
G01 X240.3101
G01 Y143.8132
G01 X459.5001
G01 Y143.6545
G01 X240.3101
G01 Y143.4957
G01 X459.5001
G01 Y143.3370
G01 X240.3101
G01 Y143.1782
G01 X459.5001
G01 Y143.0195
G01 X240.3101
G01 Y142.8607
G01 X459.5001
G01 Y142.7020
G01 X240.3101
G01 Y142.5432
G01 X459.5001
G01 Y142.3845
G01 X240.3101
G01 Y142.2257
G01 X459.5001
G01 Y142.0670
G01 X240.3101
G01 Y141.9082
G01 X459.5001
G01 Y141.7495
G01 X240.3101
G01 Y141.5907
G01 X459.5001
G01 Y141.4320
G01 X240.3101
G01 Y141.2732
G01 X459.5001
G01 Y141.1145
G01 X240.3101
G01 Y140.9557
G01 X459.5001
G01 Y140.7970
G01 X240.3101
G01 Y140.6382
G01 X459.5001
G01 Y140.4795
G01 X240.3101
G01 Y140.3207
G01 X459.5001
G01 Y140.1620
G01 X240.3101
G01 Y140.0032
G01 X459.5001
G01 Y139.8445
G01 X240.3101
G01 Y139.6857
G01 X459.5001
G01 Y139.5270
G01 X240.3101
G01 Y139.3682
G01 X459.5001
G01 Y139.2095
G01 X240.3101
G01 Y139.0507
G01 X459.5001
G01 Y138.8920
G01 X240.3101
G01 Y138.7332
G01 X459.5001
G01 Y138.5745
G01 X240.3101
G01 Y138.4157
G01 X459.5001
G01 Y138.2570
G01 X240.3101
G01 Y138.0982
G01 X459.5001
G01 Y137.9395
G01 X240.3101
G01 Y137.7807
G01 X459.5001
G01 Y137.6220
G01 X240.3101
G01 Y137.4632
G01 X459.5001
G01 Y137.3045
G01 X240.3101
G01 Y137.1457
G01 X459.5001
G01 Y136.9870
G01 X240.3101
G01 Y136.8282
G01 X459.5001
G01 Y136.6695
G01 X240.3101
G01 Y136.5107
G01 X459.5001
G01 Y136.3520
G01 X240.3101
G01 Y136.1932
G01 X459.5001
G01 Y136.0345
G01 X240.3101
G01 Y135.8757
G01 X459.5001
G01 Y135.7170
G01 X240.3101
G01 Y135.5582
G01 X459.5001
G01 Y135.3995
G01 X240.3101
G01 Y135.2407
G01 X459.5001
G01 Y135.0820
G01 X240.3101
G01 Y134.9232
G01 X459.5001
G01 Y134.7645
G01 X240.3101
G01 Y134.6057
G01 X459.5001
G01 Y134.4470
G01 X240.3101
G01 Y134.2882
G01 X459.5001
G01 Y134.1295
G01 X240.3101
G01 Y133.9707
G01 X459.5001
G01 Y133.8120
G01 X240.3101
G01 Y133.6532
G01 X459.5001
G01 Y133.4945
G01 X240.3101
G01 Y133.3357
G01 X459.5001
G01 Y133.1770
G01 X240.3101
G01 Y133.0182
G01 X459.5001
G01 Y132.8595
G01 X240.3101
G01 Y132.7007
G01 X459.5001
G01 Y132.5420
G01 X240.3101
G01 Y132.3832
G01 X459.5001
G01 Y132.2245
G01 X240.3101
G01 Y132.0657
G01 X459.5001
G01 Y131.9070
G01 X240.3101
G01 Y131.7482
G01 X459.5001
G01 Y131.5895
G01 X240.3101
G01 Y131.4307
G01 X459.5001
G01 Y131.2720
G01 X240.3101
G01 Y131.1132
G01 X459.5001
G01 Y130.9545
G01 X240.3101
G01 Y130.7957
G01 X459.5001
G01 Y130.6370
G01 X240.3101
G01 Y130.4782
G01 X459.5001
G01 Y130.3195
G01 X240.3101
G01 Y130.1607
G01 X459.5001
G01 Y130.0020
G01 X240.3101
G01 Y129.8432
G01 X459.5001
G01 Y129.6845
G01 X240.3101
G01 Y129.5257
G01 X459.5001
G01 Y129.3670
G01 X240.3101
G01 Y129.2082
G01 X459.5001
G01 Y129.0495
G01 X240.3101
G01 Y128.8907
G01 X459.5001
G01 Y128.7320
G01 X240.3101
G01 Y128.5732
G01 X459.5001
G01 Y128.4145
G01 X240.3101
G01 Y128.2557
G01 X459.5001
G01 Y128.0970
G01 X240.3101
G01 Y127.9382
G01 X459.5001
G01 Y127.7795
G01 X240.3101
G01 Y127.6207
G01 X459.5001
G01 Y127.4620
G01 X240.3101
G01 Y127.3032
G01 X459.5001
G01 Y127.1445
G01 X240.3101
G01 Y126.9857
G01 X459.5001
G01 Y126.8270
G01 X240.3101
G01 X240.3108 Y126.6682
G01 X459.4994
G01 X459.4967 Y126.5095
G01 X240.3137
G01 X240.3196 Y126.3507
G01 X459.4907
G01 X459.4815 Y126.1920
G01 X240.3288
G01 X240.3409 Y126.0332
G01 X459.4693
G01 X459.4541 Y125.8745
G01 X240.3562
G01 X240.3744 Y125.7157
G01 X459.4358
G01 X459.4140 Y125.5570
G01 X240.3963
G01 X240.4211 Y125.3982
G01 X459.3891
G01 X459.3612 Y125.2395
G01 X240.4491
G01 X240.4805 Y125.0807
G01 X459.3298
G01 X459.2949 Y124.9220
G01 X240.5154
G01 X240.5535 Y124.7632
G01 X459.2568
G01 X459.2155 Y124.6045
G01 X240.5948
G01 X240.6401 Y124.4457
G01 X459.1702
G01 X459.1215 Y124.2870
G01 X240.6888
G01 X240.7409 Y124.1282
G01 X459.0694
G01 X459.0133 Y123.9695
G01 X240.7970
G01 X240.8568 Y123.8107
G01 X458.9535
G01 X458.8900 Y123.6520
G01 X240.9203
G01 X240.9880 Y123.4932
G01 X458.8223
G01 X458.7505 Y123.3345
G01 X241.0597
G01 X241.1354 Y123.1757
G01 X458.6749
G01 X458.5944 Y123.0170
G01 X241.2159
G01 X241.3005 Y122.8582
G01 X458.5098
G01 X458.4204 Y122.6995
G01 X241.3899
G01 X241.4840 Y122.5407
G01 X458.3262
G01 X458.2272 Y122.3820
G01 X241.5831
G01 X241.6875 Y122.2232
G01 X458.1227
G01 X458.0130 Y122.0645
G01 X241.7973
G01 X241.9127 Y121.9057
G01 X457.8975
G01 X457.7759 Y121.7470
G01 X242.0344
G01 X242.1621 Y121.5882
G01 X457.6482
G01 X457.5133 Y121.4295
G01 X242.2970
G01 X242.4389 Y121.2707
G01 X457.3714
G01 X457.2221 Y121.1120
G01 X242.5882
G01 X242.7464 Y120.9532
G01 X457.0639
G01 X456.8968 Y120.7945
G01 X242.9135
G01 X243.0904 Y120.6357
G01 X456.7199
G01 X456.5321 Y120.4770
G01 X243.2782
G01 X243.4782 Y120.3182
G01 X456.3321
G01 X456.1183 Y120.1595
G01 X243.6920
G01 X243.9214 Y120.0007
G01 X455.8889
G01 X455.6415 Y119.8420
G01 X244.1688
G01 X244.4385 Y119.6832
G01 X455.3718
G01 X455.0762 Y119.5245
G01 X244.7340
G01 X245.0637 Y119.3657
G01 X454.7465
G01 X454.3720 Y119.2070
G01 X245.4383
G01 X245.8786 Y119.0482
G01 X453.9317
G01 X453.3824 Y118.8895
G01 X246.4279
G01 X247.2328 Y118.7307
G01 X452.5776
G00 Z10.0000
G00 X459.5001 Y146.9882
G00 Z0.5000
G01 Z-1.0000 F600
G01 Y147.1470 F1200
G01 X240.3101
G01 Y147.3057
G01 X459.5001
G01 Y147.4645
G01 X240.3101
G01 Y147.6232
G01 X459.5001
G01 Y147.7820
G01 X240.3101
G01 Y147.9407
G01 X459.5001
G01 Y148.0995
G01 X240.3101
G01 Y148.2582
G01 X459.5001
G01 Y148.4170
G01 X240.3101
G01 Y148.5757
G01 X459.5001
G01 Y148.7345
G01 X240.3101
G01 Y148.8932
G01 X459.5001
G01 Y149.0520
G01 X240.3101
G01 Y149.2107
G01 X459.5001
G01 Y149.3695
G01 X240.3101
G01 Y149.5282
G01 X459.5001
G01 Y149.6870
G01 X240.3101
G01 Y149.8457
G01 X459.5001
G01 Y150.0045
G01 X240.3101
G01 Y150.1632
G01 X459.5001
G01 Y150.3220
G01 X240.3101
G01 Y150.4807
G01 X459.5001
G01 Y150.6395
G01 X240.3101
G01 Y150.7982
G01 X459.5001
G01 Y150.9570
G01 X240.3101
G01 Y151.1157
G01 X459.5001
G01 Y151.2745
G01 X240.3101
G01 Y151.4332
G01 X459.5001
G01 Y151.5920
G01 X240.3101
G01 Y151.7507
G01 X459.5001
G01 Y151.9095
G01 X240.3101
G01 Y152.0682
G01 X459.5001
G01 Y152.2270
G01 X240.3101
G01 Y152.3857
G01 X459.5001
G01 Y152.5445
G01 X240.3101
G01 Y152.7032
G01 X459.5001
G01 Y152.8620
G01 X240.3101
G01 Y153.0207
G01 X459.5001
G01 Y153.1795
G01 X240.3101
G01 Y153.3382
G01 X459.5001
G01 Y153.4970
G01 X240.3101
G01 Y153.6557
G01 X459.5001
G01 Y153.8145
G01 X240.3101
G01 Y153.9732
G01 X459.5001
G01 Y154.1320
G01 X240.3101
G01 Y154.2907
G01 X459.5001
G01 Y154.4495
G01 X240.3101
G01 Y154.6082
G01 X459.5001
G01 Y154.7670
G01 X240.3101
G01 Y154.9257
G01 X459.5001
G01 Y155.0845
G01 X240.3101
G01 Y155.2432
G01 X459.5001
G01 Y155.4020
G01 X240.3101
G01 Y155.5607
G01 X459.5001
G01 Y155.7195
G01 X240.3101
G01 Y155.8782
G01 X459.5001
G01 Y156.0370
G01 X240.3101
G01 Y156.1957
G01 X459.5001
G01 Y156.3545
G01 X240.3101
G01 Y156.5132
G01 X459.5001
G01 Y156.6720
G01 X240.3101
G01 Y156.8307
G01 X459.5001
G01 Y156.9895
G01 X240.3101
G01 Y157.1482
G01 X459.5001
G01 Y157.3070
G01 X240.3101
G01 Y157.4657
G01 X459.5001
G01 Y157.6245
G01 X240.3101
G01 Y157.7832
G01 X459.5001
G01 Y157.9420
G01 X240.3101
G01 Y158.1007
G01 X459.5001
G01 Y158.2595
G01 X240.3101
G01 Y158.4182
G01 X459.5001
G01 Y158.5770
G01 X240.3101
G01 Y158.7357
G01 X459.5001
G01 Y158.8945
G01 X240.3101
G01 Y159.0532
G01 X459.5001
G01 Y159.2120
G01 X240.3101
G01 Y159.3707
G01 X459.5001
G01 Y159.5295
G01 X240.3101
G01 Y159.6882
G01 X459.5001
G01 Y159.8470
G01 X240.3101
G01 Y160.0057
G01 X459.5001
G01 Y160.1645
G01 X240.3101
G01 Y160.3232
G01 X459.5001
G01 Y160.4820
G01 X240.3101
G01 Y160.6407
G01 X459.5001
G01 Y160.7995
G01 X240.3101
G01 Y160.9582
G01 X459.5001
G01 Y161.1170
G01 X240.3101
G01 Y161.2757
G01 X459.5001
G01 Y161.4345
G01 X240.3101
G01 Y161.5932
G01 X459.5001
G01 Y161.7520
G01 X240.3101
G01 Y161.9107
G01 X459.5001
G01 Y162.0695
G01 X240.3101
G01 Y162.2282
G01 X459.5001
G01 Y162.3870
G01 X240.3101
G01 Y162.5457
G01 X459.5001
G01 Y162.7045
G01 X240.3101
G01 Y162.8632
G01 X459.5001
G01 Y163.0220
G01 X240.3101
G01 Y163.1807
G01 X459.5001
G01 Y163.3395
G01 X240.3101
G01 Y163.4982
G01 X459.5001
G01 Y163.6570
G01 X240.3101
G01 Y163.8157
G01 X459.5001
G01 Y163.9745
G01 X240.3101
G01 Y164.1332
G01 X459.5001
G01 Y164.2920
G01 X240.3101
G01 Y164.4507
G01 X459.5001
G01 Y164.6095
G01 X240.3101
G01 Y164.7682
G01 X459.5001
G01 Y164.9270
G01 X240.3101
G01 Y165.0857
G01 X459.5001
G01 Y165.2445
G01 X240.3101
G01 Y165.4032
G01 X459.5001
G01 Y165.5620
G01 X240.3101
G01 Y165.7207
G01 X459.5001
G01 Y165.8795
G01 X240.3101
G01 Y166.0382
G01 X459.5001
G01 Y166.1970
G01 X240.3101
G01 Y166.3557
G01 X459.5001
G01 Y166.5145
G01 X240.3101
G01 Y166.6732
G01 X459.5001
G01 Y166.8320
G01 X240.3101
G01 Y166.9907
G01 X459.5001
G01 Y167.1495
G01 X240.3101
G01 Y167.3082
G01 X459.5001
G01 Y167.4670
G01 X240.3101
G01 Y167.6257
G01 X459.5001
G01 Y167.7845
G01 X240.3101
G01 Y167.9432
G01 X459.5001
G01 Y168.1020
G01 X240.3101
G01 Y168.2607
G01 X459.5001
G01 Y168.4195
G01 X240.3101
G01 Y168.5782
G01 X459.5001
G01 Y168.7370
G01 X240.3101
G01 Y168.8957
G01 X459.5001
G01 Y169.0545
G01 X240.3101
G01 Y169.2132
G01 X459.5001
G01 Y169.3720
G01 X240.3101
G01 Y169.5307
G01 X459.5001
G01 Y169.6895
G01 X240.3101
G01 Y169.8482
G01 X459.5001
G01 Y170.0070
G01 X240.3101
G01 Y170.1657
G01 X459.5001
G01 Y170.3245
G01 X240.3101
G01 Y170.4832
G01 X459.5001
G01 Y170.6420
G01 X240.3101
G01 Y170.8007
G01 X459.5001
G01 Y170.9595
G01 X240.3101
G01 Y171.1182
G01 X459.5001
G01 Y171.2770
G01 X240.3101
G01 Y171.4357
G01 X459.5001
G01 Y171.5945
G01 X240.3101
G01 Y171.7532
G01 X459.5001
G01 Y171.9120
G01 X240.3101
G01 Y172.0707
G01 X459.5001
G01 Y172.2295
G01 X240.3101
G01 Y172.3882
G01 X459.5001
G01 Y172.5470
G01 X240.3101
G01 Y172.7057
G01 X459.5001
G01 Y172.8645
G01 X240.3101
G01 Y173.0232
G01 X459.5001
G01 Y173.1820
G01 X240.3101
G01 Y173.3407
G01 X459.5001
G01 Y173.4995
G01 X240.3101
G01 Y173.6582
G01 X459.5001
G01 Y173.8170
G01 X240.3101
G01 Y173.9757
G01 X459.5001
G01 Y174.1345
G01 X240.3101
G01 Y174.2932
G01 X459.5001
G01 Y174.4520
G01 X240.3101
G01 Y174.6107
G01 X459.5001
G01 Y174.7695
G01 X240.3101
G01 Y174.9282
G01 X459.5001
G01 Y175.0870
G01 X240.3101
G01 Y175.2457
G01 X459.5001
G01 Y175.4045
G01 X240.3101
G01 Y175.5632
G01 X459.5001
G01 Y175.7220
G01 X240.3101
G01 Y175.8807
G01 X459.5001
G01 Y176.0395
G01 X240.3101
G01 Y176.1982
G01 X459.5001
G01 Y176.3570
G01 X240.3101
G01 Y176.5157
G01 X459.5001
G01 Y176.6745
G01 X240.3101
G01 Y176.8332
G01 X459.5001
G01 Y176.9920
G01 X240.3101
G01 Y177.1507
G01 X459.5001
G01 Y177.3095
G01 X240.3101
G01 Y177.4682
G01 X459.5001
G01 Y177.6270
G01 X240.3101
G01 Y177.7857
G01 X459.5001
G01 Y177.9445
G01 X240.3101
G01 Y178.1032
G01 X459.5001
G01 Y178.2620
G01 X240.3101
G01 Y178.4207
G01 X459.5001
G01 Y178.5795
G01 X240.3101
G01 Y178.7382
G01 X459.5001
G01 Y178.8970
G01 X240.3101
G01 Y179.0557
G01 X459.5001
G01 Y179.2145
G01 X240.3101
G01 Y179.3732
G01 X459.5001
G01 Y179.5320
G01 X240.3101
G01 Y179.6907
G01 X459.5001
G01 Y179.8495
G01 X240.3101
G01 Y180.0082
G01 X459.5001
G01 Y180.1670
G01 X240.3101
G01 Y180.3257
G01 X459.5001
G01 Y180.4845
G01 X240.3101
G01 Y180.6432
G01 X459.5001
G01 Y180.8020
G01 X240.3101
G01 Y180.9607
G01 X459.5001
G01 Y181.1195
G01 X240.3101
G01 Y181.2782
G01 X459.5001
G01 Y181.4370
G01 X240.3101
G01 Y181.5957
G01 X459.5001
G01 Y181.7545
G01 X240.3101
G01 Y181.9132
G01 X459.5001
G01 Y182.0720
G01 X240.3101
G01 Y182.2307
G01 X459.5001
G01 Y182.3895
G01 X240.3101
G01 Y182.5482
G01 X459.5001
G01 Y182.7070
G01 X240.3101
G01 Y182.8657
G01 X459.5001
G01 Y183.0245
G01 X240.3101
G01 Y183.1832
G01 X459.5001
G01 Y183.3420
G01 X240.3101
G01 Y183.5007
G01 X459.5001
G01 Y183.6595
G01 X240.3101
G01 Y183.8182
G01 X459.5001
G01 Y183.9770
G01 X240.3101
G01 Y184.1357
G01 X459.5001
G01 Y184.2945
G01 X240.3101
G01 Y184.4532
G01 X459.5001
G01 Y184.6120
G01 X240.3101
G01 Y184.7707
G01 X459.5001
G01 Y184.9295
G01 X240.3101
G01 Y185.0882
G01 X459.5001
G01 Y185.2470
G01 X240.3101
G01 Y185.4057
G01 X459.5001
G01 Y185.5645
G01 X240.3101
G01 Y185.7232
G01 X459.5001
G01 Y185.8820
G01 X240.3101
G01 Y186.0407
G01 X459.5001
G01 Y186.1995
G01 X240.3101
G01 Y186.3582
G01 X459.5001
G01 Y186.5170
G01 X240.3101
G01 Y186.6757
G01 X459.5001
G01 Y186.8345
G01 X240.3101
G01 Y186.9932
G01 X459.5001
G01 Y187.1520
G01 X240.3101
G01 Y187.3107
G01 X459.5001
G01 Y187.4695
G01 X240.3101
G01 Y187.6282
G01 X459.5001
G01 Y187.7870
G01 X240.3101
G01 Y187.9457
G01 X459.5001
G01 Y188.1045
G01 X240.3101
G01 Y188.2632
G01 X459.5001
G01 Y188.4220
G01 X240.3101
G01 Y188.5807
G01 X459.5001
G01 Y188.7395
G01 X240.3101
G01 Y188.8982
G01 X459.5001
G01 Y189.0570
G01 X240.3101
G01 Y189.2157
G01 X459.5001
G01 Y189.3745
G01 X240.3101
G01 Y189.5332
G01 X459.5001
G01 Y189.6920
G01 X240.3101
G01 Y189.8507
G01 X459.5001
G01 Y190.0095
G01 X240.3101
G01 Y190.1682
G01 X459.5001
G01 Y190.3270
G01 X240.3101
G01 Y190.4857
G01 X459.5001
G01 Y190.6445
G01 X240.3101
G01 Y190.8032
G01 X459.5001
G01 Y190.9620
G01 X240.3101
G01 Y191.1207
G01 X459.5001
G01 Y191.2795
G01 X240.3101
G01 Y191.4382
G01 X459.5001
G01 Y191.5970
G01 X240.3101
G01 Y191.7557
G01 X459.5001
G01 Y191.9145
G01 X240.3101
G01 Y192.0732
G01 X459.5001
G01 Y192.2320
G01 X240.3101
G01 Y192.3907
G01 X459.5001
G01 Y192.5495
G01 X240.3101
G01 Y192.7082
G01 X459.5001
G01 Y192.8670
G01 X240.3101
G01 Y193.0257
G01 X459.5001
G01 Y193.1845
G01 X240.3101
G01 Y193.3432
G01 X459.5001
G01 Y193.5020
G01 X240.3101
G01 Y193.6607
G01 X459.5001
G01 Y193.8195
G01 X240.3101
G01 Y193.9782
G01 X459.5001
G01 Y194.1370
G01 X240.3101
G01 Y194.2957
G01 X459.5001
G01 Y194.4545
G01 X240.3101
G01 Y194.6132
G01 X459.5001
G01 Y194.7720
G01 X240.3101
G01 Y194.9307
G01 X459.5001
G01 Y195.0895
G01 X240.3101
G01 Y195.2482
G01 X459.5001
G01 Y195.4070
G01 X240.3101
G01 Y195.5657
G01 X459.5001
G01 Y195.7245
G01 X240.3101
G01 Y195.8832
G01 X459.5001
G01 Y196.0420
G01 X240.3101
G01 Y196.2007
G01 X459.5001
G01 Y196.3595
G01 X240.3101
G01 Y196.5182
G01 X459.5001
G01 Y196.6770
G01 X240.3101
G01 Y196.8357
G01 X459.5001
G01 Y196.9945
G01 X240.3101
G01 Y197.1532
G01 X459.5001
G01 Y197.3120
G01 X240.3101
G01 Y197.4707
G01 X459.5001
G01 Y197.6295
G01 X240.3101
G01 Y197.7882
G01 X459.5001
G01 Y197.9470
G01 X240.3101
G01 Y198.1057
G01 X459.5001
G01 Y198.2645
G01 X240.3101
G01 Y198.4232
G01 X459.5001
G01 Y198.5820
G01 X240.3101
G01 Y198.7407
G01 X459.5001
G01 Y198.8995
G01 X240.3101
G01 Y199.0582
G01 X459.5001
G01 Y199.2170
G01 X240.3101
G01 Y199.3757
G01 X459.5001
G01 Y199.5345
G01 X240.3101
G01 Y199.6932
G01 X459.5001
G01 Y199.8520
G01 X240.3101
G01 Y200.0107
G01 X459.5001
G01 Y200.1695
G01 X240.3101
G01 Y200.3282
G01 X459.5001
G01 Y200.4870
G01 X240.3101
G01 Y200.6457
G01 X459.5001
G01 Y200.8045
G01 X240.3101
G01 Y200.9632
G01 X459.5001
G01 Y201.1220
G01 X240.3101
G01 Y201.2807
G01 X459.5001
G01 Y201.4395
G01 X240.3101
G01 Y201.5982
G01 X459.5001
G01 Y201.7570
G01 X240.3101
G01 Y201.9157
G01 X459.5001
G01 Y202.0745
G01 X240.3101
G01 Y202.2332
G01 X459.5001
G01 Y202.3920
G01 X240.3101
G01 Y202.5507
G01 X459.5001
G01 Y202.7095
G01 X240.3101
G01 Y202.8682
G01 X459.5001
G01 Y203.0270
G01 X240.3101
G01 Y203.1857
G01 X459.5001
G01 Y203.3445
G01 X240.3101
G01 Y203.5032
G01 X459.5001
G01 Y203.6620
G01 X240.3101
G01 Y203.8207
G01 X459.5001
G01 Y203.9795
G01 X240.3101
G01 Y204.1382
G01 X459.5001
G01 Y204.2970
G01 X240.3101
G01 Y204.4557
G01 X459.5001
G01 Y204.6145
G01 X240.3101
G01 Y204.7732
G01 X459.5001
G01 Y204.9320
G01 X240.3101
G01 Y205.0907
G01 X459.5001
G01 Y205.2495
G01 X240.3101
G01 Y205.4082
G01 X459.5001
G01 Y205.5670
G01 X240.3101
G01 Y205.7257
G01 X459.5001
G01 Y205.8845
G01 X240.3101
G01 Y206.0432
G01 X459.5001
G01 Y206.2020
G01 X240.3101
G01 Y206.3607
G01 X459.5001
G01 Y206.5195
G01 X240.3101
G01 Y206.6782
G01 X459.5001
G01 Y206.8370
G01 X240.3101
G01 Y206.9957
G01 X459.5001
G01 Y207.1545
G01 X240.3101
G01 Y207.3132
G01 X459.5001
G01 Y207.4720
G01 X240.3101
G01 Y207.6307
G01 X459.5001
G01 Y207.7895
G01 X240.3101
G01 Y207.9482
G01 X459.5001
G01 Y208.1070
G01 X240.3101
G01 Y208.2657
G01 X459.5001
G01 Y208.4245
G01 X240.3101
G01 Y208.5832
G01 X459.5001
G01 Y208.7420
G01 X240.3101
G01 Y208.9007
G01 X459.5001
G01 Y209.0595
G01 X240.3101
G01 Y209.2182
G01 X459.5001
G01 Y209.3770
G01 X240.3101
G01 Y209.5357
G01 X459.5001
G01 Y209.6945
G01 X240.3101
G01 Y209.8532
G01 X459.5001
G01 Y210.0120
G01 X240.3101
G01 Y210.1707
G01 X459.5001
G01 Y210.3295
G01 X240.3101
G01 Y210.4882
G01 X459.5001
G01 Y210.6470
G01 X240.3101
G01 Y210.8057
G01 X459.5001
G01 Y210.9645
G01 X240.3101
G01 Y211.1232
G01 X459.5001
G01 Y211.2820
G01 X240.3101
G01 Y211.4407
G01 X459.5001
G01 Y211.5995
G01 X240.3101
G01 Y211.7582
G01 X459.5001
G01 Y211.9170
G01 X240.3101
G01 Y212.0757
G01 X459.5001
G01 Y212.2345
G01 X240.3101
G01 Y212.3932
G01 X459.5001
G01 Y212.5520
G01 X240.3101
G01 Y212.7107
G01 X459.5001
G01 Y212.8695
G01 X240.3101
G01 Y213.0282
G01 X459.5001
G01 Y213.1870
G01 X240.3101
G01 Y213.3457
G01 X459.5001
G01 Y213.5045
G01 X240.3101
G01 Y213.6632
G01 X459.5001
G01 Y213.8220
G01 X240.3101
G01 Y213.9807
G01 X459.5001
G01 Y214.1395
G01 X240.3101
G01 Y214.2982
G01 X459.5001
G01 Y214.4570
G01 X240.3101
G01 Y214.6157
G01 X459.5001
G01 Y214.7745
G01 X240.3101
G01 Y214.9332
G01 X459.5001
G01 Y215.0920
G01 X240.3101
G01 Y215.2507
G01 X459.5001
G01 Y215.4095
G01 X240.3101
G01 Y215.5682
G01 X459.5001
G01 Y215.7270
G01 X240.3101
G01 Y215.8857
G01 X459.5001
G01 Y216.0445
G01 X240.3101
G01 Y216.2032
G01 X459.5001
G01 Y216.3620
G01 X240.3101
G01 Y216.5207
G01 X459.5001
G01 Y216.6795
G01 X240.3101
G01 Y216.8382
G01 X459.5001
G01 Y216.9970
G01 X240.3101
G01 Y217.1557
G01 X459.5001
G01 Y217.3145
G01 X240.3101
G01 Y217.4732
G01 X459.5001
G01 Y217.6320
G01 X240.3101
G01 Y217.7907
G01 X459.5001
G01 Y217.9495
G01 X240.3101
G01 Y218.1082
G01 X459.5001
G01 Y218.2670
G01 X240.3101
G01 Y218.4257
G01 X459.5001
G01 Y218.5845
G01 X240.3101
G01 Y218.7432
G01 X459.5001
G01 Y218.9020
G01 X240.3101
G01 Y219.0607
G01 X459.5001
G01 Y219.2195
G01 X240.3101
G01 Y219.3782
G01 X459.5001
G01 Y219.5370
G01 X240.3101
G01 Y219.6957
G01 X459.5001
G01 Y219.8545
G01 X240.3101
G01 Y220.0132
G01 X459.5001
G01 Y220.1720
G01 X240.3101
G01 Y220.3307
G01 X459.5001
G01 Y220.4895
G01 X240.3101
G01 Y220.6482
G01 X459.5001
G01 Y220.8070
G01 X240.3101
G01 Y220.9657
G01 X459.5001
G01 Y221.1245
G01 X240.3101
G01 Y221.2832
G01 X459.5001
G01 Y221.4420
G01 X240.3101
G01 Y221.6007
G01 X459.5001
G01 Y221.7595
G01 X240.3101
G01 Y221.9182
G01 X459.5001
G01 Y222.0770
G01 X240.3101
G01 Y222.2357
G01 X459.5001
G01 Y222.3945
G01 X240.3101
G01 Y222.5532
G01 X459.5001
G01 Y222.7120
G01 X240.3101
G01 Y222.8707
G01 X459.5001
G01 Y223.0295
G01 X240.3101
G01 Y223.1882
G01 X459.5001
G01 Y223.3470
G01 X240.3101
G01 Y223.5057
G01 X459.5001
G01 Y223.6645
G01 X240.3101
G01 Y223.8232
G01 X459.5001
G01 Y223.9820
G01 X240.3101
G01 Y224.1407
G01 X459.5001
G01 Y224.2995
G01 X240.3101
G01 Y224.4582
G01 X459.5001
G01 Y224.6170
G01 X240.3101
G01 Y224.7757
G01 X459.5001
G01 Y224.9345
G01 X240.3101
G01 Y225.0932
G01 X459.5001
G01 Y225.2520
G01 X240.3101
G01 Y225.4107
G01 X459.5001
G01 Y225.5695
G01 X240.3101
G01 Y225.7282
G01 X459.5001
G01 Y225.8870
G01 X240.3101
G01 Y226.0457
G01 X459.5001
G01 Y226.2045
G01 X240.3101
G01 Y226.3632
G01 X459.5001
G01 Y226.5220
G01 X240.3101
G01 Y226.6807
G01 X459.5001
G01 Y226.8395
G01 X240.3101
G01 Y226.9982
G01 X459.5001
G01 Y227.1570
G01 X240.3101
G01 Y227.3157
G01 X459.5001
G01 Y227.4745
G01 X240.3101
G01 Y227.6332
G01 X459.5001
G01 Y227.7920
G01 X240.3101
G01 Y227.9507
G01 X459.5001
G01 Y228.1095
G01 X240.3101
G01 Y228.2682
G01 X459.5001
G01 Y228.4270
G01 X240.3101
G01 Y228.5857
G01 X459.5001
G01 Y228.7445
G01 X240.3101
G01 Y228.9032
G01 X459.5001
G01 Y229.0620
G01 X240.3101
G01 Y229.2207
G01 X459.5001
G01 Y229.3795
G01 X240.3101
G01 Y229.5382
G01 X459.5001
G01 Y229.6970
G01 X240.3101
G01 Y229.8557
G01 X459.5001
G01 Y230.0145
G01 X240.3101
G01 Y230.1732
G01 X459.5001
G01 Y230.3320
G01 X240.3101
G01 Y230.4907
G01 X459.5001
G01 Y230.6495
G01 X240.3101
G01 Y230.8082
G01 X459.5001
G01 Y230.9670
G01 X240.3101
G01 Y231.1257
G01 X459.5001
G01 Y231.2845
G01 X240.3101
G01 Y231.4432
G01 X459.5001
G01 Y231.6020
G01 X240.3101
G01 Y231.7607
G01 X459.5001
G01 Y231.9195
G01 X240.3101
G01 Y232.0782
G01 X459.5001
G01 Y232.2370
G01 X240.3101
G01 Y232.3957
G01 X459.5001
G01 Y232.5545
G01 X240.3101
G01 Y232.7132
G01 X459.5001
G01 Y232.8720
G01 X240.3101
G01 Y233.0307
G01 X459.5001
G01 Y233.1895
G01 X240.3101
G01 Y233.3482
G01 X459.5001
G01 Y233.5070
G01 X240.3101
G01 Y233.6657
G01 X459.5001
G01 Y233.8245
G01 X240.3101
G01 Y233.9832
G01 X459.5001
G01 Y234.1420
G01 X240.3101
G01 Y234.3007
G01 X459.5001
G01 Y234.4595
G01 X240.3101
G01 Y234.6182
G01 X459.5001
G01 Y234.7770
G01 X240.3101
G01 Y234.9357
G01 X459.5001
G01 Y235.0945
G01 X240.3101
G01 Y235.2532
G01 X459.5001
G01 Y235.4120
G01 X240.3101
G01 Y235.5707
G01 X459.5001
G01 Y235.7295
G01 X240.3101
G01 Y235.8882
G01 X459.5001
G01 Y236.0470
G01 X240.3101
G01 Y236.2057
G01 X459.5001
G01 Y236.3645
G01 X240.3101
G01 Y236.5232
G01 X459.5001
G01 Y236.6820
G01 X240.3101
G01 Y236.8407
G01 X459.5001
G01 Y236.9995
G01 X240.3101
G01 Y237.1582
G01 X459.5001
G01 Y237.3170
G01 X240.3101
G01 Y237.4757
G01 X459.5001
G01 Y237.6345
G01 X240.3101
G01 Y237.7932
G01 X459.5001
G01 Y237.9520
G01 X240.3101
G01 Y238.1107
G01 X459.5001
G01 Y238.2695
G01 X240.3101
G01 Y238.4282
G01 X459.5001
G01 Y238.5870
G01 X240.3101
G01 Y238.7457
G01 X459.5001
G01 Y238.9045
G01 X240.3101
G01 Y239.0632
G01 X459.5001
G01 Y239.2220
G01 X240.3101
G01 Y239.3807
G01 X459.5001
G01 Y239.5395
G01 X240.3101
G01 Y239.6982
G01 X459.5001
G01 Y239.8570
G01 X240.3101
G01 Y240.0157
G01 X459.5001
G01 Y240.1745
G01 X240.3101
G01 Y240.3332
G01 X459.5001
G01 Y240.4920
G01 X240.3101
G01 Y240.6507
G01 X459.5001
G01 Y240.8095
G01 X240.3101
G01 Y240.9682
G01 X459.5001
G01 Y241.1270
G01 X240.3101
G01 Y241.2857
G01 X459.5001
G01 Y241.4445
G01 X240.3101
G01 Y241.6032
G01 X459.5001
G01 Y241.7620
G01 X240.3101
G01 Y241.9207
G01 X459.5001
G01 Y242.0795
G01 X240.3101
G01 Y242.2382
G01 X459.5001
G01 Y242.3970
G01 X240.3101
G01 Y242.5557
G01 X459.5001
G01 Y242.7145
G01 X240.3101
G01 Y242.8732
G01 X459.5001
G01 Y243.0320
G01 X240.3101
G01 Y243.1907
G01 X459.5001
G01 Y243.3495
G01 X240.3101
G01 Y243.5082
G01 X459.5001
G01 Y243.6670
G01 X240.3101
G01 Y243.8257
G01 X459.5001
G01 Y243.9845
G01 X240.3101
G01 Y244.1432
G01 X459.5001
G01 Y244.3020
G01 X240.3101
G01 Y244.4607
G01 X459.5001
G01 Y244.6195
G01 X240.3101
G01 Y244.7782
G01 X459.5001
G01 Y244.9370
G01 X240.3101
G01 Y245.0957
G01 X459.5001
G01 Y245.2545
G01 X240.3101
G01 Y245.4132
G01 X459.5001
G01 Y245.5720
G01 X240.3101
G01 Y245.7307
G01 X459.5001
G01 Y245.8895
G01 X240.3101
G01 Y246.0482
G01 X459.5001
G01 Y246.2070
G01 X240.3101
G01 Y246.3657
G01 X459.5001
G01 Y246.5245
G01 X240.3101
G01 Y246.6832
G01 X459.5001
G01 Y246.8420
G01 X240.3101
G01 Y247.0007
G01 X459.5001
G01 Y247.1595
G01 X240.3101
G01 Y247.3182
G01 X459.5001
G01 Y247.4770
G01 X240.3101
G01 Y247.6357
G01 X459.5001
G01 Y247.7945
G01 X240.3101
G01 Y247.9532
G01 X459.5001
G01 Y248.1120
G01 X240.3101
G01 Y248.2707
G01 X459.5001
G01 Y248.4295
G01 X240.3101
G01 Y248.5882
G01 X459.5001
G01 Y248.7470
G01 X240.3101
G01 Y248.9057
G01 X459.5001
G01 Y249.0645
G01 X240.3101
G01 Y249.2232
G01 X459.5001
G01 Y249.3820
G01 X240.3101
G01 Y249.5407
G01 X459.5001
G01 Y249.6995
G01 X240.3101
G01 Y249.8582
G01 X459.5001
G01 Y250.0170
G01 X240.3101
G01 Y250.1757
G01 X459.5001
G01 Y250.3345
G01 X240.3101
G01 Y250.4932
G01 X459.5001
G01 Y250.6520
G01 X240.3101
G01 Y250.8107
G01 X459.5001
G01 Y250.9695
G01 X240.3101
G01 Y251.1282
G01 X459.5001
G01 Y251.2870
G01 X240.3101
G01 Y251.4457
G01 X459.5001
G01 Y251.6045
G01 X240.3101
G01 Y251.7632
G01 X459.5001
G01 Y251.9220
G01 X240.3101
G01 Y252.0807
G01 X459.5001
G01 Y252.2395
G01 X240.3101
G01 Y252.3982
G01 X459.5001
G01 Y252.5570
G01 X240.3101
G01 Y252.7157
G01 X459.5001
G01 Y252.8745
G01 X240.3101
G01 Y253.0332
G01 X459.5001
G01 Y253.1920
G01 X240.3101
G01 Y253.3507
G01 X459.5001
G01 Y253.5095
G01 X240.3101
G01 Y253.6682
G01 X459.5001
G01 Y253.8270
G01 X240.3101
G01 Y253.9857
G01 X459.5001
G01 Y254.1445
G01 X240.3101
G01 Y254.3032
G01 X459.5001
G01 Y254.4620
G01 X240.3101
G01 Y254.6207
G01 X459.5001
G01 Y254.7795
G01 X240.3101
G01 Y254.9382
G01 X459.5001
G01 Y255.0970
G01 X240.3101
G01 Y255.2557
G01 X459.5001
G01 Y255.4145
G01 X240.3101
G01 Y255.5732
G01 X459.5001
G01 Y255.7320
G01 X240.3101
G01 Y255.8907
G01 X459.5001
G01 Y256.0495
G01 X240.3101
G01 Y256.2082
G01 X459.5001
G01 Y256.3670
G01 X240.3101
G01 Y256.5257
G01 X459.5001
G01 Y256.6845
G01 X240.3101
G01 Y256.8432
G01 X459.5001
G01 Y257.0020
G01 X240.3101
G01 Y257.1607
G01 X459.5001
G01 Y257.3195
G01 X240.3101
G01 Y257.4782
G01 X459.5001
G01 Y257.6370
G01 X240.3101
G01 Y257.7957
G01 X459.5001
G01 Y257.9545
G01 X240.3101
G01 Y258.1132
G01 X459.5001
G01 Y258.2720
G01 X240.3101
G01 Y258.4307
G01 X459.5001
G01 Y258.5895
G01 X240.3101
G01 Y258.7482
G01 X459.5001
G01 Y258.9070
G01 X240.3101
G01 Y259.0657
G01 X459.5001
G01 Y259.2245
G01 X240.3101
G01 Y259.3832
G01 X459.5001
G01 Y259.5420
G01 X240.3101
G01 Y259.7007
G01 X459.5001
G01 Y259.8595
G01 X240.3101
G01 Y260.0182
G01 X459.5001
G01 Y260.1770
G01 X240.3101
G01 Y260.3357
G01 X459.5001
G01 Y260.4945
G01 X240.3101
G01 Y260.6532
G01 X459.5001
G01 Y260.8120
G01 X240.3101
G01 Y260.9707
G01 X459.5001
G01 Y261.1295
G01 X240.3101
G01 Y261.2882
G01 X459.5001
G01 Y261.4470
G01 X240.3101
G01 Y261.6057
G01 X459.5001
G01 Y261.7645
G01 X240.3101
G01 Y261.9232
G01 X459.5001
G01 Y262.0820
G01 X240.3101
G01 Y262.2407
G01 X459.5001
G01 Y262.3995
G01 X240.3101
G01 Y262.5582
G01 X459.5001
G01 Y262.7170
G01 X240.3101
G01 Y262.8757
G01 X459.5001
G01 Y263.0345
G01 X240.3101
G01 Y263.1932
G01 X459.5001
G01 Y263.3520
G01 X240.3101
G01 Y263.5107
G01 X459.5001
G01 Y263.6695
G01 X240.3101
G01 Y263.8282
G01 X459.5001
G01 Y263.9870
G01 X240.3101
G01 Y264.1457
G01 X459.5001
G01 Y264.3045
G01 X240.3101
G01 Y264.4632
G01 X459.5001
G01 Y264.6220
G01 X240.3101
G01 Y264.7807
G01 X459.5001
G01 Y264.9395
G01 X240.3101
G01 Y265.0982
G01 X459.5001
G01 Y265.2570
G01 X240.3101
G01 Y265.4157
G01 X459.5001
G01 Y265.5745
G01 X240.3101
G01 Y265.7332
G01 X459.5001
G01 Y265.8920
G01 X240.3101
G01 Y266.0507
G01 X459.5001
G01 Y266.2095
G01 X240.3101
G01 Y266.3682
G01 X459.5001
G01 Y266.5270
G01 X240.3101
G01 Y266.6857
G01 X459.5001
G01 Y266.8445
G01 X240.3101
G01 Y267.0032
G01 X459.5001
G01 Y267.1620
G01 X240.3101
G01 Y267.3207
G01 X459.5001
G01 Y267.4795
G01 X240.3101
G01 Y267.6382
G01 X459.5001
G01 Y267.7970
G01 X240.3101
G01 Y267.9557
G01 X459.5001
G01 Y268.1145
G01 X240.3101
G01 Y268.2732
G01 X459.5001
G01 Y268.4320
G01 X240.3101
G01 Y268.5907
G01 X459.5001
G01 Y268.7495
G01 X240.3101
G01 Y268.9082
G01 X459.5001
G01 Y269.0670
G01 X240.3101
G01 Y269.2257
G01 X459.5001
G01 Y269.3845
G01 X240.3101
G01 Y269.5432
G01 X459.5001
G01 Y269.7020
G01 X240.3101
G01 Y269.8607
G01 X459.5001
G01 Y270.0195
G01 X240.3101
G01 Y270.1782
G01 X459.5001
G01 Y270.3370
G01 X240.3101
G01 Y270.4957
G01 X459.5001
G01 Y270.6545
G01 X240.3101
G01 Y270.8132
G01 X459.5001
G01 Y270.9720
G01 X240.3101
G01 Y271.1307
G01 X459.5001
G01 Y271.2895
G01 X240.3101
G01 Y271.4482
G01 X459.5001
G01 Y271.6070
G01 X240.3101
G01 Y271.7657
G01 X459.5001
G01 Y271.9245
G01 X240.3101
G01 Y272.0832
G01 X459.5001
G01 Y272.2420
G01 X240.3101
G01 Y272.4007
G01 X459.5001
G01 Y272.5595
G01 X240.3101
G01 Y272.7182
G01 X459.5001
G01 Y272.8770
G01 X240.3101
G01 Y273.0357
G01 X459.5001
G01 Y273.1945
G01 X240.3101
G01 Y273.3532
G01 X459.5001
G01 Y273.5120
G01 X240.3101
G01 Y273.6707
G01 X459.5001
G01 Y273.8295
G01 X240.3101
G01 Y273.9882
G01 X459.5001
G01 Y274.1470
G01 X240.3101
G01 Y274.3057
G01 X459.5001
G01 Y274.4645
G01 X240.3101
G01 Y274.6232
G01 X459.5001
G01 Y274.7820
G01 X240.3101
G01 Y274.9407
G01 X459.5001
G01 Y275.0995
G01 X240.3101
G01 Y275.2582
G01 X459.5001
G01 Y275.4170
G01 X240.3101
G01 Y275.5757
G01 X459.5001
G01 Y275.7345
G01 X240.3101
G01 Y275.8932
G01 X459.5001
G01 Y276.0520
G01 X240.3101
G01 Y276.2107
G01 X459.5001
G01 Y276.3695
G01 X240.3101
G01 Y276.5282
G01 X459.5001
G01 Y276.6870
G01 X240.3101
G01 Y276.8457
G01 X459.5001
G01 Y277.0045
G01 X240.3101
G01 Y277.1632
G01 X459.5001
G01 Y277.3220
G01 X240.3101
G01 Y277.4807
G01 X459.5001
G01 Y277.6395
G01 X240.3101
G01 Y277.7982
G01 X459.5001
G01 Y277.9570
G01 X240.3101
G01 Y278.1157
G01 X459.5001
G01 Y278.2745
G01 X240.3101
G01 Y278.4332
G01 X459.5001
G01 Y278.5920
G01 X240.3101
G01 Y278.7507
G01 X459.5001
G01 Y278.9095
G01 X240.3101
G01 Y279.0682
G01 X459.5001
G01 Y279.2270
G01 X240.3101
G01 Y279.3857
G01 X459.5001
G01 Y279.5445
G01 X240.3101
G01 Y279.7032
G01 X459.5001
G01 Y279.8620
G01 X240.3101
G01 Y280.0207
G01 X459.5001
G01 Y280.1795
G01 X240.3101
G01 Y280.3382
G01 X459.5001
G01 Y280.4970
G01 X240.3101
G01 Y280.6557
G01 X459.5001
G01 Y280.8145
G01 X240.3101
G01 Y280.9732
G01 X459.5001
G01 Y281.1320
G01 X240.3101
G01 Y281.2907
G01 X459.5001
G01 Y281.4495
G01 X240.3101
G01 Y281.6082
G01 X459.5001
G01 Y281.7670
G01 X240.3101
G01 Y281.9257
G01 X459.5001
G01 Y282.0845
G01 X240.3101
G01 Y282.2432
G01 X459.5001
G01 Y282.4020
G01 X240.3101
G01 Y282.5607
G01 X459.5001
G01 Y282.7195
G01 X240.3101
G01 Y282.8782
G01 X459.5001
G01 Y283.0370
G01 X240.3101
G01 Y283.1957
G01 X459.5001
G01 Y283.3545
G01 X240.3101
G01 Y283.5132
G01 X459.5001
G01 Y283.6720
G01 X240.3101
G01 Y283.8307
G01 X459.5001
G01 Y283.9895
G01 X240.3101
G01 Y284.1482
G01 X459.5001
G01 Y284.3070
G01 X240.3101
G01 Y284.4657
G01 X459.5001
G01 Y284.6245
G01 X240.3101
G01 Y284.7832
G01 X459.5001
G01 Y284.9420
G01 X240.3101
G01 Y285.1007
G01 X459.5001
G01 Y285.2595
G01 X240.3101
G01 Y285.4182
G01 X459.5001
G01 Y285.5770
G01 X240.3101
G01 Y285.7357
G01 X459.5001
G01 Y285.8945
G01 X240.3101
G01 Y286.0532
G01 X459.5001
G01 Y286.2120
G01 X240.3101
G01 Y286.3707
G01 X459.5001
G01 Y286.5295
G01 X240.3101
G01 Y286.6882
G01 X459.5001
G01 Y286.8470
G01 X240.3101
G01 Y287.0057
G01 X459.5001
G01 Y287.1645
G01 X240.3101
G01 Y287.3232
G01 X459.5001
G01 Y287.4820
G01 X240.3101
G01 Y287.6407
G01 X459.5001
G01 Y287.7995
G01 X240.3101
G01 Y287.9582
G01 X459.5001
G01 Y288.1170
G01 X240.3101
G01 Y288.2757
G01 X459.5001
G01 Y288.4345
G01 X240.3101
G01 Y288.5932
G01 X459.5001
G01 Y288.7520
G01 X240.3101
G01 Y288.9107
G01 X459.5001
G01 Y289.0695
G01 X240.3101
G01 Y289.2282
G01 X459.5001
G01 Y289.3870
G01 X240.3101
G01 Y289.5457
G01 X459.5001
G01 Y289.7045
G01 X240.3101
G01 Y289.8632
G01 X459.5001
G01 Y290.0220
G01 X240.3101
G01 Y290.1807
G01 X459.5001
G01 Y290.3395
G01 X240.3101
G01 Y290.4982
G01 X459.5001
G01 Y290.6570
G01 X240.3101
G01 Y290.8157
G01 X459.5001
G01 Y290.9745
G01 X240.3101
G01 Y291.1332
G01 X459.5001
G01 Y291.2920
G01 X240.3101
G01 Y291.4507
G01 X459.5001
G01 Y291.6095
G01 X240.3101
G01 Y291.7682
G01 X459.5001
G01 Y291.9270
G01 X240.3101
G01 Y292.0857
G01 X459.5001
G01 Y292.2445
G01 X240.3101
G01 Y292.4032
G01 X459.5001
G01 Y292.5620
G01 X240.3101
G01 Y292.7207
G01 X459.5001
G01 Y292.8795
G01 X240.3101
G01 Y293.0382
G01 X459.5001
G01 Y293.1970
G01 X240.3101
G01 Y293.3557
G01 X459.5001
G01 Y293.5145
G01 X240.3101
G01 Y293.6732
G01 X459.5001
G01 Y293.8320
G01 X240.3101
G01 Y293.9907
G01 X459.5001
G01 Y294.1495
G01 X240.3101
G01 Y294.3082
G01 X459.5001
G01 Y294.4670
G01 X240.3101
G01 Y294.6257
G01 X459.5001
G01 Y294.7845
G01 X240.3101
G01 Y294.9432
G01 X459.5001
G01 Y295.1020
G01 X240.3101
G01 Y295.2607
G01 X459.5001
G01 Y295.4195
G01 X240.3101
G01 Y295.5782
G01 X459.5001
G01 Y295.7370
G01 X240.3101
G01 Y295.8957
G01 X459.5001
G01 Y296.0545
G01 X240.3101
G01 Y296.2132
G01 X459.5001
G01 Y296.3720
G01 X240.3101
G01 Y296.5307
G01 X459.5001
G01 Y296.6895
G01 X240.3101
G01 Y296.8482
G01 X459.5001
G01 Y297.0070
G01 X240.3101
G01 Y297.1657
G01 X459.5001
G01 Y297.3245
G01 X240.3101
G01 Y297.4832
G01 X459.5001
G01 Y297.6420
G01 X240.3101
G01 Y297.8007
G01 X459.5001
G01 Y297.9595
G01 X240.3101
G01 Y298.1182
G01 X459.5001
G01 Y298.2770
G01 X240.3101
G01 Y298.4357
G01 X459.5001
G01 Y298.5945
G01 X240.3101
G01 Y298.7532
G01 X459.5001
G01 Y298.9120
G01 X240.3101
G01 Y299.0707
G01 X459.5001
G01 Y299.2295
G01 X240.3101
G01 Y299.3882
G01 X459.5001
G01 Y299.5470
G01 X240.3101
G01 Y299.7057
G01 X459.5001
G01 Y299.8645
G01 X240.3101
G01 Y300.0232
G01 X459.5001
G01 Y300.1820
G01 X240.3101
G01 Y300.3407
G01 X459.5001
G01 Y300.4995
G01 X240.3101
G01 Y300.6582
G01 X459.5001
G01 Y300.8170
G01 X240.3101
G01 Y300.9757
G01 X459.5001
G01 Y301.1345
G01 X240.3101
G01 Y301.2932
G01 X459.5001
G01 Y301.4520
G01 X240.3101
G01 Y301.6107
G01 X459.5001
G01 Y301.7695
G01 X240.3101
G01 Y301.9282
G01 X459.5001
G01 Y302.0870
G01 X240.3101
G01 Y302.2457
G01 X459.5001
G01 Y302.4045
G01 X240.3101
G01 Y302.5632
G01 X459.5001
G01 Y302.7220
G01 X240.3101
G01 Y302.8807
G01 X459.5001
G01 Y303.0395
G01 X240.3101
G01 Y303.1982
G01 X459.5001
G01 Y303.3570
G01 X240.3101
G01 Y303.5157
G01 X459.5001
G01 Y303.6745
G01 X240.3101
G01 Y303.8332
G01 X459.5001
G01 Y303.9920
G01 X240.3101
G01 Y304.1507
G01 X459.5001
G01 Y304.3095
G01 X240.3101
G01 Y304.4682
G01 X459.5001
G01 Y304.6270
G01 X240.3101
G01 Y304.7857
G01 X459.5001
G01 Y304.9445
G01 X240.3101
G01 Y305.1032
G01 X459.5001
G01 Y305.2620
G01 X240.3101
G01 Y305.4207
G01 X459.5001
G01 Y305.5795
G01 X240.3101
G01 Y305.7382
G01 X459.5001
G01 Y305.8970
G01 X240.3101
G01 Y306.0557
G01 X459.5001
G01 Y306.2145
G01 X240.3101
G01 Y306.3732
G01 X459.5001
G01 Y306.5320
G01 X240.3101
G01 Y306.6907
G01 X459.5001
G01 Y306.8495
G01 X240.3101
G01 Y307.0082
G01 X459.5001
G01 Y307.1670
G01 X240.3101
G01 Y307.3257
G01 X459.5001
G01 Y307.4845
G01 X240.3101
G01 Y307.6432
G01 X459.5001
G01 Y307.8020
G01 X240.3101
G01 Y307.9607
G01 X459.5001
G01 Y308.1195
G01 X240.3101
G01 Y308.2782
G01 X459.5001
G01 Y308.4370
G01 X240.3101
G01 Y308.5957
G01 X459.5001
G01 Y308.7545
G01 X240.3101
G01 Y308.9132
G01 X459.5001
G01 Y309.0720
G01 X240.3101
G01 Y309.2307
G01 X459.5001
G01 Y309.3895
G01 X240.3101
G01 Y309.5482
G01 X459.5001
G01 Y309.7070
G01 X240.3101
G01 Y309.8657
G01 X459.5001
G01 Y310.0245
G01 X240.3101
G01 Y310.1832
G01 X459.5001
G01 Y310.3420
G01 X240.3101
G01 Y310.5007
G01 X459.5001
G01 Y310.6595
G01 X240.3101
G01 Y310.8182
G01 X459.5001
G01 Y310.9770
G01 X240.3101
G01 Y311.1357
G01 X459.5001
G01 Y311.2945
G01 X240.3101
G01 Y311.4532
G01 X459.5001
G01 Y311.6120
G01 X240.3101
G01 Y311.7707
G01 X459.5001
G01 Y311.9295
G01 X240.3101
G01 Y312.0882
G01 X459.5001
G01 Y312.2470
G01 X240.3101
G01 Y312.4057
G01 X459.5001
G01 Y312.5645
G01 X240.3101
G01 Y312.7232
G01 X459.5001
G01 Y312.8820
G01 X240.3101
G01 Y313.0407
G01 X459.5001
G01 Y313.1995
G01 X240.3101
G01 Y313.3582
G01 X459.5001
G01 Y313.5170
G01 X240.3101
G01 Y313.6757
G01 X459.5001
G01 Y313.8345
G01 X240.3101
G01 Y313.9932
G01 X459.5001
G01 Y314.1520
G01 X240.3101
G01 Y314.3107
G01 X459.5001
G01 Y314.4695
G01 X240.3101
G01 Y314.6282
G01 X459.5001
G01 Y314.7870
G01 X240.3101
G01 Y314.9457
G01 X459.5001
G01 Y315.1045
G01 X240.3101
G01 Y315.2632
G01 X459.5001
G01 Y315.4220
G01 X240.3101
G01 Y315.5807
G01 X459.5001
G01 Y315.7395
G01 X240.3101
G01 Y315.8982
G01 X459.5001
G01 Y316.0570
G01 X240.3101
G01 Y316.2157
G01 X459.5001
G01 Y316.3745
G01 X240.3101
G01 Y316.5332
G01 X459.5001
G01 Y316.6920
G01 X240.3101
G01 Y316.8507
G01 X459.5001
G01 Y317.0095
G01 X240.3101
G01 Y317.1682
G01 X459.5001
G01 Y317.3270
G01 X240.3101
G01 Y317.4857
G01 X459.5001
G01 Y317.6445
G01 X240.3101
G01 Y317.8032
G01 X459.5001
G01 Y317.9620
G01 X240.3101
G01 Y318.1207
G01 X459.5001
G01 Y318.2795
G01 X240.3101
G01 Y318.4382
G01 X459.5001
G01 Y318.5970
G01 X240.3101
G01 Y318.7557
G01 X459.5001
G01 Y318.9145
G01 X240.3101
G01 Y319.0732
G01 X459.5001
G01 Y319.2320
G01 X240.3101
G01 Y319.3907
G01 X459.5001
G01 Y319.5495
G01 X240.3101
G01 Y319.7082
G01 X459.5001
G01 Y319.8670
G01 X240.3101
G01 Y320.0257
G01 X459.5001
G01 Y320.1845
G01 X240.3101
G01 Y320.3432
G01 X459.5001
G01 Y320.5020
G01 X240.3101
G01 Y320.6607
G01 X459.5001
G01 Y320.8195
G01 X240.3101
G01 Y320.9782
G01 X459.5001
G01 Y321.1370
G01 X240.3101
G01 Y321.2957
G01 X459.5001
G01 Y321.4545
G01 X240.3101
G01 Y321.6132
G01 X459.5001
G01 Y321.7720
G01 X240.3101
G01 Y321.9307
G01 X459.5001
G01 Y322.0895
G01 X240.3101
G01 Y322.2482
G01 X459.5001
G01 Y322.4070
G01 X240.3101
G01 Y322.5657
G01 X459.5001
G01 Y322.7245
G01 X240.3101
G01 Y322.8832
G01 X459.5001
G01 Y323.0420
G01 X240.3101
G01 Y323.2007
G01 X459.5001
G01 Y323.3595
G01 X240.3101
G01 Y323.5182
G01 X459.5001
G01 Y323.6770
G01 X240.3101
G01 Y323.8357
G01 X459.5001
G01 Y323.9945
G01 X240.3101
G01 Y324.1532
G01 X459.5001
G01 Y324.3120
G01 X240.3101
G01 Y324.4707
G01 X459.5001
G01 Y324.6295
G01 X240.3101
G01 Y324.7882
G01 X459.5001
G01 Y324.9470
G01 X240.3101
G01 Y325.1057
G01 X459.5001
G01 Y325.2645
G01 X240.3101
G01 Y325.4232
G01 X459.5001
G01 Y325.5820
G01 X240.3101
G01 Y325.7407
G01 X459.5001
G01 Y325.8995
G01 X240.3101
G01 Y326.0582
G01 X459.5001
G01 Y326.2170
G01 X240.3101
G01 Y326.3757
G01 X459.5001
G01 Y326.5345
G01 X240.3101
G01 Y326.6932
G01 X459.5001
G01 Y326.8520
G01 X240.3101
G01 Y327.0107
G01 X459.5001
G01 Y327.1695
G01 X240.3101
G01 Y327.3282
G01 X459.5001
G01 Y327.4870
G01 X240.3101
G01 Y327.6457
G01 X459.5001
G01 Y327.8045
G01 X240.3101
G01 Y327.9632
G01 X459.5001
G01 Y328.1220
G01 X240.3101
G01 Y328.2807
G01 X459.5001
G01 Y328.4395
G01 X240.3101
G01 Y328.5982
G01 X459.5001
G01 Y328.7570
G01 X240.3101
G01 Y328.9157
G01 X459.5001
G01 Y329.0745
G01 X240.3101
G01 Y329.2332
G01 X459.5001
G01 Y329.3920
G01 X240.3101
G01 Y329.5507
G01 X459.5001
G01 Y329.7095
G01 X240.3101
G01 Y329.8682
G01 X459.5001
G01 Y330.0270
G01 X240.3101
G01 Y330.1857
G01 X459.5001
G01 Y330.3445
G01 X240.3101
G01 Y330.5032
G01 X459.5001
G01 Y330.6620
G01 X240.3101
G01 Y330.8207
G01 X459.5001
G01 Y330.9795
G01 X240.3101
G01 Y331.1382
G01 X459.5001
G01 Y331.2970
G01 X240.3101
G01 Y331.4557
G01 X459.5001
G01 Y331.6145
G01 X240.3101
G01 Y331.7732
G01 X459.5001
G01 Y331.9320
G01 X240.3101
G01 Y332.0907
G01 X459.5001
G01 Y332.2495
G01 X240.3101
G01 Y332.4082
G01 X459.5001
G01 Y332.5670
G01 X240.3101
G01 Y332.7257
G01 X459.5001
G01 Y332.8845
G01 X240.3101
G01 Y333.0432
G01 X459.5001
G01 Y333.2020
G01 X240.3101
G01 Y333.3607
G01 X459.5001
G01 Y333.5195
G01 X240.3101
G01 Y333.6782
G01 X459.5001
G01 Y333.8370
G01 X240.3101
G01 Y333.9957
G01 X459.5001
G01 Y334.1545
G01 X240.3101
G01 Y334.3132
G01 X459.5001
G01 Y334.4720
G01 X240.3101
G01 Y334.6307
G01 X459.5001
G01 Y334.7895
G01 X240.3101
G01 Y334.9482
G01 X459.5001
G01 Y335.1070
G01 X240.3101
G01 Y335.2657
G01 X459.5001
G01 Y335.4245
G01 X240.3101
G01 Y335.5832
G01 X459.5001
G01 Y335.7420
G01 X240.3101
G01 Y335.9007
G01 X459.5001
G01 Y336.0595
G01 X240.3101
G01 Y336.2182
G01 X459.5001
G01 Y336.3770
G01 X240.3101
G01 Y336.5357
G01 X459.5001
G01 Y336.6945
G01 X240.3101
G01 Y336.8532
G01 X459.5001
G01 Y337.0120
G01 X240.3101
G01 Y337.1707
G01 X459.5001
G01 Y337.3295
G01 X240.3101
G01 Y337.4882
G01 X459.5001
G01 Y337.6470
G01 X240.3101
G01 Y337.8057
G01 X459.5001
G01 Y337.9645
G01 X240.3101
G01 Y338.1232
G01 X459.5001
G01 Y338.2820
G01 X240.3101
G01 Y338.4407
G01 X459.5001
G01 Y338.5995
G01 X240.3101
G01 Y338.7582
G01 X459.5001
G01 Y338.9170
G01 X240.3101
G01 Y339.0757
G01 X459.5001
G01 Y339.2345
G01 X240.3101
G01 Y339.3932
G01 X459.5001
G01 Y339.5520
G01 X240.3101
G01 Y339.7107
G01 X459.5001
G01 Y339.8695
G01 X240.3101
G01 Y340.0282
G01 X459.5001
G01 Y340.1870
G01 X240.3101
G01 Y340.3457
G01 X459.5001
G01 Y340.5045
G01 X240.3101
G01 Y340.6632
G01 X459.5001
G01 Y340.8220
G01 X240.3101
G01 Y340.9807
G01 X459.5001
G01 Y341.1395
G01 X240.3101
G01 Y341.2982
G01 X459.5001
G01 Y341.4570
G01 X240.3101
G01 Y341.6157
G01 X459.5001
G01 Y341.7745
G01 X240.3101
G01 Y341.9332
G01 X459.5001
G01 Y342.0920
G01 X240.3101
G01 Y342.2507
G01 X459.5001
G01 Y342.4095
G01 X240.3101
G01 Y342.5682
G01 X459.5001
G01 Y342.7270
G01 X240.3101
G01 Y342.8857
G01 X459.5001
G01 Y343.0445
G01 X240.3101
G01 Y343.2032
G01 X459.5001
G01 Y343.3620
G01 X240.3101
G01 Y343.5207
G01 X459.5001
G01 Y343.6795
G01 X240.3101
G01 Y343.8382
G01 X459.5001
G01 Y343.9970
G01 X240.3101
G01 Y344.1557
G01 X459.5001
G01 Y344.3145
G01 X240.3101
G01 Y344.4732
G01 X459.5001
G01 Y344.6320
G01 X240.3101
G01 Y344.7907
G01 X459.5001
G01 Y344.9495
G01 X240.3101
G01 Y345.1082
G01 X459.5001
G01 Y345.2670
G01 X240.3101
G01 Y345.4257
G01 X459.5001
G01 Y345.5845
G01 X240.3101
G01 Y345.7432
G01 X459.5001
G01 Y345.9020
G01 X240.3101
G01 Y346.0607
G01 X459.5001
G01 Y346.2195
G01 X240.3101
G01 Y346.3782
G01 X459.5001
G01 Y346.5370
G01 X240.3101
G01 Y346.6957
G01 X459.5001
G01 Y346.8545
G01 X240.3101
G01 Y347.0132
G01 X459.5001
G01 Y347.1720
G01 X240.3101
G01 Y347.3307
G01 X459.5001
G01 Y347.4895
G01 X240.3101
G01 Y347.6482
G01 X459.5001
G01 Y347.8070
G01 X240.3101
G01 Y347.9657
G01 X459.5001
G01 Y348.1245
G01 X240.3101
G01 Y348.2832
G01 X459.5001
G01 Y348.4420
G01 X240.3101
G01 Y348.6007
G01 X459.5001
G01 Y348.7595
G01 X240.3101
G01 Y348.9182
G01 X459.5001
G01 Y349.0770
G01 X240.3101
G01 Y349.2357
G01 X459.5001
G01 Y349.3945
G01 X240.3101
G01 Y349.5532
G01 X459.5001
G01 Y349.7120
G01 X240.3101
G01 Y349.8707
G01 X459.5001
G01 Y350.0295
G01 X240.3101
G01 Y350.1882
G01 X459.5001
G01 Y350.3470
G01 X240.3101
G01 Y350.5057
G01 X459.5001
G01 Y350.6645
G01 X240.3101
G01 Y350.8232
G01 X459.5001
G01 Y350.9820
G01 X240.3101
G01 Y351.1407
G01 X459.5001
G01 Y351.2995
G01 X240.3101
G01 Y351.4582
G01 X459.5001
G01 Y351.6170
G01 X240.3101
G01 Y351.7757
G01 X459.5001
G01 Y351.9345
G01 X240.3101
G01 Y352.0932
G01 X459.5001
G01 Y352.2520
G01 X240.3101
G01 Y352.4107
G01 X459.5001
G01 Y352.5695
G01 X240.3101
G01 Y352.7282
G01 X459.5001
G01 Y352.8870
G01 X240.3101
G01 Y353.0457
G01 X459.5001
G01 Y353.2045
G01 X240.3101
G01 Y353.3632
G01 X459.5001
G01 Y353.5220
G01 X240.3101
G01 Y353.6807
G01 X459.5001
G01 Y353.8395
G01 X240.3101
G01 Y353.9982
G01 X459.5001
G01 Y354.1570
G01 X240.3101
G01 Y354.3157
G01 X459.5001
G01 Y354.4745
G01 X240.3101
G01 Y354.6332
G01 X459.5001
G01 Y354.7920
G01 X240.3101
G01 Y354.9507
G01 X459.5001
G01 Y355.1095
G01 X240.3101
G01 Y355.2682
G01 X459.5001
G01 Y355.4270
G01 X240.3101
G01 Y355.5857
G01 X459.5001
G01 Y355.7445
G01 X240.3101
G01 Y355.9032
G01 X459.5001
G01 Y356.0620
G01 X240.3101
G01 Y356.2207
G01 X459.5001
G01 Y356.3795
G01 X240.3101
G01 Y356.5382
G01 X459.5001
G01 Y356.6970
G01 X240.3101
G01 Y356.8557
G01 X459.5001
G01 Y357.0145
G01 X240.3101
G01 Y357.1732
G01 X459.5001
G01 Y357.3320
G01 X240.3101
G01 Y357.4907
G01 X459.5001
G01 Y357.6495
G01 X240.3101
G01 Y357.8082
G01 X459.5001
G01 Y357.9670
G01 X240.3101
G01 Y358.1257
G01 X459.5001
G01 Y358.2845
G01 X240.3101
G01 Y358.4432
G01 X459.5001
G01 Y358.6020
G01 X240.3101
G01 Y358.7607
G01 X459.5001
G01 Y358.9195
G01 X240.3101
G01 Y359.0782
G01 X459.5001
G01 Y359.2370
G01 X240.3101
G01 Y359.3957
G01 X459.5001
G01 Y359.5545
G01 X240.3101
G01 Y359.7132
G01 X459.5001
G01 Y359.8720
G01 X240.3101
G01 Y360.0307
G01 X459.5001
G01 Y360.1895
G01 X240.3101
G01 Y360.3482
G01 X459.5001
G01 Y360.5070
G01 X240.3101
G01 Y360.6657
G01 X459.5001
G01 Y360.8245
G01 X240.3101
G01 Y360.9832
G01 X459.5001
G01 Y361.1420
G01 X240.3101
G01 Y361.3007
G01 X459.5001
G01 Y361.4595
G01 X240.3101
G01 Y361.6182
G01 X459.5001
G01 Y361.7770
G01 X240.3101
G01 Y361.9357
G01 X459.5001
G01 Y362.0945
G01 X240.3101
G01 Y362.2532
G01 X459.5001
G01 Y362.4120
G01 X240.3101
G01 Y362.5707
G01 X459.5001
G01 Y362.7295
G01 X240.3101
G01 Y362.8882
G01 X459.5001
G01 Y363.0470
G01 X240.3101
G01 Y363.2057
G01 X459.5001
G01 Y363.3645
G01 X240.3101
G01 Y363.5232
G01 X459.5001
G01 Y363.6820
G01 X240.3101
G01 Y363.8407
G01 X459.5001
G01 Y363.9995
G01 X240.3101
G01 Y364.1582
G01 X459.5001
G01 Y364.3170
G01 X240.3101
G01 Y364.4757
G01 X459.5001
G01 Y364.6345
G01 X240.3101
G01 Y364.7932
G01 X459.5001
G01 Y364.9520
G01 X240.3101
G01 Y365.1107
G01 X459.5001
G01 Y365.2695
G01 X240.3101
G01 Y365.4282
G01 X459.5001
G01 Y365.5870
G01 X240.3101
G01 Y365.7457
G01 X459.5001
G01 Y365.9045
G01 X240.3101
G01 Y366.0632
G01 X459.5001
G01 Y366.2220
G01 X240.3101
G01 Y366.3807
G01 X459.5001
G01 Y366.5395
G01 X240.3101
G01 Y366.6982
G01 X459.5001
G01 Y366.8570
G01 X240.3101
G01 Y367.0157
G01 X459.5001
G01 Y367.1745
G01 X240.3101
G01 Y367.3332
G01 X459.5001
G01 Y367.4920
G01 X240.3101
G01 Y367.6507
G01 X459.5001
G01 Y367.8095
G01 X240.3101
G01 Y367.9682
G01 X459.5001
G01 Y368.1270
G01 X240.3101
G01 Y368.2857
G01 X459.5001
G01 Y368.4445
G01 X240.3101
G01 Y368.6032
G01 X459.5001
G01 Y368.7620
G01 X240.3101
G01 Y368.9207
G01 X459.5001
G01 Y369.0795
G01 X240.3101
G01 Y369.2382
G01 X459.5001
G01 Y369.3970
G01 X240.3101
G01 Y369.5557
G01 X459.5001
G01 Y369.7145
G01 X240.3101
G01 Y369.8732
G01 X459.5001
G01 Y370.0320
G01 X240.3101
G01 Y370.1907
G01 X459.5001
G01 Y370.3495
G01 X240.3101
G01 Y370.5082
G01 X459.5001
G01 Y370.6670
G01 X240.3101
G01 Y370.8257
G01 X459.5001
G01 Y370.9845
G01 X240.3101
G01 Y371.1432
G01 X459.5001
G01 Y371.3020
G01 X240.3101
G01 Y371.4607
G01 X459.5001
G01 Y371.6195
G01 X240.3101
G01 Y371.7782
G01 X459.5001
G01 Y371.9370
G01 X240.3101
G01 Y372.0957
G01 X459.5001
G01 Y372.2545
G01 X240.3101
G01 Y372.4132
G01 X459.5001
G01 Y372.5720
G01 X240.3101
G01 Y372.7307
G01 X459.5001
G01 Y372.8895
G01 X240.3101
G01 Y373.0482
G01 X459.5001
G01 Y373.2070
G01 X240.3101
G01 Y373.3657
G01 X459.5001
G01 Y373.5245
G01 X240.3101
G01 Y373.6832
G01 X459.5001
G01 Y373.8420
G01 X240.3101
G01 Y374.0007
G01 X459.5001
G01 Y374.1595
G01 X240.3101
G01 Y374.3182
G01 X459.5001
G01 Y374.4770
G01 X240.3101
G01 Y374.6357
G01 X459.5001
G01 Y374.7945
G01 X240.3101
G01 Y374.9532
G01 X459.5001
G01 Y375.1120
G01 X240.3101
G01 Y375.2707
G01 X459.5001
G01 Y375.4295
G01 X240.3101
G01 Y375.5882
G01 X459.5001
G01 Y375.7470
G01 X240.3101
G01 Y375.9057
G01 X459.5001
G01 Y376.0645
G01 X240.3101
G01 Y376.2232
G01 X459.5001
G01 Y376.3820
G01 X240.3101
G01 Y376.5407
G01 X459.5001
G01 Y376.6995
G01 X240.3101
G01 Y376.8582
G01 X459.5001
G01 Y377.0170
G01 X240.3101
G01 Y377.1757
G01 X459.5001
G01 Y377.3345
G01 X240.3101
G01 Y377.4932
G01 X459.5001
G01 Y377.6520
G01 X240.3101
G01 Y377.8107
G01 X459.5001
G01 Y377.9695
G01 X240.3101
G01 Y378.1282
G01 X459.5001
G01 Y378.2870
G01 X240.3101
G01 Y378.4457
G01 X459.5001
G01 Y378.6045
G01 X240.3101
G01 Y378.7632
G01 X459.5001
G01 Y378.9220
G01 X240.3101
G01 Y379.0807
G01 X459.5001
G01 Y379.2395
G01 X240.3101
G01 Y379.3982
G01 X459.5001
G01 Y379.5570
G01 X240.3101
G01 Y379.7157
G01 X459.5001
G01 Y379.8745
G01 X240.3101
G01 Y380.0332
G01 X459.5001
G01 Y380.1920
G01 X240.3101
G01 Y380.3507
G01 X459.5001
G01 Y380.5095
G01 X240.3101
G01 Y380.6682
G01 X459.5001
G01 Y380.8270
G01 X240.3101
G01 Y380.9857
G01 X459.5001
G01 Y381.1445
G01 X240.3101
G01 Y381.3032
G01 X459.5001
G01 Y381.4620
G01 X240.3101
G01 Y381.6207
G01 X459.5001
G01 Y381.7795
G01 X240.3101
G01 Y381.9382
G01 X459.5001
G01 Y382.0970
G01 X240.3101
G01 Y382.2557
G01 X459.5001
G01 Y382.4145
G01 X240.3101
G01 Y382.5732
G01 X459.5001
G01 Y382.7320
G01 X240.3101
G01 Y382.8907
G01 X459.5001
G01 Y383.0495
G01 X240.3101
G01 Y383.2082
G01 X459.5001
G01 Y383.3670
G01 X240.3101
G01 Y383.5257
G01 X459.5001
G01 Y383.6845
G01 X240.3101
G01 Y383.8432
G01 X459.5001
G01 Y384.0020
G01 X240.3101
G01 Y384.1607
G01 X459.5001
G01 Y384.3195
G01 X240.3101
G01 Y384.4782
G01 X459.5001
G01 Y384.6370
G01 X240.3101
G01 Y384.7957
G01 X459.5001
G01 Y384.9545
G01 X240.3101
G01 Y385.1132
G01 X459.5001
G01 Y385.2720
G01 X240.3101
G01 Y385.4307
G01 X459.5001
G01 Y385.5895
G01 X240.3101
G01 Y385.7482
G01 X459.5001
G01 Y385.9070
G01 X240.3101
G01 Y386.0657
G01 X459.5001
G01 Y386.2245
G01 X240.3101
G01 Y386.3832
G01 X459.5001
G01 Y386.5420
G01 X240.3101
G01 Y386.7007
G01 X459.5001
G01 Y386.8595
G01 X240.3101
G01 Y387.0182
G01 X459.5001
G01 Y387.1770
G01 X240.3101
G01 Y387.3357
G01 X459.5001
G01 Y387.4945
G01 X240.3101
G01 Y387.6532
G01 X459.5001
G01 Y387.8120
G01 X240.3101
G01 Y387.9707
G01 X459.5001
G01 Y388.1295
G01 X240.3101
G01 Y388.2882
G01 X459.5001
G01 Y388.4470
G01 X240.3101
G01 Y388.6057
G01 X459.5001
G01 Y388.7645
G01 X240.3101
G01 Y388.9232
G01 X459.5001
G01 Y389.0820
G01 X240.3101
G01 Y389.2407
G01 X459.5001
G01 Y389.3995
G01 X240.3101
G01 Y389.5582
G01 X459.5001
G01 Y389.7170
G01 X240.3101
G01 Y389.8757
G01 X459.5001
G01 Y390.0345
G01 X240.3101
G01 Y390.1932
G01 X459.5001
G01 Y390.3520
G01 X240.3101
G01 Y390.5107
G01 X459.5001
G01 Y390.6695
G01 X240.3101
G01 Y390.8282
G01 X459.5001
G01 Y390.9870
G01 X240.3101
G01 Y391.1457
G01 X459.5001
G01 Y391.3045
G01 X240.3101
G01 Y391.4632
G01 X459.5001
G01 Y391.6220
G01 X240.3101
G01 Y391.7807
G01 X459.5001
G01 Y391.9395
G01 X240.3101
G01 Y392.0982
G01 X459.5001
G01 Y392.2570
G01 X240.3101
G01 Y392.4157
G01 X459.5001
G01 Y392.5745
G01 X240.3101
G01 Y392.7332
G01 X459.5001
G01 Y392.8920
G01 X240.3101
G01 Y393.0507
G01 X459.5001
G01 Y393.2095
G01 X240.3101
G01 Y393.3682
G01 X459.5001
G01 Y393.5270
G01 X240.3101
G01 Y393.6857
G01 X459.5001
G01 Y393.8445
G01 X240.3101
G01 Y394.0032
G01 X459.5001
G01 Y394.1620
G01 X240.3101
G01 Y394.3207
G01 X459.5001
G01 Y394.4795
G01 X240.3101
G01 Y394.6382
G01 X459.5001
G01 Y394.7970
G01 X240.3101
G01 Y394.9557
G01 X459.5001
G01 Y395.1145
G01 X240.3101
G01 Y395.2732
G01 X459.5001
G01 Y395.4320
G01 X240.3101
G01 Y395.5907
G01 X459.5001
G01 Y395.7495
G01 X240.3101
G01 Y395.9082
G01 X459.5001
G01 Y396.0670
G01 X240.3101
G01 Y396.2257
G01 X459.5001
G01 Y396.3845
G01 X240.3101
G01 Y396.5432
G01 X459.5001
G01 Y396.7020
G01 X240.3101
G01 Y396.8607
G01 X459.5001
G01 Y397.0195
G01 X240.3101
G01 Y397.1782
G01 X459.5001
G01 Y397.3370
G01 X240.3101
G01 Y397.4957
G01 X459.5001
G01 Y397.6545
G01 X240.3101
G01 Y397.8132
G01 X459.5001
G01 Y397.9720
G01 X240.3101
G01 Y398.1307
G01 X459.5001
G01 Y398.2895
G01 X240.3101
G01 Y398.4482
G01 X459.5001
G01 Y398.6070
G01 X240.3101
G01 Y398.7657
G01 X459.5001
G01 Y398.9245
G01 X240.3101
G01 Y399.0832
G01 X459.5001
G01 Y399.2420
G01 X240.3101
G01 Y399.4007
G01 X459.5001
G01 Y399.5595
G01 X240.3101
G01 Y399.7182
G01 X459.5001
G01 Y399.8770
G01 X240.3101
G01 Y400.0357
G01 X459.5001
G01 Y400.1945
G01 X240.3101
G01 Y400.3532
G01 X459.5001
G01 Y400.5120
G01 X240.3101
G01 Y400.6707
G01 X459.5001
G01 Y400.8295
G01 X240.3101
G01 Y400.9882
G01 X459.5001
G01 Y401.1470
G01 X240.3101
G01 Y401.3057
G01 X459.5001
G01 Y401.4645
G01 X240.3101
G01 Y401.6232
G01 X459.5001
G01 Y401.7820
G01 X240.3101
G01 Y401.9407
G01 X459.5001
G01 Y402.0995
G01 X240.3101
G01 Y402.2582
G01 X459.5001
G01 Y402.4170
G01 X240.3101
G01 Y402.5757
G01 X459.5001
G01 Y402.7345
G01 X240.3101
G01 Y402.8932
G01 X459.5001
G01 Y403.0520
G01 X240.3101
G01 Y403.2107
G01 X459.5001
G01 Y403.3695
G01 X240.3101
G01 Y403.5282
G01 X459.5001
G01 Y403.6870
G01 X240.3101
G01 Y403.8457
G01 X459.5001
G01 Y404.0045
G01 X240.3101
G01 Y404.1632
G01 X459.5001
G01 Y404.3220
G01 X240.3101
G01 Y404.4807
G01 X459.5001
G01 Y404.6395
G01 X240.3101
G01 Y404.7982
G01 X459.5001
G01 Y404.9570
G01 X240.3101
G01 Y405.1157
G01 X459.5001
G01 Y405.2745
G01 X240.3101
G01 Y405.4332
G01 X459.5001
G01 Y405.5920
G01 X240.3101
G01 Y405.7507
G01 X459.5001
G01 Y405.9095
G01 X240.3101
G01 Y406.0682
G01 X459.5001
G01 Y406.2270
G01 X240.3101
G01 Y406.3857
G01 X459.5001
G01 Y406.5445
G01 X240.3101
G01 Y406.7032
G01 X459.5001
G01 Y406.8620
G01 X240.3101
G01 Y407.0207
G01 X459.5001
G01 Y407.1795
G01 X240.3101
G01 Y407.3382
G01 X459.5001
G01 Y407.4970
G01 X240.3101
G01 Y407.6557
G01 X459.5001
G01 X459.4994 Y407.8145
G01 X240.3108
G01 X240.3136 Y407.9732
G01 X459.4966
G01 X459.4907 Y408.1320
G01 X240.3196
G01 X240.3287 Y408.2907
G01 X459.4815
G01 X459.4693 Y408.4495
G01 X240.3409
G01 X240.3562 Y408.6082
G01 X459.4541
G01 X459.4358 Y408.7670
G01 X240.3745
G01 X240.3963 Y408.9257
G01 X459.4140
G01 X459.3891 Y409.0845
G01 X240.4212
G01 X240.4491 Y409.2432
G01 X459.3612
G01 X459.3298 Y409.4020
G01 X240.4805
G01 X240.5154 Y409.5607
G01 X459.2949
G01 X459.2568 Y409.7195
G01 X240.5535
G01 X240.5948 Y409.8782
G01 X459.2155
G01 X459.1702 Y410.0370
G01 X240.6401
G01 X240.6888 Y410.1957
G01 X459.1215
G01 X459.0694 Y410.3545
G01 X240.7409
G01 X240.7970 Y410.5132
G01 X459.0133
G01 X458.9535 Y410.6720
G01 X240.8568
G01 X240.9203 Y410.8307
G01 X458.8900
G01 X458.8223 Y410.9895
G01 X240.9880
G01 X241.0598 Y411.1482
G01 X458.7505
G01 X458.6749 Y411.3070
G01 X241.1354
G01 X241.2159 Y411.4657
G01 X458.5944
G01 X458.5098 Y411.6245
G01 X241.3005
G01 X241.3899 Y411.7832
G01 X458.4204
G01 X458.3262 Y411.9420
G01 X241.4840
G01 X241.5831 Y412.1007
G01 X458.2272
G01 X458.1228 Y412.2595
G01 X241.6875
G01 X241.7973 Y412.4182
G01 X458.0130
G01 X457.8975 Y412.5770
G01 X241.9128
G01 X242.0344 Y412.7357
G01 X457.7759
G01 X457.6482 Y412.8945
G01 X242.1621
G01 X242.2970 Y413.0532
G01 X457.5133
G01 X457.3714 Y413.2120
G01 X242.4388
G01 X242.5882 Y413.3707
G01 X457.2221
G01 X457.0639 Y413.5295
G01 X242.7464
G01 X242.9135 Y413.6882
G01 X456.8968
G01 X456.7199 Y413.8470
G01 X243.0904
G01 X243.2782 Y414.0057
G01 X456.5321
G01 X456.3321 Y414.1645
G01 X243.4782
G01 X243.6920 Y414.3232
G01 X456.1183
G01 X455.8889 Y414.4820
G01 X243.9214
G01 X244.1688 Y414.6407
G01 X455.6415
G01 X455.3718 Y414.7995
G01 X244.4385
G01 X244.7340 Y414.9582
G01 X455.0762
G01 X454.7465 Y415.1170
G01 X245.0638
G01 X245.4383 Y415.2757
G01 X454.3720
G01 X453.9317 Y415.4345
G01 X245.8786
G01 X246.4279 Y415.5932
G01 X453.3824
G01 X452.5775 Y415.7520
G01 X247.2327
G01 X247.1537 Y416.0612
G02 X248.4119 Y416.1538 I1.2492 J-8.3761
G01 X451.3983
G02 X459.8176 Y407.7346 I0.0064 J-8.4129
G01 Y126.7481
G02 X451.3984 Y118.3288 I-8.4129 J-0.0064
G01 X248.4119
G02 X239.9926 Y126.7481 I-0.0064 J8.4129
G01 Y407.7345
G02 X247.1537 Y416.0612 I8.4144 J0.0061
G01 X247.2327 Y415.7520
G00 Z10.0000


;No. 5: Hole 14
G00 X483.5753 Y202.8250 Z10.0000
G00 Z0.5000
G01 Z0.0000 F600
G01 Z-1.0000
G01 X484.7540 F1200
G01 X484.8285 Y202.6663
G01 X483.4945
G01 X483.4571 Y202.5075
G01 X484.8613
G01 X484.8603 Y202.3488
G01 X483.4549
G01 X483.4882 Y202.1900
G01 X484.8263
G01 X484.7574 Y202.0313
G01 X483.5656
G01 X483.6957 Y201.8725
G01 X484.6385
G01 X483.7288 Y202.9838
G01 X484.6206
G00 Z10.0000
G00 X484.7479 Y198.0625
G00 Z0.5000
G01 Z0.0000 F600
G01 Z-1.0000
G01 X483.7918 F1200
G01 X483.6538 Y197.9038
G01 X484.9325
G01 X485.1539 Y197.7450
G01 X483.4958
G01 X483.3133 Y197.5863
G01 X485.4129
G01 X485.7375 Y197.4275
G01 X483.0988
G01 X482.8388 Y197.2688
G01 X486.1650
G01 X486.8369 Y197.1100
G01 X482.5088
G01 X482.0322 Y196.9513
G01 X487.6555
G01 X487.8125 Y196.7925
G01 X481.2177
G01 X480.7614 Y196.6338
G01 X487.9786
G01 X487.9500 Y196.4750
G01 X480.8392
G01 X480.9247 Y196.3163
G01 X487.8632
G01 X487.7805 Y196.1575
G01 X481.0116
G01 X481.0954 Y195.9988
G01 X487.7025
G01 X487.6303 Y195.8400
G01 X481.1777
G01 X481.2594 Y195.6813
G01 X487.5651
G01 X487.5093 Y195.5225
G01 X481.3407
G01 X481.4219 Y195.3638
G01 X487.4609
G01 X487.4246 Y195.2050
G01 X481.5029
G01 X481.5838 Y195.0463
G01 X487.3929
G01 X487.3804 Y194.8875
G01 X481.6646
G01 X481.7452 Y194.7288
G01 X487.3748
G01 X487.3692 Y194.5700
G01 X481.8259
G01 X481.9064 Y194.4113
G01 X487.3882
G01 X487.4208 Y194.2525
G01 X481.9869
G01 X482.0673 Y194.0938
G01 X487.4534
G01 X487.4940 Y193.9350
G01 X482.1477
G01 X482.2280 Y193.7763
G01 X487.5631
G01 X487.6475 Y193.6175
G01 X482.3083
G01 X482.3885 Y193.4588
G01 X487.7531
G01 X487.8755 Y193.3000
G01 X482.4687
G01 X482.5488 Y193.1413
G01 X488.0322
G01 X488.2302 Y192.9825
G01 X482.6289
G01 X482.7089 Y192.8238
G01 X488.4865
G01 X488.9432 Y192.6650
G01 X482.7889
G01 X482.8689 Y192.5063
G01 X492.0501
G01 Y192.3475
G01 X482.9488
G01 X483.0286 Y192.1888
G01 X492.0501
G01 Y192.0300
G01 X483.1084
G01 X483.1881 Y191.8713
G01 X492.0501
G01 Y191.7125
G01 X483.2677
G01 X483.3472 Y191.5538
G01 X492.0501
G01 Y191.3950
G01 X483.4266
G01 X483.5059 Y191.2363
G01 X492.0501
G01 Y191.0775
G01 X483.5850
G01 X483.6639 Y190.9188
G01 X492.0501
G01 Y190.7600
G01 X483.7425
G01 X483.8202 Y190.6013
G01 X492.0501
G01 Y190.4425
G01 X483.8878
G01 X483.9404 Y190.2838
G01 X492.0501
G01 Y190.1250
G01 X483.9779
G01 X484.0008 Y189.9663
G01 X492.0501
G01 Y189.8075
G01 X484.0110
G01 X484.0080 Y189.6488
G01 X492.0501
G01 Y189.4900
G01 X483.9907
G01 X483.9605 Y189.3313
G01 X492.0501
G01 Y189.1725
G01 X483.9163
G01 X483.8552 Y189.0138
G01 X492.0501
G01 Y188.8550
G01 X483.7785
G01 X483.6806 Y188.6963
G01 X492.0501
G01 Y188.5375
G01 X483.5608
G01 X483.4096 Y188.3788
G01 X492.0501
G01 Y188.2200
G01 X483.2164
G01 X482.9543 Y188.0613
G01 X492.0501
G01 Y187.9025
G01 X482.6811
G01 X482.4478 Y187.7438
G01 X492.0501
G01 Y187.5850
G01 X482.2432
G01 X482.0611 Y187.4263
G01 X492.0501
G01 Y187.2675
G01 X481.8971
G01 X481.7482 Y187.1088
G01 X492.0501
G01 Y186.9500
G01 X481.6125
G01 X481.4882 Y186.7913
G01 X492.0501
G01 Y186.6325
G01 X481.3742
G01 X481.2694 Y186.4738
G01 X492.0501
G01 Y186.3150
G01 X481.1732
G01 X481.0846 Y186.1563
G01 X492.0501
G01 Y185.9975
G01 X481.0035
G01 X480.9292 Y185.8388
G01 X492.0501
G01 Y185.6800
G01 X480.8613
G01 X480.7997 Y185.5213
G01 X492.0501
G01 Y185.3625
G01 X480.7438
G01 X480.6936 Y185.2038
G01 X492.0501
G01 Y185.0450
G01 X480.6490
G01 X480.6096 Y184.8863
G01 X492.0501
G01 Y184.7275
G01 X480.5753
G01 X480.5460 Y184.5688
G01 X492.0501
G01 Y184.4100
G01 X480.5236
G01 X480.5591 Y184.2513
G01 X492.0501
G01 Y184.0925
G01 X480.6013
G01 X480.6299 Y183.9338
G01 X492.0501
G01 Y183.7750
G01 X480.6451
G01 X480.6459 Y183.6163
G01 X492.0501
G01 Y183.4575
G01 X480.6339
G01 X480.6091 Y183.2988
G01 X492.0501
G01 Y183.1400
G01 X480.5693
G01 X480.5175 Y182.9813
G01 X492.0501
G01 Y182.8225
G01 X480.5218
G01 X480.5461 Y182.6638
G01 X492.0501
G01 Y182.5050
G01 X480.5753
G01 X480.6096 Y182.3463
G01 X492.0501
G01 Y182.1875
G01 X480.6490
G01 X480.6936 Y182.0288
G01 X492.0501
G01 Y181.8700
G01 X480.7438
G01 X480.7996 Y181.7113
G01 X492.0501
G01 Y181.5525
G01 X480.8612
G01 X480.9291 Y181.3938
G01 X492.0501
G01 Y181.2350
G01 X481.0035
G01 X481.0846 Y181.0763
G01 X492.0501
G01 Y180.9175
G01 X481.1731
G01 X481.2693 Y180.7588
G01 X492.0501
G01 Y180.6000
G01 X481.3740
G01 X481.4881 Y180.4413
G01 X492.0501
G01 Y180.2825
G01 X481.6124
G01 X481.7481 Y180.1238
G01 X492.0501
G01 Y179.9650
G01 X481.8970
G01 X482.0610 Y179.8063
G01 X492.0501
G01 Y179.6475
G01 X482.2431
G01 X482.4479 Y179.4888
G01 X492.0501
G01 Y179.3300
G01 X482.6814
G01 X482.9549 Y179.1713
G01 X492.0501
G01 Y179.0125
G01 X483.2164
G01 X483.4092 Y178.8538
G01 X492.0501
G01 Y178.6950
G01 X483.5606
G01 X483.6801 Y178.5363
G01 X492.0501
G01 Y178.3775
G01 X483.7775
G01 X483.8545 Y178.2188
G01 X492.0501
G01 Y178.0600
G01 X483.9153
G01 X483.9593 Y177.9013
G01 X492.0501
G01 Y177.7425
G01 X483.9898
G01 X484.0068 Y177.5838
G01 X492.0501
G01 Y177.4250
G01 X484.0095
G01 X483.9996 Y177.2663
G01 X492.0501
G01 Y177.1075
G01 X483.9768
G01 X483.9385 Y176.9488
G01 X492.0501
G01 Y176.7900
G01 X483.8864
G01 X483.8187 Y176.6313
G01 X492.0501
G01 Y176.4725
G01 X483.7423
G01 X483.6638 Y176.3138
G01 X492.0501
G01 Y176.1550
G01 X483.5849
G01 X483.5058 Y175.9963
G01 X492.0501
G01 Y175.8375
G01 X483.4265
G01 X483.3471 Y175.6788
G01 X492.0501
G01 Y175.5200
G01 X483.2676
G01 X483.1880 Y175.3613
G01 X492.0501
G01 Y175.2025
G01 X483.1083
G01 X483.0286 Y175.0438
G01 X492.0501
G01 Y174.8850
G01 X482.9487
G01 X482.8689 Y174.7263
G01 X492.0501
G01 X488.9609 Y174.5675
G01 X482.7889
G01 X482.7089 Y174.4088
G01 X488.4853
G01 X488.2184 Y174.2500
G01 X482.6289
G01 X482.5488 Y174.0913
G01 X488.0238
G01 X487.8715 Y173.9325
G01 X482.4687
G01 X482.3885 Y173.7738
G01 X487.7500
G01 X487.6463 Y173.6150
G01 X482.3083
G01 X482.2280 Y173.4563
G01 X487.5600
G01 X487.4925 Y173.2975
G01 X482.1477
G01 X482.0673 Y173.1388
G01 X487.4400
G01 X487.4037 Y172.9800
G01 X481.9869
G01 X481.9064 Y172.8213
G01 X487.3812
G01 X487.3709 Y172.6625
G01 X481.8258
G01 X481.7452 Y172.5038
G01 X487.3686
G01 X487.3788 Y172.3450
G01 X481.6645
G01 X481.5837 Y172.1863
G01 X487.4000
G01 X487.4224 Y172.0275
G01 X481.5029
G01 X481.4218 Y171.8688
G01 X487.4648
G01 X487.5117 Y171.7100
G01 X481.3407
G01 X481.2593 Y171.5513
G01 X487.5668
G01 X487.6317 Y171.3925
G01 X481.1776
G01 X481.0954 Y171.2338
G01 X487.7034
G01 X487.7810 Y171.0750
G01 X481.0115
G01 X480.9246 Y170.9163
G01 X487.8636
G01 X487.9505 Y170.7575
G01 X480.8390
G01 X480.7613 Y170.5988
G01 X487.9764
G01 X487.8081 Y170.4400
G01 X481.2205
G01 X482.0341 Y170.2813
G01 X487.6552
G01 X486.8345 Y170.1225
G01 X482.5052
G01 X482.8382 Y169.9638
G01 X486.1654
G01 X485.7350 Y169.8050
G01 X483.0987
G01 X483.3139 Y169.6463
G01 X485.4114
G01 X485.1490 Y169.4875
G01 X483.4960
G01 X483.6533 Y169.3288
G01 X484.9309
G01 X484.7458 Y169.1700
G01 X483.7911
G00 Z10.0000
G00 X483.6957 Y165.3600
G00 Z0.5000
G01 Z0.0000 F600
G01 Z-1.0000
G01 X484.6388 F1200
G01 X484.7577 Y165.2013
G01 X483.5653
G01 X483.4879 Y165.0425
G01 X484.8264
G01 X484.8600 Y164.8838
G01 X483.4548
G01 X483.4571 Y164.7250
G01 X484.8611
G01 X484.8283 Y164.5663
G01 X483.4946
G01 X483.5754 Y164.4075
G01 X484.7546
G01 X484.6201 Y164.2488
G01 X483.7287
G01 X483.5541 Y163.9833
G02 X483.5256 Y165.6490 I0.6352 J0.8439
G03 X483.5107 Y169.0123 I-1.8272 J1.6736
G03 X481.4441 Y170.0823 I-2.3772 J-2.0608
G02 X480.6276 Y170.2539 I0.2233 J3.0911
G02 X480.4718 Y170.7293 I0.1029 J0.2970
G03 X483.5892 Y176.9000 I-259.2977 J134.8728
G03 X482.7090 Y178.9437 I-1.5028 J0.5642
G02 X480.1806 Y183.0067 I2.6740 J4.4822
G03 X480.1996 Y184.3095 I-1.4355 J0.6725
G02 X483.0249 Y188.4730 I5.1719 J-0.4691
G03 X483.4500 Y190.6351 I-0.9359 J1.3069
G03 X480.4346 Y196.5941 I-477.3790 J-237.8308
G02 X480.7034 Y197.0093 I0.3238 J0.0850
G03 X482.0496 Y197.2849 I-40.3976 J200.7445
G03 X484.1692 Y200.1485 I-0.7216 J2.7503
G03 X483.3486 Y201.7912 I-2.7201 J-0.3325
G02 X483.3894 Y203.1016 I0.8193 J0.6303
G01 X483.3821 Y203.0940
G02 X485.1443 Y202.1457 I0.7873 J-0.6486
G01 X485.1490 Y202.1615
G02 X484.7557 Y201.5172 I-1.3530 J0.3836
G03 X485.0944 Y198.1797 I1.7120 J-1.5122
G03 X487.5767 Y197.3564 I2.5086 J3.4093
G01 X487.7201 Y197.3533
G03 X488.4148 Y196.6606 I9.0714 J8.4031
G01 X488.4025 Y196.6741
G01 X488.4155 Y196.6495
G03 X487.6981 Y194.9378 I4.0248 J-2.6929
G03 X489.2090 Y192.9460 I1.6702 J-0.3020
G02 X492.3594 Y192.9630 I1.8591 J-52.6929
G01 X492.3676 Y192.9526
G01 Y174.2764
G02 X489.2815 Y174.2849 I-1.3944 J54.3085
G03 X487.6888 Y172.4130 I0.0944 J-1.6939
G03 X488.1941 Y170.9727 I3.8114 J0.5285
G03 X488.4195 Y170.5762 I33.8107 J18.9601
G03 X487.7250 Y169.8798 I5.4905 J-6.1699
G03 X485.0770 Y169.0389 I-0.1150 J-4.2277
G03 X484.8797 Y165.5668 I1.4211 J-1.8224
G02 X484.3213 Y163.7868 I-0.7332 J-0.7476
G02 X483.5541 Y163.9833 I-0.1314 J1.0830
G01 X483.7287 Y164.2488
G00 Z10.0000


;No. 6: Drill 10
G00 X485.1297 Y171.9282 Z10.0000
G00 Z0.5000
G01 Z-1.0000 F600
G00 Z0.5000
G00 Z-0.5000
G01 Z-1.5000
G00 Z10.0000


;No. 7: Drill 9
G00 X482.9638 Y183.6163 Z10.0000
G00 Z0.5000
G01 Z-1.0000 F600
G00 Z0.5000
G00 Z-0.5000
G01 Z-1.5000
G00 Z10.0000


;No. 8: Drill 8
G00 X485.1296 Y195.3046 Z10.0000
G00 Z0.5000
G01 Z-1.0000 F600
G00 Z0.5000
G00 Z-0.5000
G01 Z-1.5000
G00 Z10.0000


;No. 9: Hole 13
G00 X484.6201 Y331.4988 Z10.0000
G00 Z0.5000
G01 Z0.0000 F600
G01 Z-1.0000
G01 X483.7287 F1200
G01 X483.5754 Y331.6575
G01 X484.7544
G01 X484.8283 Y331.8163
G01 X483.4946
G01 X483.4571 Y331.9750
G01 X484.8611
G01 X484.8600 Y332.1338
G01 X483.4548
G01 X483.4879 Y332.2925
G01 X484.8264
G01 X484.7577 Y332.4513
G01 X483.5653
G01 X483.6957 Y332.6100
G01 X484.6388
G00 Z10.0000
G00 X484.7458 Y336.4200
G00 Z0.5000
G01 Z0.0000 F600
G01 Z-1.0000
G01 X483.7911 F1200
G01 X483.6533 Y336.5788
G01 X484.9309
G01 X485.1490 Y336.7375
G01 X483.4960
G01 X483.3139 Y336.8963
G01 X485.4114
G01 X485.7350 Y337.0550
G01 X483.0987
G01 X482.8382 Y337.2138
G01 X486.1654
G01 X486.8345 Y337.3725
G01 X482.5052
G01 X482.0341 Y337.5313
G01 X487.6552
G01 X487.8081 Y337.6900
G01 X481.2205
G01 X480.7613 Y337.8488
G01 X487.9764
G01 X487.9505 Y338.0075
G01 X480.8390
G01 X480.9246 Y338.1663
G01 X487.8636
G01 X487.7810 Y338.3250
G01 X481.0115
G01 X481.0954 Y338.4838
G01 X487.7034
G01 X487.6317 Y338.6425
G01 X481.1776
G01 X481.2593 Y338.8013
G01 X487.5668
G01 X487.5117 Y338.9600
G01 X481.3407
G01 X481.4218 Y339.1188
G01 X487.4648
G01 X487.4224 Y339.2775
G01 X481.5029
G01 X481.5837 Y339.4363
G01 X487.4000
G01 X487.3788 Y339.5950
G01 X481.6645
G01 X481.7452 Y339.7538
G01 X487.3686
G01 X487.3709 Y339.9125
G01 X481.8258
G01 X481.9064 Y340.0713
G01 X487.3810
G01 X487.4037 Y340.2300
G01 X481.9869
G01 X482.0673 Y340.3888
G01 X487.4400
G01 X487.4925 Y340.5475
G01 X482.1477
G01 X482.2280 Y340.7063
G01 X487.5600
G01 X487.6463 Y340.8650
G01 X482.3083
G01 X482.3885 Y341.0238
G01 X487.7500
G01 X487.8715 Y341.1825
G01 X482.4687
G01 X482.5488 Y341.3413
G01 X488.0238
G01 X488.2184 Y341.5000
G01 X482.6289
G01 X482.7089 Y341.6588
G01 X488.4853
G01 X488.9609 Y341.8175
G01 X482.7889
G01 X482.8689 Y341.9763
G01 X492.0501
G01 Y342.1350
G01 X482.9487
G01 X483.0286 Y342.2938
G01 X492.0501
G01 Y342.4525
G01 X483.1083
G01 X483.1880 Y342.6113
G01 X492.0501
G01 Y342.7700
G01 X483.2676
G01 X483.3471 Y342.9288
G01 X492.0501
G01 Y343.0875
G01 X483.4265
G01 X483.5058 Y343.2463
G01 X492.0501
G01 Y343.4050
G01 X483.5849
G01 X483.6638 Y343.5638
G01 X492.0501
G01 Y343.7225
G01 X483.7423
G01 X483.8187 Y343.8813
G01 X492.0501
G01 Y344.0400
G01 X483.8864
G01 X483.9385 Y344.1988
G01 X492.0501
G01 Y344.3575
G01 X483.9768
G01 X483.9996 Y344.5163
G01 X492.0501
G01 Y344.6750
G01 X484.0095
G01 X484.0068 Y344.8338
G01 X492.0501
G01 Y344.9925
G01 X483.9898
G01 X483.9593 Y345.1513
G01 X492.0501
G01 Y345.3100
G01 X483.9153
G01 X483.8545 Y345.4688
G01 X492.0501
G01 Y345.6275
G01 X483.7775
G01 X483.6801 Y345.7863
G01 X492.0501
G01 Y345.9450
G01 X483.5606
G01 X483.4092 Y346.1038
G01 X492.0501
G01 Y346.2625
G01 X483.2164
G01 X482.9549 Y346.4213
G01 X492.0501
G01 Y346.5800
G01 X482.6814
G01 X482.4479 Y346.7388
G01 X492.0501
G01 Y346.8975
G01 X482.2431
G01 X482.0610 Y347.0563
G01 X492.0501
G01 Y347.2150
G01 X481.8970
G01 X481.7481 Y347.3738
G01 X492.0501
G01 Y347.5325
G01 X481.6124
G01 X481.4881 Y347.6913
G01 X492.0501
G01 Y347.8500
G01 X481.3740
G01 X481.2693 Y348.0088
G01 X492.0501
G01 Y348.1675
G01 X481.1731
G01 X481.0846 Y348.3263
G01 X492.0501
G01 Y348.4850
G01 X481.0035
G01 X480.9291 Y348.6438
G01 X492.0501
G01 Y348.8025
G01 X480.8612
G01 X480.7996 Y348.9613
G01 X492.0501
G01 Y349.1200
G01 X480.7438
G01 X480.6936 Y349.2788
G01 X492.0501
G01 Y349.4375
G01 X480.6490
G01 X480.6096 Y349.5963
G01 X492.0501
G01 Y349.7550
G01 X480.5753
G01 X480.5461 Y349.9138
G01 X492.0501
G01 Y350.0725
G01 X480.5218
G01 X480.5175 Y350.2313
G01 X492.0501
G01 Y350.3900
G01 X480.5693
G01 X480.6091 Y350.5488
G01 X492.0501
G01 Y350.7075
G01 X480.6339
G01 X480.6459 Y350.8663
G01 X492.0501
G01 Y351.0250
G01 X480.6451
G01 X480.6299 Y351.1838
G01 X492.0501
G01 Y351.3425
G01 X480.6013
G01 X480.5591 Y351.5013
G01 X492.0501
G01 Y351.6600
G01 X480.5236
G01 X480.5460 Y351.8188
G01 X492.0501
G01 Y351.9775
G01 X480.5753
G01 X480.6096 Y352.1363
G01 X492.0501
G01 Y352.2950
G01 X480.6490
G01 X480.6936 Y352.4538
G01 X492.0501
G01 Y352.6125
G01 X480.7438
G01 X480.7997 Y352.7713
G01 X492.0501
G01 Y352.9300
G01 X480.8613
G01 X480.9292 Y353.0888
G01 X492.0501
G01 Y353.2475
G01 X481.0035
G01 X481.0846 Y353.4063
G01 X492.0501
G01 Y353.5650
G01 X481.1732
G01 X481.2694 Y353.7238
G01 X492.0501
G01 Y353.8825
G01 X481.3742
G01 X481.4882 Y354.0413
G01 X492.0501
G01 Y354.2000
G01 X481.6125
G01 X481.7482 Y354.3588
G01 X492.0501
G01 Y354.5175
G01 X481.8971
G01 X482.0611 Y354.6763
G01 X492.0501
G01 Y354.8350
G01 X482.2432
G01 X482.4478 Y354.9938
G01 X492.0501
G01 Y355.1525
G01 X482.6811
G01 X482.9543 Y355.3113
G01 X492.0501
G01 Y355.4700
G01 X483.2164
G01 X483.4096 Y355.6288
G01 X492.0501
G01 Y355.7875
G01 X483.5608
G01 X483.6806 Y355.9463
G01 X492.0501
G01 Y356.1050
G01 X483.7785
G01 X483.8552 Y356.2638
G01 X492.0501
G01 Y356.4225
G01 X483.9163
G01 X483.9605 Y356.5813
G01 X492.0501
G01 Y356.7400
G01 X483.9907
G01 X484.0080 Y356.8988
G01 X492.0501
G01 Y357.0575
G01 X484.0110
G01 X484.0008 Y357.2163
G01 X492.0501
G01 Y357.3750
G01 X483.9779
G01 X483.9404 Y357.5338
G01 X492.0501
G01 Y357.6925
G01 X483.8878
G01 X483.8202 Y357.8513
G01 X492.0501
G01 Y358.0100
G01 X483.7425
G01 X483.6639 Y358.1688
G01 X492.0501
G01 Y358.3275
G01 X483.5850
G01 X483.5059 Y358.4863
G01 X492.0501
G01 Y358.6450
G01 X483.4266
G01 X483.3472 Y358.8038
G01 X492.0501
G01 Y358.9625
G01 X483.2677
G01 X483.1881 Y359.1213
G01 X492.0501
G01 Y359.2800
G01 X483.1084
G01 X483.0286 Y359.4388
G01 X492.0501
G01 Y359.5975
G01 X482.9488
G01 X482.8689 Y359.7563
G01 X492.0501
G01 X488.9432 Y359.9150
G01 X482.7889
G01 X482.7089 Y360.0738
G01 X488.4865
G01 X488.2302 Y360.2325
G01 X482.6289
G01 X482.5488 Y360.3913
G01 X488.0322
G01 X487.8755 Y360.5500
G01 X482.4687
G01 X482.3885 Y360.7088
G01 X487.7531
G01 X487.6475 Y360.8675
G01 X482.3083
G01 X482.2280 Y361.0263
G01 X487.5631
G01 X487.4940 Y361.1850
G01 X482.1477
G01 X482.0673 Y361.3438
G01 X487.4534
G01 X487.4208 Y361.5025
G01 X481.9869
G01 X481.9064 Y361.6613
G01 X487.3882
G01 X487.3692 Y361.8200
G01 X481.8259
G01 X481.7452 Y361.9788
G01 X487.3748
G01 X487.3804 Y362.1375
G01 X481.6646
G01 X481.5838 Y362.2963
G01 X487.3929
G01 X487.4246 Y362.4550
G01 X481.5029
G01 X481.4219 Y362.6138
G01 X487.4609
G01 X487.5093 Y362.7725
G01 X481.3407
G01 X481.2594 Y362.9313
G01 X487.5651
G01 X487.6303 Y363.0900
G01 X481.1777
G01 X481.0954 Y363.2488
G01 X487.7025
G01 X487.7805 Y363.4075
G01 X481.0116
G01 X480.9247 Y363.5663
G01 X487.8632
G01 X487.9500 Y363.7250
G01 X480.8392
G01 X480.7614 Y363.8838
G01 X487.9786
G01 X487.8125 Y364.0425
G01 X481.2177
G01 X482.0322 Y364.2013
G01 X487.6555
G01 X486.8369 Y364.3600
G01 X482.5088
G01 X482.8388 Y364.5188
G01 X486.1650
G01 X485.7375 Y364.6775
G01 X483.0988
G01 X483.3133 Y364.8363
G01 X485.4129
G01 X485.1539 Y364.9950
G01 X483.4958
G01 X483.6538 Y365.1538
G01 X484.9325
G01 X484.7479 Y365.3125
G01 X483.7918
G00 Z10.0000
G00 X483.6957 Y369.1225
G00 Z0.5000
G01 Z0.0000 F600
G01 Z-1.0000
G01 X484.6385 F1200
G01 X484.7574 Y369.2813
G01 X483.5656
G01 X483.4882 Y369.4400
G01 X484.8263
G01 X484.8603 Y369.5988
G01 X483.4549
G01 X483.4571 Y369.7575
G01 X484.8613
G01 X484.8285 Y369.9163
G01 X483.4945
G01 X483.5753 Y370.0750
G01 X484.7540
G01 X484.6206 Y370.2338
G01 X483.7288
G01 X483.5422 Y370.4907
G02 X485.0829 Y369.2219 I0.6328 J-0.8014
G02 X484.6734 Y368.6621 I-1.9831 J1.0206
G03 X485.0944 Y365.4297 I1.7987 J-1.4093
G03 X487.5767 Y364.6064 I2.5086 J3.4093
G01 X487.7201 Y364.6033
G03 X488.4148 Y363.9106 I9.0714 J8.4031
G01 X488.4025 Y363.9241
G01 X488.4155 Y363.8995
G03 X487.6981 Y362.1878 I4.0248 J-2.6929
G03 X489.2090 Y360.1960 I1.6702 J-0.3020
G02 X492.3594 Y360.2130 I1.8591 J-52.6929
G01 X492.3676 Y360.2027
G01 Y341.5265
G02 X489.2815 Y341.5349 I-1.3944 J54.3085
G03 X487.6888 Y339.6630 I0.0944 J-1.6939
G03 X488.1941 Y338.2227 I3.8114 J0.5285
G03 X488.4195 Y337.8262 I21.9701 J12.2283
G03 X487.7284 Y337.1337 I5.5031 J-6.1835
G03 X485.0770 Y336.2889 I-0.1016 J-4.2640
G03 X484.1885 Y334.3826 I1.4564 J-1.8391
G01 X484.1878 Y334.4122
G03 X484.9337 Y332.7526 I2.5087 J0.1300
G02 X484.1054 Y331.0310 I-0.7734 J-0.6879
G02 X483.4520 Y332.8136 I0.0631 J1.0342
G03 X483.5107 Y336.2623 I-1.7639 J1.7549
G03 X481.4441 Y337.3323 I-2.3772 J-2.0608
G02 X480.6276 Y337.5039 I0.2233 J3.0911
G02 X480.5834 Y337.5292 I0.1376 J0.2909
G01 X480.5947 Y337.5209
G02 X480.4718 Y337.9793 I0.1263 J0.2796
G03 X483.5892 Y344.1500 I-259.2977 J134.8728
G03 X482.7090 Y346.1937 I-1.5028 J0.5642
G02 X480.1806 Y350.2567 I2.6740 J4.4822
G03 X480.1996 Y351.5595 I-1.4355 J0.6725
G02 X483.0249 Y355.7230 I5.1719 J-0.4691
G03 X483.4500 Y357.8852 I-0.9359 J1.3069
G03 X480.4346 Y363.8441 I-477.3790 J-237.8308
G02 X480.7034 Y364.2593 I0.3174 J0.0891
G03 X482.0496 Y364.5349 I-40.3976 J200.7445
G03 X484.1692 Y367.3985 I-0.7216 J2.7503
G03 X483.3486 Y369.0412 I-2.7201 J-0.3325
G02 X483.5422 Y370.4907 I0.8139 J0.6289
G01 X483.7288 Y370.2338
G00 Z10.0000


;No. 10: Drill 7
G00 X485.1331 Y339.1791 Z10.0000
G00 Z0.5000
G01 Z-1.0000 F600
G00 Z0.5000
G00 Z-0.5000
G01 Z-1.5000
G00 Z10.0000


;No. 11: Drill 6
G00 X482.9604 Y350.8655 Z10.0000
G00 Z0.5000
G01 Z-1.0000 F600
G00 Z0.5000
G00 Z-0.5000
G01 Z-1.5000
G00 Z10.0000


;No. 12: Drill 5
G00 X485.1294 Y362.5546 Z10.0000
G00 Z0.5000
G01 Z-1.0000 F600
G00 Z0.5000
G00 Z-0.5000
G01 Z-1.5000
G00 Z10.0000


;No. 13: Hole 11
G00 X216.1501 Y384.3977 Z10.0000
G00 Z0.5000
G01 Z0.0000 F600
G01 Z-1.0000
G01 X211.5601 F1200
G01 Y384.5564
G01 X216.1501
G01 Y384.7152
G01 X211.5601
G01 Y384.8739
G01 X216.1501
G01 Y385.0327
G01 X211.5601
G01 Y385.1914
G01 X216.1501
G01 Y385.3502
G01 X211.5601
G01 Y385.5089
G01 X216.1501
G01 Y385.6677
G01 X211.5601
G01 Y385.8264
G01 X216.1501
G01 Y385.9852
G01 X211.5601
G01 Y386.1439
G01 X216.1501
G01 Y386.3027
G01 X211.5601
G01 Y386.4614
G01 X216.1501
G01 Y386.6202
G01 X211.5601
G01 Y386.7789
G01 X216.1501
G01 Y386.9377
G01 X211.5601
G01 Y387.0964
G01 X216.1501
G01 Y387.2552
G01 X211.5601
G01 Y387.4139
G01 X216.1501
G01 Y387.5727
G01 X211.5601
G01 Y387.7314
G01 X216.1501
G01 Y387.8902
G01 X211.5601
G01 Y388.0489
G01 X216.1501
G01 Y388.2077
G01 X211.5601
G01 Y388.3664
G01 X216.1501
G01 Y388.5252
G01 X211.5601
G01 Y388.6839
G01 X216.1501
G01 Y388.8427
G01 X211.5601
G01 Y389.0014
G01 X216.1501
G01 Y389.1602
G01 X211.5601
G01 Y389.3189
G01 X216.1501
G01 Y389.4777
G01 X211.5601
G01 Y389.6364
G01 X216.1501
G01 Y389.7952
G01 X211.5601
G01 Y389.9539
G01 X216.1501
G01 Y390.1127
G01 X211.5601
G01 Y390.2714
G01 X216.1501
G01 Y390.4302
G01 X211.5601
G01 Y390.5889
G01 X216.1501
G01 Y390.7477
G01 X211.5601
G01 Y390.9064
G01 X216.1501
G01 Y391.0652
G01 X211.5601
G01 Y391.2239
G01 X216.1501
G01 Y391.3827
G01 X211.5601
G01 Y391.5414
G01 X216.1501
G01 Y391.7002
G01 X211.5601
G01 Y391.8589
G01 X216.1501
G01 Y392.0177
G01 X211.5601
G01 Y392.1764
G01 X216.1501
G01 Y392.3352
G01 X211.5601
G01 Y392.4939
G01 X216.1501
G01 Y392.6527
G01 X211.5601
G01 Y392.8114
G01 X216.1501
G01 Y392.9702
G01 X211.5601
G01 Y393.1289
G01 X216.1501
G01 Y393.2877
G01 X211.5601
G01 Y393.4464
G01 X216.1501
G01 Y393.6052
G01 X211.5601
G01 Y393.7639
G01 X216.1501
G01 Y393.9227
G01 X211.5601
G01 Y394.0814
G01 X216.1501
G01 Y394.2402
G01 X211.5601
G01 Y394.3989
G01 X216.1501
G01 Y394.5577
G01 X211.5601
G01 Y394.7164
G01 X216.1501
G01 Y394.8752
G01 X211.5601
G01 Y395.0339
G01 X216.1501
G01 Y395.1927
G01 X211.5601
G01 Y395.3514
G01 X216.1501
G01 Y395.5102
G01 X211.5601
G01 Y395.6689
G01 X216.1501
G01 Y395.8277
G01 X211.5601
G01 Y395.9864
G01 X216.1501
G01 Y396.1452
G01 X211.5601
G01 Y396.3039
G01 X216.1501
G01 Y396.4627
G01 X211.5601
G01 Y396.6214
G01 X216.1501
G01 Y396.7802
G01 X211.5601
G01 Y396.9389
G01 X216.1501
G01 Y397.0977
G01 X211.5601
G01 Y397.2564
G01 X216.1501
G01 Y397.4152
G01 X211.5601
G01 Y397.5739
G01 X216.1501
G01 Y397.7327
G01 X211.5601
G01 Y397.8914
G01 X216.1501
G01 Y398.0502
G01 X211.5601
G01 Y398.2089
G01 X216.1501
G01 Y398.3677
G01 X211.5601
G01 Y398.5264
G01 X216.1501
G01 Y398.6852
G01 X211.5601
G01 Y398.8439
G01 X216.1501
G01 Y399.0027
G01 X211.5601
G01 Y399.1614
G01 X216.1501
G01 Y399.3202
G01 X211.5601
G01 Y399.4789
G01 X216.1501
G01 Y399.6377
G01 X211.5601
G01 Y399.7964
G01 X216.1501
G01 Y399.9552
G01 X211.5601
G01 Y400.1139
G01 X216.1501
G01 Y400.2727
G01 X211.5601
G01 Y400.4314
G01 X216.1501
G01 Y400.5902
G01 X211.5601
G01 Y400.7489
G01 X216.1501
G01 Y400.9077
G01 X211.5601
G01 Y401.0664
G01 X216.1501
G01 Y401.2252
G01 X211.5601
G01 Y401.3839
G01 X216.1501
G01 Y401.5427
G01 X211.5601
G01 Y401.7014
G01 X216.1501
G01 Y401.8602
G01 X211.5601
G01 Y402.0189
G01 X216.1501
G01 Y402.1777
G01 X211.5601
G01 Y402.3364
G01 X216.1501
G01 Y402.4952
G01 X211.5601
G01 Y402.6539
G01 X216.1501
G01 Y402.8127
G01 X211.5601
G01 Y402.9714
G01 X216.1501
G01 Y403.1302
G01 X211.5601
G01 Y403.2889
G01 X216.1501
G01 Y403.4477
G01 X211.5601
G01 Y403.6064
G01 X216.1501
G01 Y403.7652
G01 X211.5601
G01 Y403.9239
G01 X216.1501
G01 Y404.0827
G01 X211.5601
G01 Y404.2414
G01 X216.1501
G01 Y404.4002
G01 X211.5601
G01 Y404.5589
G01 X216.1501
G01 Y404.7177
G01 X211.5601
G01 Y404.8764
G01 X216.1501
G01 Y405.0352
G01 X211.5601
G01 Y405.1939
G01 X216.1501
G01 Y405.3527
G01 X211.5601
G01 Y405.5114
G01 X216.1501
G01 Y405.6702
G01 X211.5601
G01 Y405.8289
G01 X216.1501
G01 Y405.9877
G01 X211.5601
G01 Y406.1464
G01 X216.1501
G01 Y406.3052
G01 X211.5601
G01 Y406.4639
G01 X216.1501
G01 Y406.6227
G01 X211.5601
G01 Y406.7814
G01 X216.1501
G01 Y406.9402
G01 X211.5601
G01 Y407.0989
G01 X216.1501
G01 Y407.2577
G01 X211.5601
G01 Y407.4164
G01 X216.1501
G01 Y407.5752
G01 X211.5601
G01 Y407.7339
G01 X216.1501
G01 Y407.8927
G01 X211.5601
G01 Y408.0514
G01 X216.1501
G01 Y408.2102
G01 X211.5601
G01 X211.2426 Y408.1082
G01 Y408.6414
G01 X210.7777 Y409.1064
G01 X211.2426 Y408.6414
G01 X216.4676
G01 X216.9326 Y409.1064
G01 X216.4676 Y408.6414
G01 Y383.9664
G01 X216.9326 Y383.5015
G01 X216.4676 Y383.9664
G01 X211.2426
G01 X210.7777 Y383.5015
G01 X211.2426 Y383.9664
G01 Y408.1082
G01 X211.5601 Y408.2102
G00 Z10.0000


;No. 14: Drill 2
G00 X213.8554 Y387.5290 Z10.0000
G00 Z0.5000
G01 Z-1.0000 F600
G00 Z0.5000
G00 Z-0.5000
G01 Z-1.5000
G00 Z10.0000


;No. 15: Drill 1
G00 X213.8560 Y405.0755 Z10.0000
G00 Z0.5000
G01 Z-1.0000 F600
G00 Z0.5000
G00 Z-0.5000
G01 Z-1.5000
G00 Z10.0000


;No. 16: Hole 10
G00 X169.4733 Y553.3421 Z10.0000
G00 Z0.5000
G01 Z0.0000 F600
G01 Z-1.0000
G01 Y555.6671 F1200
G01 X169.0084 Y556.1321
G01 X169.4733 Y555.6671
G01 X199.2983 Y555.6672
G01 X199.7633 Y556.1322
G01 X199.2983 Y555.6672
G01 Y553.3422
G01 X199.7633 Y552.8772
G01 X199.2983 Y553.3422
G01 X169.4733 Y553.3421
G01 X169.0084 Y552.8772
G01 X169.4733 Y553.3421
G01 Z-2.0000 F600
G01 Y555.6671 F1200
G01 X169.0084 Y556.1321
G01 X169.4733 Y555.6671
G01 X199.2983 Y555.6672
G01 X199.7633 Y556.1322
G01 X199.2983 Y555.6672
G01 Y553.3422
G01 X199.7633 Y552.8772
G01 X199.2983 Y553.3422
G01 X169.4733 Y553.3421
G01 X169.0084 Y552.8772
G01 X169.4733 Y553.3421
G01 Z-3.0000 F600
G01 Y555.6671 F1200
G01 X169.0084 Y556.1321
G01 X169.4733 Y555.6671
G01 X199.2983 Y555.6672
G01 X199.7633 Y556.1322
G01 X199.2983 Y555.6672
G01 Y553.3422
G01 X199.7633 Y552.8772
G01 X199.2983 Y553.3422
G01 X169.4733 Y553.3421
G01 X169.0084 Y552.8772
G01 X169.4733 Y553.3421
G01 Z-4.0000 F600
G01 Y555.6671 F1200
G01 X169.0084 Y556.1321
G01 X169.4733 Y555.6671
G01 X199.2983 Y555.6672
G01 X199.7633 Y556.1322
G01 X199.2983 Y555.6672
G01 Y553.3422
G01 X199.7633 Y552.8772
G01 X199.2983 Y553.3422
G01 X169.4733 Y553.3421
G01 X169.0084 Y552.8772
G01 X169.4733 Y553.3421
G01 Z-5.0000 F600
G01 Y555.6671 F1200
G01 X169.0084 Y556.1321
G01 X169.4733 Y555.6671
G01 X199.2983 Y555.6672
G01 X199.7633 Y556.1322
G01 X199.2983 Y555.6672
G01 Y553.3422
G01 X199.7633 Y552.8772
G01 X199.2983 Y553.3422
G01 X169.4733 Y553.3421
G01 X169.0084 Y552.8772
G01 X169.4733 Y553.3421
G01 Z-6.0000 F600
G01 Y555.6671 F1200
G01 X169.0084 Y556.1321
G01 X169.4733 Y555.6671
G01 X199.2983 Y555.6672
G01 X199.7633 Y556.1322
G01 X199.2983 Y555.6672
G01 Y553.3422
G01 X199.7633 Y552.8772
G01 X199.2983 Y553.3422
G01 X169.4733 Y553.3421
G01 X169.0084 Y552.8772
G01 X169.4733 Y553.3421
G00 Z10.0000


;No. 17: Hole 8
G00 X169.4732 Y602.4255 Z10.0000
G00 Z0.5000
G01 Z0.0000 F600
G01 Z-1.0000
G01 Y604.7505 F1200
G01 X169.0083 Y605.2154
G01 X169.4732 Y604.7505
G01 X199.2982
G01 X199.7632 Y605.2155
G01 X199.2982 Y604.7505
G01 Y602.4255
G01 X199.7632 Y601.9606
G01 X199.2982 Y602.4255
G01 X169.4732
G01 X169.0083 Y601.9605
G01 X169.4732 Y602.4255
G01 Z-2.0000 F600
G01 Y604.7505 F1200
G01 X169.0083 Y605.2154
G01 X169.4732 Y604.7505
G01 X199.2982
G01 X199.7632 Y605.2155
G01 X199.2982 Y604.7505
G01 Y602.4255
G01 X199.7632 Y601.9606
G01 X199.2982 Y602.4255
G01 X169.4732
G01 X169.0083 Y601.9605
G01 X169.4732 Y602.4255
G01 Z-3.0000 F600
G01 Y604.7505 F1200
G01 X169.0083 Y605.2154
G01 X169.4732 Y604.7505
G01 X199.2982
G01 X199.7632 Y605.2155
G01 X199.2982 Y604.7505
G01 Y602.4255
G01 X199.7632 Y601.9606
G01 X199.2982 Y602.4255
G01 X169.4732
G01 X169.0083 Y601.9605
G01 X169.4732 Y602.4255
G01 Z-4.0000 F600
G01 Y604.7505 F1200
G01 X169.0083 Y605.2154
G01 X169.4732 Y604.7505
G01 X199.2982
G01 X199.7632 Y605.2155
G01 X199.2982 Y604.7505
G01 Y602.4255
G01 X199.7632 Y601.9606
G01 X199.2982 Y602.4255
G01 X169.4732
G01 X169.0083 Y601.9605
G01 X169.4732 Y602.4255
G01 Z-5.0000 F600
G01 Y604.7505 F1200
G01 X169.0083 Y605.2154
G01 X169.4732 Y604.7505
G01 X199.2982
G01 X199.7632 Y605.2155
G01 X199.2982 Y604.7505
G01 Y602.4255
G01 X199.7632 Y601.9606
G01 X199.2982 Y602.4255
G01 X169.4732
G01 X169.0083 Y601.9605
G01 X169.4732 Y602.4255
G01 Z-6.0000 F600
G01 Y604.7505 F1200
G01 X169.0083 Y605.2154
G01 X169.4732 Y604.7505
G01 X199.2982
G01 X199.7632 Y605.2155
G01 X199.2982 Y604.7505
G01 Y602.4255
G01 X199.7632 Y601.9606
G01 X199.2982 Y602.4255
G01 X169.4732
G01 X169.0083 Y601.9605
G01 X169.4732 Y602.4255
G00 Z10.0000


;No. 18: Hole 6
G00 X169.4731 Y651.5088 Z10.0000
G00 Z0.5000
G01 Z0.0000 F600
G01 Z-1.0000
G01 Y653.8338 F1200
G01 X169.0082 Y654.2988
G01 X169.4731 Y653.8338
G01 X199.2981 Y653.8339
G01 X199.7631 Y654.2988
G01 X199.2981 Y653.8339
G01 Y651.5089
G01 X199.7631 Y651.0439
G01 X199.2981 Y651.5089
G01 X169.4731 Y651.5088
G01 X169.0082 Y651.0438
G01 X169.4731 Y651.5088
G01 Z-2.0000 F600
G01 Y653.8338 F1200
G01 X169.0082 Y654.2988
G01 X169.4731 Y653.8338
G01 X199.2981 Y653.8339
G01 X199.7631 Y654.2988
G01 X199.2981 Y653.8339
G01 Y651.5089
G01 X199.7631 Y651.0439
G01 X199.2981 Y651.5089
G01 X169.4731 Y651.5088
G01 X169.0082 Y651.0438
G01 X169.4731 Y651.5088
G01 Z-3.0000 F600
G01 Y653.8338 F1200
G01 X169.0082 Y654.2988
G01 X169.4731 Y653.8338
G01 X199.2981 Y653.8339
G01 X199.7631 Y654.2988
G01 X199.2981 Y653.8339
G01 Y651.5089
G01 X199.7631 Y651.0439
G01 X199.2981 Y651.5089
G01 X169.4731 Y651.5088
G01 X169.0082 Y651.0438
G01 X169.4731 Y651.5088
G01 Z-4.0000 F600
G01 Y653.8338 F1200
G01 X169.0082 Y654.2988
G01 X169.4731 Y653.8338
G01 X199.2981 Y653.8339
G01 X199.7631 Y654.2988
G01 X199.2981 Y653.8339
G01 Y651.5089
G01 X199.7631 Y651.0439
G01 X199.2981 Y651.5089
G01 X169.4731 Y651.5088
G01 X169.0082 Y651.0438
G01 X169.4731 Y651.5088
G01 Z-5.0000 F600
G01 Y653.8338 F1200
G01 X169.0082 Y654.2988
G01 X169.4731 Y653.8338
G01 X199.2981 Y653.8339
G01 X199.7631 Y654.2988
G01 X199.2981 Y653.8339
G01 Y651.5089
G01 X199.7631 Y651.0439
G01 X199.2981 Y651.5089
G01 X169.4731 Y651.5088
G01 X169.0082 Y651.0438
G01 X169.4731 Y651.5088
G01 Z-6.0000 F600
G01 Y653.8338 F1200
G01 X169.0082 Y654.2988
G01 X169.4731 Y653.8338
G01 X199.2981 Y653.8339
G01 X199.7631 Y654.2988
G01 X199.2981 Y653.8339
G01 Y651.5089
G01 X199.7631 Y651.0439
G01 X199.2981 Y651.5089
G01 X169.4731 Y651.5088
G01 X169.0082 Y651.0438
G01 X169.4731 Y651.5088
G00 Z10.0000


;No. 19: Hole 4
G00 X169.4730 Y700.5921 Z10.0000
G00 Z0.5000
G01 Z0.0000 F600
G01 Z-1.0000
G01 Y702.9171 F1200
G01 X169.0081 Y703.3821
G01 X169.4730 Y702.9171
G01 X199.2980 Y702.9172
G01 X199.7630 Y703.3822
G01 X199.2980 Y702.9172
G01 Y700.5922
G01 X199.7630 Y700.1272
G01 X199.2980 Y700.5922
G01 X169.4730 Y700.5921
G01 X169.0081 Y700.1272
G01 X169.4730 Y700.5921
G01 Z-2.0000 F600
G01 Y702.9171 F1200
G01 X169.0081 Y703.3821
G01 X169.4730 Y702.9171
G01 X199.2980 Y702.9172
G01 X199.7630 Y703.3822
G01 X199.2980 Y702.9172
G01 Y700.5922
G01 X199.7630 Y700.1272
G01 X199.2980 Y700.5922
G01 X169.4730 Y700.5921
G01 X169.0081 Y700.1272
G01 X169.4730 Y700.5921
G01 Z-3.0000 F600
G01 Y702.9171 F1200
G01 X169.0081 Y703.3821
G01 X169.4730 Y702.9171
G01 X199.2980 Y702.9172
G01 X199.7630 Y703.3822
G01 X199.2980 Y702.9172
G01 Y700.5922
G01 X199.7630 Y700.1272
G01 X199.2980 Y700.5922
G01 X169.4730 Y700.5921
G01 X169.0081 Y700.1272
G01 X169.4730 Y700.5921
G01 Z-4.0000 F600
G01 Y702.9171 F1200
G01 X169.0081 Y703.3821
G01 X169.4730 Y702.9171
G01 X199.2980 Y702.9172
G01 X199.7630 Y703.3822
G01 X199.2980 Y702.9172
G01 Y700.5922
G01 X199.7630 Y700.1272
G01 X199.2980 Y700.5922
G01 X169.4730 Y700.5921
G01 X169.0081 Y700.1272
G01 X169.4730 Y700.5921
G01 Z-5.0000 F600
G01 Y702.9171 F1200
G01 X169.0081 Y703.3821
G01 X169.4730 Y702.9171
G01 X199.2980 Y702.9172
G01 X199.7630 Y703.3822
G01 X199.2980 Y702.9172
G01 Y700.5922
G01 X199.7630 Y700.1272
G01 X199.2980 Y700.5922
G01 X169.4730 Y700.5921
G01 X169.0081 Y700.1272
G01 X169.4730 Y700.5921
G01 Z-6.0000 F600
G01 Y702.9171 F1200
G01 X169.0081 Y703.3821
G01 X169.4730 Y702.9171
G01 X199.2980 Y702.9172
G01 X199.7630 Y703.3822
G01 X199.2980 Y702.9172
G01 Y700.5922
G01 X199.7630 Y700.1272
G01 X199.2980 Y700.5922
G01 X169.4730 Y700.5921
G01 X169.0081 Y700.1272
G01 X169.4730 Y700.5921
G00 Z10.0000


;No. 20: Hole 2
G00 X169.4729 Y749.6755 Z10.0000
G00 Z0.5000
G01 Z0.0000 F600
G01 Z-1.0000
G01 Y752.0005 F1200
G01 X169.0080 Y752.4654
G01 X169.4729 Y752.0005
G01 X199.2979
G01 X199.7629 Y752.4655
G01 X199.2979 Y752.0005
G01 Y749.6755
G01 X199.7629 Y749.2105
G01 X199.2979 Y749.6755
G01 X169.4729
G01 X169.0080 Y749.2105
G01 X169.4729 Y749.6755
G01 Z-2.0000 F600
G01 Y752.0005 F1200
G01 X169.0080 Y752.4654
G01 X169.4729 Y752.0005
G01 X199.2979
G01 X199.7629 Y752.4655
G01 X199.2979 Y752.0005
G01 Y749.6755
G01 X199.7629 Y749.2105
G01 X199.2979 Y749.6755
G01 X169.4729
G01 X169.0080 Y749.2105
G01 X169.4729 Y749.6755
G01 Z-3.0000 F600
G01 Y752.0005 F1200
G01 X169.0080 Y752.4654
G01 X169.4729 Y752.0005
G01 X199.2979
G01 X199.7629 Y752.4655
G01 X199.2979 Y752.0005
G01 Y749.6755
G01 X199.7629 Y749.2105
G01 X199.2979 Y749.6755
G01 X169.4729
G01 X169.0080 Y749.2105
G01 X169.4729 Y749.6755
G01 Z-4.0000 F600
G01 Y752.0005 F1200
G01 X169.0080 Y752.4654
G01 X169.4729 Y752.0005
G01 X199.2979
G01 X199.7629 Y752.4655
G01 X199.2979 Y752.0005
G01 Y749.6755
G01 X199.7629 Y749.2105
G01 X199.2979 Y749.6755
G01 X169.4729
G01 X169.0080 Y749.2105
G01 X169.4729 Y749.6755
G01 Z-5.0000 F600
G01 Y752.0005 F1200
G01 X169.0080 Y752.4654
G01 X169.4729 Y752.0005
G01 X199.2979
G01 X199.7629 Y752.4655
G01 X199.2979 Y752.0005
G01 Y749.6755
G01 X199.7629 Y749.2105
G01 X199.2979 Y749.6755
G01 X169.4729
G01 X169.0080 Y749.2105
G01 X169.4729 Y749.6755
G01 Z-6.0000 F600
G01 Y752.0005 F1200
G01 X169.0080 Y752.4654
G01 X169.4729 Y752.0005
G01 X199.2979
G01 X199.7629 Y752.4655
G01 X199.2979 Y752.0005
G01 Y749.6755
G01 X199.7629 Y749.2105
G01 X199.2979 Y749.6755
G01 X169.4729
G01 X169.0080 Y749.2105
G01 X169.4729 Y749.6755
G00 Z10.0000


;No. 21: Hole 1
G00 X103.5057 Y749.6753 Z10.0000
G00 Z0.5000
G01 Z0.0000 F600
G01 Z-1.0000
G01 Y752.0003 F1200
G01 X103.0407 Y752.4653
G01 X103.5057 Y752.0003
G01 X133.3307 Y752.0004
G01 X133.7956 Y752.4654
G01 X133.3307 Y752.0004
G01 Y749.6754
G01 X133.7956 Y749.2104
G01 X133.3307 Y749.6754
G01 X103.5057 Y749.6753
G01 X103.0407 Y749.2104
G01 X103.5057 Y749.6753
G01 Z-2.0000 F600
G01 Y752.0003 F1200
G01 X103.0407 Y752.4653
G01 X103.5057 Y752.0003
G01 X133.3307 Y752.0004
G01 X133.7956 Y752.4654
G01 X133.3307 Y752.0004
G01 Y749.6754
G01 X133.7956 Y749.2104
G01 X133.3307 Y749.6754
G01 X103.5057 Y749.6753
G01 X103.0407 Y749.2104
G01 X103.5057 Y749.6753
G01 Z-3.0000 F600
G01 Y752.0003 F1200
G01 X103.0407 Y752.4653
G01 X103.5057 Y752.0003
G01 X133.3307 Y752.0004
G01 X133.7956 Y752.4654
G01 X133.3307 Y752.0004
G01 Y749.6754
G01 X133.7956 Y749.2104
G01 X133.3307 Y749.6754
G01 X103.5057 Y749.6753
G01 X103.0407 Y749.2104
G01 X103.5057 Y749.6753
G01 Z-4.0000 F600
G01 Y752.0003 F1200
G01 X103.0407 Y752.4653
G01 X103.5057 Y752.0003
G01 X133.3307 Y752.0004
G01 X133.7956 Y752.4654
G01 X133.3307 Y752.0004
G01 Y749.6754
G01 X133.7956 Y749.2104
G01 X133.3307 Y749.6754
G01 X103.5057 Y749.6753
G01 X103.0407 Y749.2104
G01 X103.5057 Y749.6753
G01 Z-5.0000 F600
G01 Y752.0003 F1200
G01 X103.0407 Y752.4653
G01 X103.5057 Y752.0003
G01 X133.3307 Y752.0004
G01 X133.7956 Y752.4654
G01 X133.3307 Y752.0004
G01 Y749.6754
G01 X133.7956 Y749.2104
G01 X133.3307 Y749.6754
G01 X103.5057 Y749.6753
G01 X103.0407 Y749.2104
G01 X103.5057 Y749.6753
G01 Z-6.0000 F600
G01 Y752.0003 F1200
G01 X103.0407 Y752.4653
G01 X103.5057 Y752.0003
G01 X133.3307 Y752.0004
G01 X133.7956 Y752.4654
G01 X133.3307 Y752.0004
G01 Y749.6754
G01 X133.7956 Y749.2104
G01 X133.3307 Y749.6754
G01 X103.5057 Y749.6753
G01 X103.0407 Y749.2104
G01 X103.5057 Y749.6753
G00 Z10.0000


;No. 22: Hole 3
G00 X103.5058 Y700.5920 Z10.0000
G00 Z0.5000
G01 Z0.0000 F600
G01 Z-1.0000
G01 Y702.9170 F1200
G01 X103.0408 Y703.3820
G01 X103.5058 Y702.9170
G01 X133.3308 Y702.9171
G01 X133.7957 Y703.3820
G01 X133.3308 Y702.9171
G01 Y700.5921
G01 X133.7957 Y700.1271
G01 X133.3308 Y700.5921
G01 X103.5058 Y700.5920
G01 X103.0408 Y700.1270
G01 X103.5058 Y700.5920
G01 Z-2.0000 F600
G01 Y702.9170 F1200
G01 X103.0408 Y703.3820
G01 X103.5058 Y702.9170
G01 X133.3308 Y702.9171
G01 X133.7957 Y703.3820
G01 X133.3308 Y702.9171
G01 Y700.5921
G01 X133.7957 Y700.1271
G01 X133.3308 Y700.5921
G01 X103.5058 Y700.5920
G01 X103.0408 Y700.1270
G01 X103.5058 Y700.5920
G01 Z-3.0000 F600
G01 Y702.9170 F1200
G01 X103.0408 Y703.3820
G01 X103.5058 Y702.9170
G01 X133.3308 Y702.9171
G01 X133.7957 Y703.3820
G01 X133.3308 Y702.9171
G01 Y700.5921
G01 X133.7957 Y700.1271
G01 X133.3308 Y700.5921
G01 X103.5058 Y700.5920
G01 X103.0408 Y700.1270
G01 X103.5058 Y700.5920
G01 Z-4.0000 F600
G01 Y702.9170 F1200
G01 X103.0408 Y703.3820
G01 X103.5058 Y702.9170
G01 X133.3308 Y702.9171
G01 X133.7957 Y703.3820
G01 X133.3308 Y702.9171
G01 Y700.5921
G01 X133.7957 Y700.1271
G01 X133.3308 Y700.5921
G01 X103.5058 Y700.5920
G01 X103.0408 Y700.1270
G01 X103.5058 Y700.5920
G01 Z-5.0000 F600
G01 Y702.9170 F1200
G01 X103.0408 Y703.3820
G01 X103.5058 Y702.9170
G01 X133.3308 Y702.9171
G01 X133.7957 Y703.3820
G01 X133.3308 Y702.9171
G01 Y700.5921
G01 X133.7957 Y700.1271
G01 X133.3308 Y700.5921
G01 X103.5058 Y700.5920
G01 X103.0408 Y700.1270
G01 X103.5058 Y700.5920
G01 Z-6.0000 F600
G01 Y702.9170 F1200
G01 X103.0408 Y703.3820
G01 X103.5058 Y702.9170
G01 X133.3308 Y702.9171
G01 X133.7957 Y703.3820
G01 X133.3308 Y702.9171
G01 Y700.5921
G01 X133.7957 Y700.1271
G01 X133.3308 Y700.5921
G01 X103.5058 Y700.5920
G01 X103.0408 Y700.1270
G01 X103.5058 Y700.5920
G00 Z10.0000


;No. 23: Hole 5
G00 X103.5059 Y651.5087 Z10.0000
G00 Z0.5000
G01 Z0.0000 F600
G01 Z-1.0000
G01 Y653.8337 F1200
G01 X103.0409 Y654.2986
G01 X103.5059 Y653.8337
G01 X133.3309
G01 X133.7958 Y654.2987
G01 X133.3309 Y653.8337
G01 Y651.5087
G01 X133.7958 Y651.0438
G01 X133.3309 Y651.5087
G01 X103.5059
G01 X103.0409 Y651.0437
G01 X103.5059 Y651.5087
G01 Z-2.0000 F600
G01 Y653.8337 F1200
G01 X103.0409 Y654.2986
G01 X103.5059 Y653.8337
G01 X133.3309
G01 X133.7958 Y654.2987
G01 X133.3309 Y653.8337
G01 Y651.5087
G01 X133.7958 Y651.0438
G01 X133.3309 Y651.5087
G01 X103.5059
G01 X103.0409 Y651.0437
G01 X103.5059 Y651.5087
G01 Z-3.0000 F600
G01 Y653.8337 F1200
G01 X103.0409 Y654.2986
G01 X103.5059 Y653.8337
G01 X133.3309
G01 X133.7958 Y654.2987
G01 X133.3309 Y653.8337
G01 Y651.5087
G01 X133.7958 Y651.0438
G01 X133.3309 Y651.5087
G01 X103.5059
G01 X103.0409 Y651.0437
G01 X103.5059 Y651.5087
G01 Z-4.0000 F600
G01 Y653.8337 F1200
G01 X103.0409 Y654.2986
G01 X103.5059 Y653.8337
G01 X133.3309
G01 X133.7958 Y654.2987
G01 X133.3309 Y653.8337
G01 Y651.5087
G01 X133.7958 Y651.0438
G01 X133.3309 Y651.5087
G01 X103.5059
G01 X103.0409 Y651.0437
G01 X103.5059 Y651.5087
G01 Z-5.0000 F600
G01 Y653.8337 F1200
G01 X103.0409 Y654.2986
G01 X103.5059 Y653.8337
G01 X133.3309
G01 X133.7958 Y654.2987
G01 X133.3309 Y653.8337
G01 Y651.5087
G01 X133.7958 Y651.0438
G01 X133.3309 Y651.5087
G01 X103.5059
G01 X103.0409 Y651.0437
G01 X103.5059 Y651.5087
G01 Z-6.0000 F600
G01 Y653.8337 F1200
G01 X103.0409 Y654.2986
G01 X103.5059 Y653.8337
G01 X133.3309
G01 X133.7958 Y654.2987
G01 X133.3309 Y653.8337
G01 Y651.5087
G01 X133.7958 Y651.0438
G01 X133.3309 Y651.5087
G01 X103.5059
G01 X103.0409 Y651.0437
G01 X103.5059 Y651.5087
G00 Z10.0000


;No. 24: Hole 7
G00 X103.5060 Y602.4253 Z10.0000
G00 Z0.5000
G01 Z0.0000 F600
G01 Z-1.0000
G01 Y604.7503 F1200
G01 X103.0410 Y605.2153
G01 X103.5060 Y604.7503
G01 X133.3310 Y604.7504
G01 X133.7959 Y605.2154
G01 X133.3310 Y604.7504
G01 Y602.4254
G01 X133.7959 Y601.9604
G01 X133.3310 Y602.4254
G01 X103.5060 Y602.4253
G01 X103.0410 Y601.9604
G01 X103.5060 Y602.4253
G01 Z-2.0000 F600
G01 Y604.7503 F1200
G01 X103.0410 Y605.2153
G01 X103.5060 Y604.7503
G01 X133.3310 Y604.7504
G01 X133.7959 Y605.2154
G01 X133.3310 Y604.7504
G01 Y602.4254
G01 X133.7959 Y601.9604
G01 X133.3310 Y602.4254
G01 X103.5060 Y602.4253
G01 X103.0410 Y601.9604
G01 X103.5060 Y602.4253
G01 Z-3.0000 F600
G01 Y604.7503 F1200
G01 X103.0410 Y605.2153
G01 X103.5060 Y604.7503
G01 X133.3310 Y604.7504
G01 X133.7959 Y605.2154
G01 X133.3310 Y604.7504
G01 Y602.4254
G01 X133.7959 Y601.9604
G01 X133.3310 Y602.4254
G01 X103.5060 Y602.4253
G01 X103.0410 Y601.9604
G01 X103.5060 Y602.4253
G01 Z-4.0000 F600
G01 Y604.7503 F1200
G01 X103.0410 Y605.2153
G01 X103.5060 Y604.7503
G01 X133.3310 Y604.7504
G01 X133.7959 Y605.2154
G01 X133.3310 Y604.7504
G01 Y602.4254
G01 X133.7959 Y601.9604
G01 X133.3310 Y602.4254
G01 X103.5060 Y602.4253
G01 X103.0410 Y601.9604
G01 X103.5060 Y602.4253
G01 Z-5.0000 F600
G01 Y604.7503 F1200
G01 X103.0410 Y605.2153
G01 X103.5060 Y604.7503
G01 X133.3310 Y604.7504
G01 X133.7959 Y605.2154
G01 X133.3310 Y604.7504
G01 Y602.4254
G01 X133.7959 Y601.9604
G01 X133.3310 Y602.4254
G01 X103.5060 Y602.4253
G01 X103.0410 Y601.9604
G01 X103.5060 Y602.4253
G01 Z-6.0000 F600
G01 Y604.7503 F1200
G01 X103.0410 Y605.2153
G01 X103.5060 Y604.7503
G01 X133.3310 Y604.7504
G01 X133.7959 Y605.2154
G01 X133.3310 Y604.7504
G01 Y602.4254
G01 X133.7959 Y601.9604
G01 X133.3310 Y602.4254
G01 X103.5060 Y602.4253
G01 X103.0410 Y601.9604
G01 X103.5060 Y602.4253
G00 Z10.0000


;No. 25: Hole 9
G00 X103.5061 Y553.3420 Z10.0000
G00 Z0.5000
G01 Z0.0000 F600
G01 Z-1.0000
G01 Y555.6670 F1200
G01 X103.0411 Y556.1320
G01 X103.5061 Y555.6670
G01 X133.3311 Y555.6671
G01 X133.7960 Y556.1320
G01 X133.3311 Y555.6671
G01 Y553.3421
G01 X133.7960 Y552.8771
G01 X133.3311 Y553.3421
G01 X103.5061 Y553.3420
G01 X103.0411 Y552.8770
G01 X103.5061 Y553.3420
G01 Z-2.0000 F600
G01 Y555.6670 F1200
G01 X103.0411 Y556.1320
G01 X103.5061 Y555.6670
G01 X133.3311 Y555.6671
G01 X133.7960 Y556.1320
G01 X133.3311 Y555.6671
G01 Y553.3421
G01 X133.7960 Y552.8771
G01 X133.3311 Y553.3421
G01 X103.5061 Y553.3420
G01 X103.0411 Y552.8770
G01 X103.5061 Y553.3420
G01 Z-3.0000 F600
G01 Y555.6670 F1200
G01 X103.0411 Y556.1320
G01 X103.5061 Y555.6670
G01 X133.3311 Y555.6671
G01 X133.7960 Y556.1320
G01 X133.3311 Y555.6671
G01 Y553.3421
G01 X133.7960 Y552.8771
G01 X133.3311 Y553.3421
G01 X103.5061 Y553.3420
G01 X103.0411 Y552.8770
G01 X103.5061 Y553.3420
G01 Z-4.0000 F600
G01 Y555.6670 F1200
G01 X103.0411 Y556.1320
G01 X103.5061 Y555.6670
G01 X133.3311 Y555.6671
G01 X133.7960 Y556.1320
G01 X133.3311 Y555.6671
G01 Y553.3421
G01 X133.7960 Y552.8771
G01 X133.3311 Y553.3421
G01 X103.5061 Y553.3420
G01 X103.0411 Y552.8770
G01 X103.5061 Y553.3420
G01 Z-5.0000 F600
G01 Y555.6670 F1200
G01 X103.0411 Y556.1320
G01 X103.5061 Y555.6670
G01 X133.3311 Y555.6671
G01 X133.7960 Y556.1320
G01 X133.3311 Y555.6671
G01 Y553.3421
G01 X133.7960 Y552.8771
G01 X133.3311 Y553.3421
