;Project Jukebox Case
;Created by Estlcam version 11 build 11.118
;Machining time about 03:10:08 hours

G90
M03 S24000
G00 X0.0000 Y0.0000 Z0.0000
G00 Z5.0000


;No. 1: Drill 1
G00 X296.0000 Y195.0000
G00 Z0.5000
G01 Z-2.0000 F60 S24000
G00 Z0.5000
G00 Z-1.5000
G01 Z-4.0000
G00 Z5.0000


;No. 2: Drill 2
G00 X296.0000 Y35.0000 Z5.0000
G00 Z0.5000
G01 Z-2.0000 F60
G00 Z0.5000
G00 Z-1.5000
G01 Z-4.0000
G00 Z5.0000


;No. 3: Hole 3
G00 X142.4989 Y48.0000 Z5.0000
G00 Z0.5000
G01 Z-2.0000 F60
G01 X113.0578 F900
G02 X111.0084 Y49.8454 I-0.0525 J2.0024
G01 X111.0000 Y50.0600
G01 Y109.5011
G01 Y120.5011
G01 Y179.9422
G01 X111.0087 Y180.1589
G02 X113.0600 Y182.0000 I1.9972 J-0.1619
G01 X142.5011
G01 X153.5011
G01 X182.9422
G02 X185.0000 Y179.9400 I0.0505 J-2.0073
G01 Y120.4989
G01 Y109.4989
G01 Y50.0578
G02 X182.9400 Y48.0000 I-2.0073 J-0.0505
G01 X153.4989
G01 X142.4989
G01 Z-4.0000 F60
G01 X113.0578 F900
G02 X111.0084 Y49.8454 I-0.0525 J2.0024
G01 X111.0000 Y50.0600
G01 Y109.5011
G01 Y120.5011
G01 Y179.9422
G01 X111.0087 Y180.1589
G02 X113.0600 Y182.0000 I1.9972 J-0.1619
G01 X142.5011
G01 X153.5011
G01 X182.9422
G02 X185.0000 Y179.9400 I0.0505 J-2.0073
G01 Y120.4989
G01 Y109.4989
G01 Y50.0578
G02 X182.9400 Y48.0000 I-2.0073 J-0.0505
G01 X153.4989
G01 X142.4989
G01 Z-6.0000 F60
G01 X113.0578 F900
G02 X111.0084 Y49.8454 I-0.0525 J2.0024
G01 X111.0000 Y50.0600
G01 Y109.5011
G01 Y120.5011
G01 Y179.9422
G01 X111.0087 Y180.1589
G02 X113.0600 Y182.0000 I1.9972 J-0.1619
G01 X142.5011
G01 X153.5011
G01 X182.9422
G02 X185.0000 Y179.9400 I0.0505 J-2.0073
G01 Y120.4989
G01 Y109.4989
G01 Y50.0578
G02 X182.9400 Y48.0000 I-2.0073 J-0.0505
G01 X153.4989
G01 X142.4989
G01 Z-8.0000 F60
G01 X113.0578 F900
G02 X111.0084 Y49.8454 I-0.0525 J2.0024
G01 X111.0000 Y50.0600
G01 Y109.5011
G01 Y120.5011
G01 Y179.9422
G01 X111.0087 Y180.1589
G02 X113.0600 Y182.0000 I1.9972 J-0.1619
G01 X142.5011
G01 X153.5011
G01 X182.9422
G02 X185.0000 Y179.9400 I0.0505 J-2.0073
G01 Y120.4989
G01 Y109.4989
G01 Y50.0578
G02 X182.9400 Y48.0000 I-2.0073 J-0.0505
G01 X153.4989
G01 X142.4989
G01 Z-10.0000 F60
G01 X113.0578 F900
G02 X111.0084 Y49.8454 I-0.0525 J2.0024
G01 X111.0000 Y50.0600
G01 Y109.5011
G01 Y120.5011
G01 Y179.9422
G01 X111.0087 Y180.1589
G02 X113.0600 Y182.0000 I1.9972 J-0.1619
G01 X142.5011
G01 X153.5011
G01 X182.9422
G02 X185.0000 Y179.9400 I0.0505 J-2.0073
G01 Y120.4989
G01 Y109.4989
G01 Y50.0578
G02 X182.9400 Y48.0000 I-2.0073 J-0.0505
G01 X153.4989
G01 X142.4989
G01 Z-12.0000 F60
G01 X113.0578 F900
G02 X111.0084 Y49.8454 I-0.0525 J2.0024
G01 X111.0000 Y50.0600
G01 Y109.5011
G01 Y120.5011
G01 Y179.9422
G01 X111.0087 Y180.1589
G02 X113.0600 Y182.0000 I1.9972 J-0.1619
G01 X142.5011
G01 X153.5011
G01 X182.9422
G02 X185.0000 Y179.9400 I0.0505 J-2.0073
G01 Y120.4989
G01 Y109.4989
G01 Y50.0578
G02 X182.9400 Y48.0000 I-2.0073 J-0.0505
G01 X153.4989
G01 X142.4989
G01 Z-14.0000 F60
G01 X113.0578 F900
G02 X111.0084 Y49.8454 I-0.0525 J2.0024
G01 X111.0000 Y50.0600
G01 Y109.5011
G01 Y120.5011
G01 Y179.9422
G01 X111.0087 Y180.1589
G02 X113.0600 Y182.0000 I1.9972 J-0.1619
G01 X142.5011
G01 X153.5011
G01 X182.9422
G02 X185.0000 Y179.9400 I0.0505 J-2.0073
G01 Y120.4989
G01 Y109.4989
G01 Y50.0578
G02 X182.9400 Y48.0000 I-2.0073 J-0.0505
G01 X153.4989
G01 X142.4989
G01 Z-16.0000 F60
G01 X113.0578 F900
G02 X111.0084 Y49.8454 I-0.0525 J2.0024
G01 X111.0000 Y50.0600
G01 Y109.5011
G01 Y120.5011
G01 Y179.9422
G01 X111.0087 Y180.1589
G02 X113.0600 Y182.0000 I1.9972 J-0.1619
G01 X142.5011
G01 X153.5011
G01 X182.9422
G02 X185.0000 Y179.9400 I0.0505 J-2.0073
G01 Y120.4989
G01 Y109.4989
G01 Y50.0578
G02 X182.9400 Y48.0000 I-2.0073 J-0.0505
G01 X153.4989
G01 X142.4989
G01 Z-18.0000 F60
G01 X113.0578 F900
G02 X111.0084 Y49.8454 I-0.0525 J2.0024
G01 X111.0000 Y50.0600
G01 Y109.5011
G01 Y120.5011
G01 Y179.9422
G01 X111.0087 Y180.1589
G02 X113.0600 Y182.0000 I1.9972 J-0.1619
G01 X142.5011
G01 X153.5011
G01 X182.9422
G02 X185.0000 Y179.9400 I0.0505 J-2.0073
G01 Y120.4989
G01 Y109.4989
G01 Y50.0578
G02 X182.9400 Y48.0000 I-2.0073 J-0.0505
G01 X153.4989
G01 X142.4989
G01 Z-20.0000 F60
G01 X113.0578 F900
G02 X111.0084 Y49.8454 I-0.0525 J2.0024
G01 X111.0000 Y50.0600
G01 Y109.5011
G01 Y120.5011
G01 Y179.9422
G01 X111.0087 Y180.1589
G02 X113.0600 Y182.0000 I1.9972 J-0.1619
G01 X142.5011
G01 X153.5011
G01 X182.9422
G02 X185.0000 Y179.9400 I0.0505 J-2.0073
G01 Y120.4989
G01 Y109.4989
G01 Y50.0578
G02 X182.9400 Y48.0000 I-2.0073 J-0.0505
G01 X153.4989
G01 X142.4989
G01 Z-22.0000 F60
G01 X113.0578 F900
G02 X111.0084 Y49.8454 I-0.0525 J2.0024
G01 X111.0000 Y50.0600
G01 Y109.5011
G01 Y120.5011
G01 Y179.9422
G01 X111.0087 Y180.1589
G02 X113.0600 Y182.0000 I1.9972 J-0.1619
G01 X142.5011
G01 X153.5011
G01 X182.9422
G02 X185.0000 Y179.9400 I0.0505 J-2.0073
G01 Y120.4989
G01 Y109.4989
G01 Y50.0578
G02 X182.9400 Y48.0000 I-2.0073 J-0.0505
G01 X153.4989
G01 X142.4989
G01 Z-24.0000 F60
G01 X113.0578 F900
G02 X111.0084 Y49.8454 I-0.0525 J2.0024
G01 X111.0000 Y50.0600
G01 Y109.5011
G01 Y120.5011
G01 Y179.9422
G01 X111.0087 Y180.1589
G02 X113.0600 Y182.0000 I1.9972 J-0.1619
G01 X142.5011
G01 X153.5011
G01 X182.9422
G02 X185.0000 Y179.9400 I0.0505 J-2.0073
G01 Y120.4989
G01 Y109.4989
G01 Y50.0578
G02 X182.9400 Y48.0000 I-2.0073 J-0.0505
G01 X153.4989
G01 X142.4989
G01 Z-26.0000 F60
G01 X113.0578 F900
G02 X111.0084 Y49.8454 I-0.0525 J2.0024
G01 X111.0000 Y50.0600
G01 Y109.5011
G01 Y120.5011
G01 Y179.9422
G01 X111.0087 Y180.1589
G02 X113.0600 Y182.0000 I1.9972 J-0.1619
G01 X142.5011
G01 X153.5011
G01 X182.9422
G02 X185.0000 Y179.9400 I0.0505 J-2.0073
G01 Y120.4989
G01 Y109.4989
G01 Y50.0578
G02 X182.9400 Y48.0000 I-2.0073 J-0.0505
G01 X153.4989
G01 X142.4989
G01 Z-28.0000 F60
G01 X113.0578 F900
G02 X111.0084 Y49.8454 I-0.0525 J2.0024
G01 X111.0000 Y50.0600
G01 Y109.5011
G01 Y120.5011
G01 Y179.9422
G01 X111.0087 Y180.1589
G02 X113.0600 Y182.0000 I1.9972 J-0.1619
G01 X142.5011
G01 X153.5011
G01 X182.9422
G02 X185.0000 Y179.9400 I0.0505 J-2.0073
G01 Y120.4989
G01 Y109.4989
G01 Y50.0578
G02 X182.9400 Y48.0000 I-2.0073 J-0.0505
G01 X153.4989
G01 X142.4989
G01 Z-30.0000 F60
G01 X113.0578 F900
G02 X111.0084 Y49.8454 I-0.0525 J2.0024
G01 X111.0000 Y50.0600
G01 Y109.5011
G01 Y120.5011
G01 Y179.9422
G01 X111.0087 Y180.1589
G02 X113.0600 Y182.0000 I1.9972 J-0.1619
G01 X142.5011
G01 X153.5011
G01 X182.9422
G02 X185.0000 Y179.9400 I0.0505 J-2.0073
G01 Y120.4989
G01 Y109.4989
G01 Y50.0578
G02 X182.9400 Y48.0000 I-2.0073 J-0.0505
G01 X153.4989
G01 X142.4989
G01 Z-32.0000 F60
G01 X113.0578 F900
G02 X111.0084 Y49.8454 I-0.0525 J2.0024
G01 X111.0000 Y50.0600
G01 Y109.5011
G00 Z-30.0000
G01 Y120.5011
G01 Z-32.0000 F60
G01 Y179.9422 F900
G01 X111.0087 Y180.1589
G02 X113.0600 Y182.0000 I1.9972 J-0.1619
G01 X142.5011
G00 Z-30.0000
G01 X153.5011
G01 Z-32.0000 F60
G01 X182.9422 F900
G02 X185.0000 Y179.9400 I0.0505 J-2.0073
G01 Y120.4989
G00 Z-30.0000
G01 Y109.4989
G01 Z-32.0000 F60
G01 Y50.0578 F900
G02 X182.9400 Y48.0000 I-2.0073 J-0.0505
G01 X153.4989
G00 Z-30.0000
G01 X142.4989
G00 Z-31.5000
G01 Z-34.0000 F60
G01 X113.0578 F900
G02 X111.0084 Y49.8454 I-0.0525 J2.0024
G01 X111.0000 Y50.0600
G01 Y109.5011
G00 Z-30.0000
G01 Y120.5011
G00 Z-31.5000
G01 Z-34.0000 F60
G01 Y179.9422 F900
G01 X111.0087 Y180.1589
G02 X113.0600 Y182.0000 I1.9972 J-0.1619
G01 X142.5011
G00 Z-30.0000
G01 X153.5011
G00 Z-31.5000
G01 Z-34.0000 F60
G01 X182.9422 F900
G02 X185.0000 Y179.9400 I0.0505 J-2.0073
G01 Y120.4989
G00 Z-30.0000
G01 Y109.4989
G00 Z-31.5000
G01 Z-34.0000 F60
G01 Y50.0578 F900
G02 X182.9400 Y48.0000 I-2.0073 J-0.0505
G01 X153.4989
G00 Z-30.0000
G01 X142.4989
G00 Z-33.5000
G01 Z-35.0000 F60
G01 X113.0578 F900
G02 X111.0084 Y49.8454 I-0.0525 J2.0024
G01 X111.0000 Y50.0600
G01 Y109.5011
G00 Z-30.0000
G01 Y120.5011
G00 Z-33.5000
G01 Z-35.0000 F60
G01 Y179.9422 F900
G01 X111.0087 Y180.1589
G02 X113.0600 Y182.0000 I1.9972 J-0.1619
G01 X142.5011
G00 Z-30.0000
G01 X153.5011
G00 Z-33.5000
G01 Z-35.0000 F60
G01 X182.9422 F900
G02 X185.0000 Y179.9400 I0.0505 J-2.0073
G01 Y120.4989
G00 Z-30.0000
G01 Y109.4989
G00 Z-33.5000
G01 Z-35.0000 F60
G01 Y50.0578 F900
G02 X182.9400 Y48.0000 I-2.0073 J-0.0505
G01 X153.4989
G00 Z-30.0000
G01 X142.4989
G00 Z5.0000


;No. 4: Hole 4
G00 X438.4989 Y48.0000 Z5.0000
G00 Z0.5000
G01 Z-2.0000 F60
G01 X409.0578 F900
G02 X407.0084 Y49.8454 I-0.0525 J2.0024
G01 X407.0000 Y50.0600
G01 Y109.5011
G01 Y120.5011
G01 Y179.9422
G01 X407.0087 Y180.1589
G02 X409.0600 Y182.0000 I1.9972 J-0.1619
G01 X438.5011
G01 X449.5011
G01 X478.9422
G02 X481.0000 Y179.9400 I0.0505 J-2.0073
G01 Y120.4989
G01 Y109.4989
G01 Y50.0578
G02 X478.9400 Y48.0000 I-2.0073 J-0.0505
G01 X449.4989
G01 X438.4989
G01 Z-4.0000 F60
G01 X409.0578 F900
G02 X407.0084 Y49.8454 I-0.0525 J2.0024
G01 X407.0000 Y50.0600
G01 Y109.5011
G01 Y120.5011
G01 Y179.9422
G01 X407.0087 Y180.1589
G02 X409.0600 Y182.0000 I1.9972 J-0.1619
G01 X438.5011
G01 X449.5011
G01 X478.9422
G02 X481.0000 Y179.9400 I0.0505 J-2.0073
G01 Y120.4989
G01 Y109.4989
G01 Y50.0578
G02 X478.9400 Y48.0000 I-2.0073 J-0.0505
G01 X449.4989
G01 X438.4989
G01 Z-6.0000 F60
G01 X409.0578 F900
G02 X407.0084 Y49.8454 I-0.0525 J2.0024
G01 X407.0000 Y50.0600
G01 Y109.5011
G01 Y120.5011
G01 Y179.9422
G01 X407.0087 Y180.1589
G02 X409.0600 Y182.0000 I1.9972 J-0.1619
G01 X438.5011
G01 X449.5011
G01 X478.9422
G02 X481.0000 Y179.9400 I0.0505 J-2.0073
G01 Y120.4989
G01 Y109.4989
G01 Y50.0578
G02 X478.9400 Y48.0000 I-2.0073 J-0.0505
G01 X449.4989
G01 X438.4989
G01 Z-8.0000 F60
G01 X409.0578 F900
G02 X407.0084 Y49.8454 I-0.0525 J2.0024
G01 X407.0000 Y50.0600
G01 Y109.5011
G01 Y120.5011
G01 Y179.9422
G01 X407.0087 Y180.1589
G02 X409.0600 Y182.0000 I1.9972 J-0.1619
G01 X438.5011
G01 X449.5011
G01 X478.9422
G02 X481.0000 Y179.9400 I0.0505 J-2.0073
G01 Y120.4989
G01 Y109.4989
G01 Y50.0578
G02 X478.9400 Y48.0000 I-2.0073 J-0.0505
G01 X449.4989
G01 X438.4989
G01 Z-10.0000 F60
G01 X409.0578 F900
G02 X407.0084 Y49.8454 I-0.0525 J2.0024
G01 X407.0000 Y50.0600
G01 Y109.5011
G01 Y120.5011
G01 Y179.9422
G01 X407.0087 Y180.1589
G02 X409.0600 Y182.0000 I1.9972 J-0.1619
G01 X438.5011
G01 X449.5011
G01 X478.9422
G02 X481.0000 Y179.9400 I0.0505 J-2.0073
G01 Y120.4989
G01 Y109.4989
G01 Y50.0578
G02 X478.9400 Y48.0000 I-2.0073 J-0.0505
G01 X449.4989
G01 X438.4989
G01 Z-12.0000 F60
G01 X409.0578 F900
G02 X407.0084 Y49.8454 I-0.0525 J2.0024
G01 X407.0000 Y50.0600
G01 Y109.5011
G01 Y120.5011
G01 Y179.9422
G01 X407.0087 Y180.1589
G02 X409.0600 Y182.0000 I1.9972 J-0.1619
G01 X438.5011
G01 X449.5011
G01 X478.9422
G02 X481.0000 Y179.9400 I0.0505 J-2.0073
G01 Y120.4989
G01 Y109.4989
G01 Y50.0578
G02 X478.9400 Y48.0000 I-2.0073 J-0.0505
G01 X449.4989
G01 X438.4989
G01 Z-14.0000 F60
G01 X409.0578 F900
G02 X407.0084 Y49.8454 I-0.0525 J2.0024
G01 X407.0000 Y50.0600
G01 Y109.5011
G01 Y120.5011
G01 Y179.9422
G01 X407.0087 Y180.1589
G02 X409.0600 Y182.0000 I1.9972 J-0.1619
G01 X438.5011
G01 X449.5011
G01 X478.9422
G02 X481.0000 Y179.9400 I0.0505 J-2.0073
G01 Y120.4989
G01 Y109.4989
G01 Y50.0578
G02 X478.9400 Y48.0000 I-2.0073 J-0.0505
G01 X449.4989
G01 X438.4989
G01 Z-16.0000 F60
G01 X409.0578 F900
G02 X407.0084 Y49.8454 I-0.0525 J2.0024
G01 X407.0000 Y50.0600
G01 Y109.5011
G01 Y120.5011
G01 Y179.9422
G01 X407.0087 Y180.1589
G02 X409.0600 Y182.0000 I1.9972 J-0.1619
G01 X438.5011
G01 X449.5011
G01 X478.9422
G02 X481.0000 Y179.9400 I0.0505 J-2.0073
G01 Y120.4989
G01 Y109.4989
G01 Y50.0578
G02 X478.9400 Y48.0000 I-2.0073 J-0.0505
G01 X449.4989
G01 X438.4989
G01 Z-18.0000 F60
G01 X409.0578 F900
G02 X407.0084 Y49.8454 I-0.0525 J2.0024
G01 X407.0000 Y50.0600
G01 Y109.5011
G01 Y120.5011
G01 Y179.9422
G01 X407.0087 Y180.1589
G02 X409.0600 Y182.0000 I1.9972 J-0.1619
G01 X438.5011
G01 X449.5011
G01 X478.9422
G02 X481.0000 Y179.9400 I0.0505 J-2.0073
G01 Y120.4989
G01 Y109.4989
G01 Y50.0578
G02 X478.9400 Y48.0000 I-2.0073 J-0.0505
G01 X449.4989
G01 X438.4989
G01 Z-20.0000 F60
G01 X409.0578 F900
G02 X407.0084 Y49.8454 I-0.0525 J2.0024
G01 X407.0000 Y50.0600
G01 Y109.5011
G01 Y120.5011
G01 Y179.9422
G01 X407.0087 Y180.1589
G02 X409.0600 Y182.0000 I1.9972 J-0.1619
G01 X438.5011
G01 X449.5011
G01 X478.9422
G02 X481.0000 Y179.9400 I0.0505 J-2.0073
G01 Y120.4989
G01 Y109.4989
G01 Y50.0578
G02 X478.9400 Y48.0000 I-2.0073 J-0.0505
G01 X449.4989
G01 X438.4989
G01 Z-22.0000 F60
G01 X409.0578 F900
G02 X407.0084 Y49.8454 I-0.0525 J2.0024
G01 X407.0000 Y50.0600
G01 Y109.5011
G01 Y120.5011
G01 Y179.9422
G01 X407.0087 Y180.1589
G02 X409.0600 Y182.0000 I1.9972 J-0.1619
G01 X438.5011
G01 X449.5011
G01 X478.9422
G02 X481.0000 Y179.9400 I0.0505 J-2.0073
G01 Y120.4989
G01 Y109.4989
G01 Y50.0578
G02 X478.9400 Y48.0000 I-2.0073 J-0.0505
G01 X449.4989
G01 X438.4989
G01 Z-24.0000 F60
G01 X409.0578 F900
G02 X407.0084 Y49.8454 I-0.0525 J2.0024
G01 X407.0000 Y50.0600
G01 Y109.5011
G01 Y120.5011
G01 Y179.9422
G01 X407.0087 Y180.1589
G02 X409.0600 Y182.0000 I1.9972 J-0.1619
G01 X438.5011
G01 X449.5011
G01 X478.9422
G02 X481.0000 Y179.9400 I0.0505 J-2.0073
G01 Y120.4989
G01 Y109.4989
G01 Y50.0578
G02 X478.9400 Y48.0000 I-2.0073 J-0.0505
G01 X449.4989
G01 X438.4989
G01 Z-26.0000 F60
G01 X409.0578 F900
G02 X407.0084 Y49.8454 I-0.0525 J2.0024
G01 X407.0000 Y50.0600
G01 Y109.5011
G01 Y120.5011
G01 Y179.9422
G01 X407.0087 Y180.1589
G02 X409.0600 Y182.0000 I1.9972 J-0.1619
G01 X438.5011
G01 X449.5011
G01 X478.9422
G02 X481.0000 Y179.9400 I0.0505 J-2.0073
G01 Y120.4989
G01 Y109.4989
G01 Y50.0578
G02 X478.9400 Y48.0000 I-2.0073 J-0.0505
G01 X449.4989
G01 X438.4989
G01 Z-28.0000 F60
G01 X409.0578 F900
G02 X407.0084 Y49.8454 I-0.0525 J2.0024
G01 X407.0000 Y50.0600
G01 Y109.5011
G01 Y120.5011
G01 Y179.9422
G01 X407.0087 Y180.1589
G02 X409.0600 Y182.0000 I1.9972 J-0.1619
G01 X438.5011
G01 X449.5011
G01 X478.9422
G02 X481.0000 Y179.9400 I0.0505 J-2.0073
G01 Y120.4989
G01 Y109.4989
G01 Y50.0578
G02 X478.9400 Y48.0000 I-2.0073 J-0.0505
G01 X449.4989
G01 X438.4989
G01 Z-30.0000 F60
G01 X409.0578 F900
G02 X407.0084 Y49.8454 I-0.0525 J2.0024
G01 X407.0000 Y50.0600
G01 Y109.5011
G01 Y120.5011
G01 Y179.9422
G01 X407.0087 Y180.1589
G02 X409.0600 Y182.0000 I1.9972 J-0.1619
G01 X438.5011
G01 X449.5011
G01 X478.9422
G02 X481.0000 Y179.9400 I0.0505 J-2.0073
G01 Y120.4989
G01 Y109.4989
G01 Y50.0578
G02 X478.9400 Y48.0000 I-2.0073 J-0.0505
G01 X449.4989
G01 X438.4989
G01 Z-32.0000 F60
G01 X409.0578 F900
G02 X407.0084 Y49.8454 I-0.0525 J2.0024
G01 X407.0000 Y50.0600
G01 Y109.5011
G00 Z-30.0000
G01 Y120.5011
G01 Z-32.0000 F60
G01 Y179.9422 F900
G01 X407.0087 Y180.1589
G02 X409.0600 Y182.0000 I1.9972 J-0.1619
G01 X438.5011
G00 Z-30.0000
G01 X449.5011
G01 Z-32.0000 F60
G01 X478.9422 F900
G02 X481.0000 Y179.9400 I0.0505 J-2.0073
G01 Y120.4989
G00 Z-30.0000
G01 Y109.4989
G01 Z-32.0000 F60
G01 Y50.0578 F900
G02 X478.9400 Y48.0000 I-2.0073 J-0.0505
G01 X449.4989
G00 Z-30.0000
G01 X438.4989
G00 Z-31.5000
G01 Z-34.0000 F60
G01 X409.0578 F900
G02 X407.0084 Y49.8454 I-0.0525 J2.0024
G01 X407.0000 Y50.0600
G01 Y109.5011
G00 Z-30.0000
G01 Y120.5011
G00 Z-31.5000
G01 Z-34.0000 F60
G01 Y179.9422 F900
G01 X407.0087 Y180.1589
G02 X409.0600 Y182.0000 I1.9972 J-0.1619
G01 X438.5011
G00 Z-30.0000
G01 X449.5011
G00 Z-31.5000
G01 Z-34.0000 F60
G01 X478.9422 F900
G02 X481.0000 Y179.9400 I0.0505 J-2.0073
G01 Y120.4989
G00 Z-30.0000
G01 Y109.4989
G00 Z-31.5000
G01 Z-34.0000 F60
G01 Y50.0578 F900
G02 X478.9400 Y48.0000 I-2.0073 J-0.0505
G01 X449.4989
G00 Z-30.0000
G01 X438.4989
G00 Z-33.5000
G01 Z-35.0000 F60
G01 X409.0578 F900
G02 X407.0084 Y49.8454 I-0.0525 J2.0024
G01 X407.0000 Y50.0600
G01 Y109.5011
G00 Z-30.0000
G01 Y120.5011
G00 Z-33.5000
G01 Z-35.0000 F60
G01 Y179.9422 F900
G01 X407.0087 Y180.1589
G02 X409.0600 Y182.0000 I1.9972 J-0.1619
G01 X438.5011
G00 Z-30.0000
G01 X449.5011
G00 Z-33.5000
G01 Z-35.0000 F60
G01 X478.9422 F900
G02 X481.0000 Y179.9400 I0.0505 J-2.0073
G01 Y120.4989
G00 Z-30.0000
G01 Y109.4989
G00 Z-33.5000
G01 Z-35.0000 F60
G01 Y50.0578 F900
G02 X478.9400 Y48.0000 I-2.0073 J-0.0505
G01 X449.4989
G00 Z-30.0000
G01 X438.4989
G00 Z5.0000


;No. 5: Hole 5
G00 X290.4989 Y48.0000 Z5.0000
G00 Z0.5000
G01 Z-2.0000 F60
G01 X261.0578 F900
G02 X259.0084 Y49.8454 I-0.0525 J2.0024
G01 X259.0000 Y50.0600
G01 Y109.5011
G01 Y120.5011
G01 Y179.9422
G01 X259.0087 Y180.1589
G02 X261.0600 Y182.0000 I1.9972 J-0.1619
G01 X290.5011
G01 X301.5011
G01 X330.9422
G02 X333.0000 Y179.9400 I0.0505 J-2.0073
G01 Y120.4989
G01 Y109.4989
G01 Y50.0578
G02 X330.9400 Y48.0000 I-2.0073 J-0.0505
G01 X301.4989
G01 X290.4989
G01 Z-4.0000 F60
G01 X261.0578 F900
G02 X259.0084 Y49.8454 I-0.0525 J2.0024
G01 X259.0000 Y50.0600
G01 Y109.5011
G01 Y120.5011
G01 Y179.9422
G01 X259.0087 Y180.1589
G02 X261.0600 Y182.0000 I1.9972 J-0.1619
G01 X290.5011
G01 X301.5011
G01 X330.9422
G02 X333.0000 Y179.9400 I0.0505 J-2.0073
G01 Y120.4989
G01 Y109.4989
G01 Y50.0578
G02 X330.9400 Y48.0000 I-2.0073 J-0.0505
G01 X301.4989
G01 X290.4989
G01 Z-6.0000 F60
G01 X261.0578 F900
G02 X259.0084 Y49.8454 I-0.0525 J2.0024
G01 X259.0000 Y50.0600
G01 Y109.5011
G01 Y120.5011
G01 Y179.9422
G01 X259.0087 Y180.1589
G02 X261.0600 Y182.0000 I1.9972 J-0.1619
G01 X290.5011
G01 X301.5011
G01 X330.9422
G02 X333.0000 Y179.9400 I0.0505 J-2.0073
G01 Y120.4989
G01 Y109.4989
G01 Y50.0578
G02 X330.9400 Y48.0000 I-2.0073 J-0.0505
G01 X301.4989
G01 X290.4989
G01 Z-8.0000 F60
G01 X261.0578 F900
G02 X259.0084 Y49.8454 I-0.0525 J2.0024
G01 X259.0000 Y50.0600
G01 Y109.5011
G01 Y120.5011
G01 Y179.9422
G01 X259.0087 Y180.1589
G02 X261.0600 Y182.0000 I1.9972 J-0.1619
G01 X290.5011
G01 X301.5011
G01 X330.9422
G02 X333.0000 Y179.9400 I0.0505 J-2.0073
G01 Y120.4989
G01 Y109.4989
G01 Y50.0578
G02 X330.9400 Y48.0000 I-2.0073 J-0.0505
G01 X301.4989
G01 X290.4989
G01 Z-10.0000 F60
G01 X261.0578 F900
G02 X259.0084 Y49.8454 I-0.0525 J2.0024
G01 X259.0000 Y50.0600
G01 Y109.5011
G01 Y120.5011
G01 Y179.9422
G01 X259.0087 Y180.1589
G02 X261.0600 Y182.0000 I1.9972 J-0.1619
G01 X290.5011
G01 X301.5011
G01 X330.9422
G02 X333.0000 Y179.9400 I0.0505 J-2.0073
G01 Y120.4989
G01 Y109.4989
G01 Y50.0578
G02 X330.9400 Y48.0000 I-2.0073 J-0.0505
G01 X301.4989
G01 X290.4989
G01 Z-12.0000 F60
G01 X261.0578 F900
G02 X259.0084 Y49.8454 I-0.0525 J2.0024
G01 X259.0000 Y50.0600
G01 Y109.5011
G01 Y120.5011
G01 Y179.9422
G01 X259.0087 Y180.1589
G02 X261.0600 Y182.0000 I1.9972 J-0.1619
G01 X290.5011
G01 X301.5011
G01 X330.9422
G02 X333.0000 Y179.9400 I0.0505 J-2.0073
G01 Y120.4989
G01 Y109.4989
G01 Y50.0578
G02 X330.9400 Y48.0000 I-2.0073 J-0.0505
G01 X301.4989
G01 X290.4989
G01 Z-14.0000 F60
G01 X261.0578 F900
G02 X259.0084 Y49.8454 I-0.0525 J2.0024
G01 X259.0000 Y50.0600
G01 Y109.5011
G01 Y120.5011
G01 Y179.9422
G01 X259.0087 Y180.1589
G02 X261.0600 Y182.0000 I1.9972 J-0.1619
G01 X290.5011
G01 X301.5011
G01 X330.9422
G02 X333.0000 Y179.9400 I0.0505 J-2.0073
G01 Y120.4989
G01 Y109.4989
G01 Y50.0578
G02 X330.9400 Y48.0000 I-2.0073 J-0.0505
G01 X301.4989
G01 X290.4989
G01 Z-16.0000 F60
G01 X261.0578 F900
G02 X259.0084 Y49.8454 I-0.0525 J2.0024
G01 X259.0000 Y50.0600
G01 Y109.5011
G01 Y120.5011
G01 Y179.9422
G01 X259.0087 Y180.1589
G02 X261.0600 Y182.0000 I1.9972 J-0.1619
G01 X290.5011
G01 X301.5011
G01 X330.9422
G02 X333.0000 Y179.9400 I0.0505 J-2.0073
G01 Y120.4989
G01 Y109.4989
G01 Y50.0578
G02 X330.9400 Y48.0000 I-2.0073 J-0.0505
G01 X301.4989
G01 X290.4989
G01 Z-18.0000 F60
G01 X261.0578 F900
G02 X259.0084 Y49.8454 I-0.0525 J2.0024
G01 X259.0000 Y50.0600
G01 Y109.5011
G01 Y120.5011
G01 Y179.9422
G01 X259.0087 Y180.1589
G02 X261.0600 Y182.0000 I1.9972 J-0.1619
G01 X290.5011
G01 X301.5011
G01 X330.9422
G02 X333.0000 Y179.9400 I0.0505 J-2.0073
G01 Y120.4989
G01 Y109.4989
G01 Y50.0578
G02 X330.9400 Y48.0000 I-2.0073 J-0.0505
G01 X301.4989
G01 X290.4989
G01 Z-20.0000 F60
G01 X261.0578 F900
G02 X259.0084 Y49.8454 I-0.0525 J2.0024
G01 X259.0000 Y50.0600
G01 Y109.5011
G01 Y120.5011
G01 Y179.9422
G01 X259.0087 Y180.1589
G02 X261.0600 Y182.0000 I1.9972 J-0.1619
G01 X290.5011
G01 X301.5011
G01 X330.9422
G02 X333.0000 Y179.9400 I0.0505 J-2.0073
G01 Y120.4989
G01 Y109.4989
G01 Y50.0578
G02 X330.9400 Y48.0000 I-2.0073 J-0.0505
G01 X301.4989
G01 X290.4989
G01 Z-22.0000 F60
G01 X261.0578 F900
G02 X259.0084 Y49.8454 I-0.0525 J2.0024
G01 X259.0000 Y50.0600
G01 Y109.5011
G01 Y120.5011
G01 Y179.9422
G01 X259.0087 Y180.1589
G02 X261.0600 Y182.0000 I1.9972 J-0.1619
G01 X290.5011
G01 X301.5011
G01 X330.9422
G02 X333.0000 Y179.9400 I0.0505 J-2.0073
G01 Y120.4989
G01 Y109.4989
G01 Y50.0578
G02 X330.9400 Y48.0000 I-2.0073 J-0.0505
G01 X301.4989
G01 X290.4989
G01 Z-24.0000 F60
G01 X261.0578 F900
G02 X259.0084 Y49.8454 I-0.0525 J2.0024
G01 X259.0000 Y50.0600
G01 Y109.5011
G01 Y120.5011
G01 Y179.9422
G01 X259.0087 Y180.1589
G02 X261.0600 Y182.0000 I1.9972 J-0.1619
G01 X290.5011
G01 X301.5011
G01 X330.9422
G02 X333.0000 Y179.9400 I0.0505 J-2.0073
G01 Y120.4989
G01 Y109.4989
G01 Y50.0578
G02 X330.9400 Y48.0000 I-2.0073 J-0.0505
G01 X301.4989
G01 X290.4989
G01 Z-26.0000 F60
G01 X261.0578 F900
G02 X259.0084 Y49.8454 I-0.0525 J2.0024
G01 X259.0000 Y50.0600
G01 Y109.5011
G01 Y120.5011
G01 Y179.9422
G01 X259.0087 Y180.1589
G02 X261.0600 Y182.0000 I1.9972 J-0.1619
G01 X290.5011
G01 X301.5011
G01 X330.9422
G02 X333.0000 Y179.9400 I0.0505 J-2.0073
G01 Y120.4989
G01 Y109.4989
G01 Y50.0578
G02 X330.9400 Y48.0000 I-2.0073 J-0.0505
G01 X301.4989
G01 X290.4989
G01 Z-28.0000 F60
G01 X261.0578 F900
G02 X259.0084 Y49.8454 I-0.0525 J2.0024
G01 X259.0000 Y50.0600
G01 Y109.5011
G01 Y120.5011
G01 Y179.9422
G01 X259.0087 Y180.1589
G02 X261.0600 Y182.0000 I1.9972 J-0.1619
G01 X290.5011
G01 X301.5011
G01 X330.9422
G02 X333.0000 Y179.9400 I0.0505 J-2.0073
G01 Y120.4989
G01 Y109.4989
G01 Y50.0578
G02 X330.9400 Y48.0000 I-2.0073 J-0.0505
G01 X301.4989
G01 X290.4989
G01 Z-30.0000 F60
G01 X261.0578 F900
G02 X259.0084 Y49.8454 I-0.0525 J2.0024
G01 X259.0000 Y50.0600
G01 Y109.5011
G01 Y120.5011
G01 Y179.9422
G01 X259.0087 Y180.1589
G02 X261.0600 Y182.0000 I1.9972 J-0.1619
G01 X290.5011
G01 X301.5011
G01 X330.9422
G02 X333.0000 Y179.9400 I0.0505 J-2.0073
G01 Y120.4989
G01 Y109.4989
G01 Y50.0578
G02 X330.9400 Y48.0000 I-2.0073 J-0.0505
G01 X301.4989
G01 X290.4989
G01 Z-32.0000 F60
G01 X261.0578 F900
G02 X259.0084 Y49.8454 I-0.0525 J2.0024
G01 X259.0000 Y50.0600
G01 Y109.5011
G00 Z-30.0000
G01 Y120.5011
G01 Z-32.0000 F60
G01 Y179.9422 F900
G01 X259.0087 Y180.1589
G02 X261.0600 Y182.0000 I1.9972 J-0.1619
G01 X290.5011
G00 Z-30.0000
G01 X301.5011
G01 Z-32.0000 F60
G01 X330.9422 F900
G02 X333.0000 Y179.9400 I0.0505 J-2.0073
G01 Y120.4989
G00 Z-30.0000
G01 Y109.4989
G01 Z-32.0000 F60
G01 Y50.0578 F900
G02 X330.9400 Y48.0000 I-2.0073 J-0.0505
G01 X301.4989
G00 Z-30.0000
G01 X290.4989
G00 Z-31.5000
G01 Z-34.0000 F60
G01 X261.0578 F900
G02 X259.0084 Y49.8454 I-0.0525 J2.0024
G01 X259.0000 Y50.0600
G01 Y109.5011
G00 Z-30.0000
G01 Y120.5011
G00 Z-31.5000
G01 Z-34.0000 F60
G01 Y179.9422 F900
G01 X259.0087 Y180.1589
G02 X261.0600 Y182.0000 I1.9972 J-0.1619
G01 X290.5011
G00 Z-30.0000
G01 X301.5011
G00 Z-31.5000
G01 Z-34.0000 F60
G01 X330.9422 F900
G02 X333.0000 Y179.9400 I0.0505 J-2.0073
G01 Y120.4989
G00 Z-30.0000
G01 Y109.4989
G00 Z-31.5000
G01 Z-34.0000 F60
G01 Y50.0578 F900
G02 X330.9400 Y48.0000 I-2.0073 J-0.0505
G01 X301.4989
G00 Z-30.0000
G01 X290.4989
G00 Z-33.5000
G01 Z-35.0000 F60
G01 X261.0578 F900
G02 X259.0084 Y49.8454 I-0.0525 J2.0024
G01 X259.0000 Y50.0600
G01 Y109.5011
G00 Z-30.0000
G01 Y120.5011
G00 Z-33.5000
G01 Z-35.0000 F60
G01 Y179.9422 F900
G01 X259.0087 Y180.1589
G02 X261.0600 Y182.0000 I1.9972 J-0.1619
G01 X290.5011
G00 Z-30.0000
G01 X301.5011
G00 Z-33.5000
G01 Z-35.0000 F60
G01 X330.9422 F900
G02 X333.0000 Y179.9400 I0.0505 J-2.0073
G01 Y120.4989
G00 Z-30.0000
G01 Y109.4989
G00 Z-33.5000
G01 Z-35.0000 F60
G01 Y50.0578 F900
G02 X330.9400 Y48.0000 I-2.0073 J-0.0505
G01 X301.4989
G00 Z-30.0000
G01 X290.4989
G00 Z5.0000


;No. 6: Hole 7
G00 X402.0267 Y44.6896 Z5.0000
G00 Z0.5000
G01 Z-2.0000 F60
G01 X402.0084 Y44.8454 F900
G01 X402.0000 Y45.0600
G01 Y184.9422
G01 X402.0087 Y185.1589
G02 X404.0600 Y187.0000 I1.9972 J-0.1619
G01 X483.9422
G02 X486.0000 Y184.9400 I0.0505 J-2.0073
G01 Y45.0578
G02 X483.9400 Y43.0000 I-2.0073 J-0.0505
G01 X404.0578
G02 X402.0267 Y44.6896 I-0.0524 J2.0027
G01 Z-4.0000 F60
G01 X402.0084 Y44.8454 F900
G01 X402.0000 Y45.0600
G01 Y184.9422
G01 X402.0087 Y185.1589
G02 X404.0600 Y187.0000 I1.9972 J-0.1619
G01 X483.9422
G02 X486.0000 Y184.9400 I0.0505 J-2.0073
G01 Y45.0578
G02 X483.9400 Y43.0000 I-2.0073 J-0.0505
G01 X404.0578
G02 X402.0267 Y44.6896 I-0.0524 J2.0027
G01 Z-5.0000 F60
G01 X402.0084 Y44.8454 F900
G01 X402.0000 Y45.0600
G01 Y184.9422
G01 X402.0087 Y185.1589
G02 X404.0600 Y187.0000 I1.9972 J-0.1619
G01 X483.9422
G02 X486.0000 Y184.9400 I0.0505 J-2.0073
G01 Y45.0578
G02 X483.9400 Y43.0000 I-2.0073 J-0.0505
G01 X404.0578
G02 X402.0267 Y44.6896 I-0.0524 J2.0027
G00 Z5.0000


;No. 7: Hole 6
G00 X106.2192 Y44.0950 Z5.0000
G00 Z0.5000
G01 Z-2.0000 F60
G02 X106.0084 Y44.8454 I1.7808 J0.9050 F900
G01 X106.0000 Y45.0600
G01 Y184.9422
G01 X106.0087 Y185.1589
G02 X108.0600 Y187.0000 I1.9972 J-0.1619
G01 X187.9422
G02 X190.0000 Y184.9400 I0.0505 J-2.0073
G01 Y45.0578
G02 X187.9400 Y43.0000 I-2.0073 J-0.0505
G01 X108.0578
G02 X106.2192 Y44.0950 I-0.0508 J2.0060
G01 Z-4.0000 F60
G02 X106.0084 Y44.8454 I1.7808 J0.9050 F900
G01 X106.0000 Y45.0600
G01 Y184.9422
G01 X106.0087 Y185.1589
G02 X108.0600 Y187.0000 I1.9972 J-0.1619
G01 X187.9422
G02 X190.0000 Y184.9400 I0.0505 J-2.0073
G01 Y45.0578
G02 X187.9400 Y43.0000 I-2.0073 J-0.0505
G01 X108.0578
G02 X106.2192 Y44.0950 I-0.0508 J2.0060
G01 Z-5.0000 F60
G02 X106.0084 Y44.8454 I1.7808 J0.9050 F900
G01 X106.0000 Y45.0600
G01 Y184.9422
G01 X106.0087 Y185.1589
G02 X108.0600 Y187.0000 I1.9972 J-0.1619
G01 X187.9422
G02 X190.0000 Y184.9400 I0.0505 J-2.0073
G01 Y45.0578
G02 X187.9400 Y43.0000 I-2.0073 J-0.0505
G01 X108.0578
G02 X106.2192 Y44.0950 I-0.0508 J2.0060
G00 Z5.0000


;No. 8: Part 11
G00 X85.0003 Y109.5327 Z5.0000
G00 Z0.5000
G01 Z-2.0000 F60
G01 X85.0000 Y45.0000 F900
G01 X85.0197 Y44.0622
G01 X85.0268 Y43.9114
G01 X85.0825 Y43.0607
G01 X85.0961 Y42.9104
G01 X85.1889 Y42.0629
G01 X85.2091 Y41.9133
G01 X85.3388 Y41.0707
G01 X85.3654 Y40.9221
G01 X85.5317 Y40.0859
G01 X85.5648 Y39.9387
G01 X85.7675 Y39.1106
G01 X85.8069 Y38.9649
G01 X86.0455 Y38.1464
G01 X86.0913 Y38.0026
G01 X86.3654 Y37.1953
G01 X86.4174 Y37.0536
G01 X86.7264 Y36.2590
G01 X86.7845 Y36.1198
G01 X87.1279 Y35.3394
G01 X87.1921 Y35.2028
G01 X87.5692 Y34.4382
G01 X87.6392 Y34.3045
G01 X88.0493 Y33.5570
G01 X88.1251 Y33.4266
G01 X88.5674 Y32.6977
G01 X88.6489 Y32.5707
G01 X89.1226 Y31.8618
G01 X89.2095 Y31.7384
G01 X89.7136 Y31.0508
G01 X89.8058 Y30.9314
G01 X90.3395 Y30.2665
G01 X90.4368 Y30.1512
G01 X90.9989 Y29.5102
G01 X91.1012 Y29.3992
G01 X91.6908 Y28.7833
G01 X91.7978 Y28.6769
G01 X92.4137 Y28.0874
G01 X92.5252 Y27.9857
G01 X93.1662 Y27.4236
G01 X93.2821 Y27.3269
G01 X93.9470 Y26.7933
G01 X94.0670 Y26.7018
G01 X94.7545 Y26.1976
G01 X94.8784 Y26.1114
G01 X95.5873 Y25.6378
G01 X95.7148 Y25.5571
G01 X96.4437 Y25.1148
G01 X96.5746 Y25.0397
G01 X97.3221 Y24.6296
G01 X97.4561 Y24.5603
G01 X98.2208 Y24.1832
G01 X98.3577 Y24.1199
G01 X99.1381 Y23.7765
G01 X99.2777 Y23.7191
G01 X100.0723 Y23.4101
G01 X100.2142 Y23.3589
G01 X101.0216 Y23.0849
G01 X101.1656 Y23.0399
G01 X101.9841 Y22.8013
G01 X102.1300 Y22.7627
G01 X102.9582 Y22.5601
G01 X103.1056 Y22.5278
G01 X103.9418 Y22.3615
G01 X104.0904 Y22.3357
G01 X104.9331 Y22.2060
G01 X105.0828 Y22.1868
G01 X105.9303 Y22.0939
G01 X106.0806 Y22.0812
G01 X106.9314 Y22.0255
G01 X107.0822 Y22.0193
G01 X107.9346 Y22.0007
G01 X108.0200 Y22.0000
G01 X142.5100
G01 X153.5100
G01 X188.0000
G01 X188.9378 Y22.0197
G01 X189.0886 Y22.0268
G01 X189.9393 Y22.0825
G01 X190.0896 Y22.0961
G01 X190.9371 Y22.1889
G01 X191.0867 Y22.2091
G01 X191.9293 Y22.3388
G01 X192.0779 Y22.3654
G01 X192.9141 Y22.5317
G01 X193.0613 Y22.5648
G01 X193.8894 Y22.7675
G01 X194.0351 Y22.8069
G01 X194.8536 Y23.0455
G01 X194.9974 Y23.0913
G01 X195.8047 Y23.3654
G01 X195.9464 Y23.4174
G01 X196.7410 Y23.7264
G01 X196.8802 Y23.7845
G01 X197.6606 Y24.1279
G01 X197.7972 Y24.1921
G01 X198.5618 Y24.5692
G01 X198.6955 Y24.6392
G01 X199.4430 Y25.0493
G01 X199.5734 Y25.1251
G01 X200.3023 Y25.5674
G01 X200.4293 Y25.6489
G01 X201.1382 Y26.1226
G01 X201.2616 Y26.2095
G01 X201.9492 Y26.7136
G01 X202.0686 Y26.8058
G01 X202.7335 Y27.3395
G01 X202.8488 Y27.4368
G01 X203.4898 Y27.9989
G01 X203.6008 Y28.1012
G01 X204.2167 Y28.6908
G01 X204.3231 Y28.7978
G01 X204.9126 Y29.4137
G01 X205.0143 Y29.5252
G01 X205.5764 Y30.1662
G01 X205.6731 Y30.2821
G01 X206.2067 Y30.9470
G01 X206.2982 Y31.0670
G01 X206.8024 Y31.7545
G01 X206.8886 Y31.8784
G01 X207.3622 Y32.5873
G01 X207.4429 Y32.7148
G01 X207.8852 Y33.4437
G01 X207.9603 Y33.5746
G01 X208.3704 Y34.3221
G01 X208.4397 Y34.4561
G01 X208.8168 Y35.2208
G01 X208.8801 Y35.3577
G01 X209.2235 Y36.1381
G01 X209.2809 Y36.2777
G01 X209.5899 Y37.0723
G01 X209.6411 Y37.2142
G01 X209.9151 Y38.0216
G01 X209.9601 Y38.1656
G01 X210.1987 Y38.9841
G01 X210.2373 Y39.1300
G01 X210.4399 Y39.9582
G01 X210.4722 Y40.1056
G01 X210.6385 Y40.9418
G01 X210.6643 Y41.0904
G01 X210.7940 Y41.9331
G01 X210.8132 Y42.0828
G01 X210.9061 Y42.9303
G01 X210.9188 Y43.0806
G01 X210.9745 Y43.9314
G01 X210.9807 Y44.0822
G01 X210.9993 Y44.9346
G01 X210.9996 Y109.4673
G01 X210.9997 Y120.4673
G01 X211.0000 Y185.0000
G01 X210.9803 Y185.9378
G01 X210.9732 Y186.0886
G01 X210.9175 Y186.9393
G01 X210.9039 Y187.0896
G01 X210.8111 Y187.9371
G01 X210.7909 Y188.0867
G01 X210.6612 Y188.9293
G01 X210.6346 Y189.0779
G01 X210.4683 Y189.9141
G01 X210.4352 Y190.0613
G01 X210.2325 Y190.8894
G01 X210.1931 Y191.0351
G01 X209.9545 Y191.8536
G01 X209.9087 Y191.9974
G01 X209.6346 Y192.8047
G01 X209.5826 Y192.9464
G01 X209.2736 Y193.7410
G01 X209.2155 Y193.8802
G01 X208.8721 Y194.6606
G01 X208.8079 Y194.7972
G01 X208.4308 Y195.5618
G01 X208.3608 Y195.6955
G01 X207.9507 Y196.4430
G01 X207.8749 Y196.5734
G01 X207.4326 Y197.3023
G01 X207.3511 Y197.4293
G01 X206.8774 Y198.1382
G01 X206.7905 Y198.2616
G01 X206.2864 Y198.9492
G01 X206.1942 Y199.0686
G01 X205.6605 Y199.7335
G01 X205.5632 Y199.8488
G01 X205.0011 Y200.4898
G01 X204.8988 Y200.6008
G01 X204.3092 Y201.2167
G01 X204.2022 Y201.3231
G01 X203.5863 Y201.9126
G01 X203.4748 Y202.0143
G01 X202.8338 Y202.5764
G01 X202.7179 Y202.6731
G01 X202.0530 Y203.2067
G01 X201.9330 Y203.2982
G01 X201.2455 Y203.8024
G01 X201.1216 Y203.8886
G01 X200.4127 Y204.3622
G01 X200.2852 Y204.4429
G01 X199.5563 Y204.8852
G01 X199.4254 Y204.9603
G01 X198.6779 Y205.3704
G01 X198.5439 Y205.4397
G01 X197.7792 Y205.8168
G01 X197.6423 Y205.8801
G01 X196.8619 Y206.2235
G01 X196.7223 Y206.2809
G01 X195.9277 Y206.5899
G01 X195.7858 Y206.6411
G01 X194.9784 Y206.9151
G01 X194.8344 Y206.9601
G01 X194.0159 Y207.1987
G01 X193.8700 Y207.2373
G01 X193.0418 Y207.4399
G01 X192.8944 Y207.4722
G01 X192.0582 Y207.6385
G01 X191.9096 Y207.6643
G01 X191.0669 Y207.7940
G01 X190.9172 Y207.8132
G01 X190.0697 Y207.9061
G01 X189.9194 Y207.9188
G01 X189.0686 Y207.9745
G01 X188.9178 Y207.9807
G01 X188.0654 Y207.9993
G01 X187.9800 Y208.0000
G01 X153.4900
G01 X142.4900
G01 X108.0000
G01 X107.0622 Y207.9803
G01 X106.9114 Y207.9732
G01 X106.0607 Y207.9175
G01 X105.9104 Y207.9039
G01 X105.0629 Y207.8111
G01 X104.9133 Y207.7909
G01 X104.0707 Y207.6612
G01 X103.9221 Y207.6346
G01 X103.0859 Y207.4683
G01 X102.9387 Y207.4352
G01 X102.1106 Y207.2325
G01 X101.9649 Y207.1931
G01 X101.1464 Y206.9545
G01 X101.0026 Y206.9087
G01 X100.1953 Y206.6346
G01 X100.0536 Y206.5826
G01 X99.2590 Y206.2736
G01 X99.1198 Y206.2155
G01 X98.3394 Y205.8721
G01 X98.2028 Y205.8079
G01 X97.4382 Y205.4308
G01 X97.3045 Y205.3608
G01 X96.5570 Y204.9507
G01 X96.4266 Y204.8749
G01 X95.6977 Y204.4326
G01 X95.5707 Y204.3511
G01 X94.8618 Y203.8774
G01 X94.7384 Y203.7905
G01 X94.0508 Y203.2864
G01 X93.9314 Y203.1942
G01 X93.2665 Y202.6605
G01 X93.1512 Y202.5632
G01 X92.5102 Y202.0011
G01 X92.3992 Y201.8988
G01 X91.7833 Y201.3092
G01 X91.6769 Y201.2022
G01 X91.0874 Y200.5863
G01 X90.9857 Y200.4748
G01 X90.4236 Y199.8338
G01 X90.3269 Y199.7179
G01 X89.7933 Y199.0530
G01 X89.7018 Y198.9330
G01 X89.1976 Y198.2455
G01 X89.1114 Y198.1216
G01 X88.6378 Y197.4127
G01 X88.5571 Y197.2852
G01 X88.1148 Y196.5563
G01 X88.0397 Y196.4254
G01 X87.6296 Y195.6779
G01 X87.5603 Y195.5439
G01 X87.1832 Y194.7792
G01 X87.1199 Y194.6423
G01 X86.7765 Y193.8619
G01 X86.7191 Y193.7223
G01 X86.4101 Y192.9277
G01 X86.3589 Y192.7858
G01 X86.0849 Y191.9784
G01 X86.0399 Y191.8344
G01 X85.8013 Y191.0159
G01 X85.7627 Y190.8700
G01 X85.5601 Y190.0418
G01 X85.5278 Y189.8944
G01 X85.3615 Y189.0582
G01 X85.3357 Y188.9096
G01 X85.2060 Y188.0669
G01 X85.1868 Y187.9172
G01 X85.0939 Y187.0697
G01 X85.0812 Y186.9194
G01 X85.0255 Y186.0686
G01 X85.0193 Y185.9178
G01 X85.0007 Y185.0654
G01 X85.0004 Y120.5327
G01 X85.0003 Y109.5327
G01 Z-4.0000 F60
G01 X85.0000 Y45.0000 F900
G01 X85.0197 Y44.0622
G01 X85.0268 Y43.9114
G01 X85.0825 Y43.0607
G01 X85.0961 Y42.9104
G01 X85.1889 Y42.0629
G01 X85.2091 Y41.9133
G01 X85.3388 Y41.0707
G01 X85.3654 Y40.9221
G01 X85.5317 Y40.0859
G01 X85.5648 Y39.9387
G01 X85.7675 Y39.1106
G01 X85.8069 Y38.9649
G01 X86.0455 Y38.1464
G01 X86.0913 Y38.0026
G01 X86.3654 Y37.1953
G01 X86.4174 Y37.0536
G01 X86.7264 Y36.2590
G01 X86.7845 Y36.1198
G01 X87.1279 Y35.3394
G01 X87.1921 Y35.2028
G01 X87.5692 Y34.4382
G01 X87.6392 Y34.3045
G01 X88.0493 Y33.5570
G01 X88.1251 Y33.4266
G01 X88.5674 Y32.6977
G01 X88.6489 Y32.5707
G01 X89.1226 Y31.8618
G01 X89.2095 Y31.7384
G01 X89.7136 Y31.0508
G01 X89.8058 Y30.9314
G01 X90.3395 Y30.2665
G01 X90.4368 Y30.1512
G01 X90.9989 Y29.5102
G01 X91.1012 Y29.3992
G01 X91.6908 Y28.7833
G01 X91.7978 Y28.6769
G01 X92.4137 Y28.0874
G01 X92.5252 Y27.9857
G01 X93.1662 Y27.4236
G01 X93.2821 Y27.3269
G01 X93.9470 Y26.7933
G01 X94.0670 Y26.7018
G01 X94.7545 Y26.1976
G01 X94.8784 Y26.1114
G01 X95.5873 Y25.6378
G01 X95.7148 Y25.5571
G01 X96.4437 Y25.1148
G01 X96.5746 Y25.0397
G01 X97.3221 Y24.6296
G01 X97.4561 Y24.5603
G01 X98.2208 Y24.1832
G01 X98.3577 Y24.1199
G01 X99.1381 Y23.7765
G01 X99.2777 Y23.7191
G01 X100.0723 Y23.4101
G01 X100.2142 Y23.3589
G01 X101.0216 Y23.0849
G01 X101.1656 Y23.0399
G01 X101.9841 Y22.8013
G01 X102.1300 Y22.7627
G01 X102.9582 Y22.5601
G01 X103.1056 Y22.5278
G01 X103.9418 Y22.3615
G01 X104.0904 Y22.3357
G01 X104.9331 Y22.2060
G01 X105.0828 Y22.1868
G01 X105.9303 Y22.0939
G01 X106.0806 Y22.0812
G01 X106.9314 Y22.0255
G01 X107.0822 Y22.0193
G01 X107.9346 Y22.0007
G01 X108.0200 Y22.0000
G01 X142.5100
G01 X153.5100
G01 X188.0000
G01 X188.9378 Y22.0197
G01 X189.0886 Y22.0268
G01 X189.9393 Y22.0825
G01 X190.0896 Y22.0961
G01 X190.9371 Y22.1889
G01 X191.0867 Y22.2091
G01 X191.9293 Y22.3388
G01 X192.0779 Y22.3654
G01 X192.9141 Y22.5317
G01 X193.0613 Y22.5648
G01 X193.8894 Y22.7675
G01 X194.0351 Y22.8069
G01 X194.8536 Y23.0455
G01 X194.9974 Y23.0913
G01 X195.8047 Y23.3654
G01 X195.9464 Y23.4174
G01 X196.7410 Y23.7264
G01 X196.8802 Y23.7845
G01 X197.6606 Y24.1279
G01 X197.7972 Y24.1921
G01 X198.5618 Y24.5692
G01 X198.6955 Y24.6392
G01 X199.4430 Y25.0493
G01 X199.5734 Y25.1251
G01 X200.3023 Y25.5674
G01 X200.4293 Y25.6489
G01 X201.1382 Y26.1226
G01 X201.2616 Y26.2095
G01 X201.9492 Y26.7136
G01 X202.0686 Y26.8058
G01 X202.7335 Y27.3395
G01 X202.8488 Y27.4368
G01 X203.4898 Y27.9989
G01 X203.6008 Y28.1012
G01 X204.2167 Y28.6908
G01 X204.3231 Y28.7978
G01 X204.9126 Y29.4137
G01 X205.0143 Y29.5252
G01 X205.5764 Y30.1662
G01 X205.6731 Y30.2821
G01 X206.2067 Y30.9470
G01 X206.2982 Y31.0670
G01 X206.8024 Y31.7545
G01 X206.8886 Y31.8784
G01 X207.3622 Y32.5873
G01 X207.4429 Y32.7148
G01 X207.8852 Y33.4437
G01 X207.9603 Y33.5746
G01 X208.3704 Y34.3221
G01 X208.4397 Y34.4561
G01 X208.8168 Y35.2208
G01 X208.8801 Y35.3577
G01 X209.2235 Y36.1381
G01 X209.2809 Y36.2777
G01 X209.5899 Y37.0723
G01 X209.6411 Y37.2142
G01 X209.9151 Y38.0216
G01 X209.9601 Y38.1656
G01 X210.1987 Y38.9841
G01 X210.2373 Y39.1300
G01 X210.4399 Y39.9582
G01 X210.4722 Y40.1056
G01 X210.6385 Y40.9418
G01 X210.6643 Y41.0904
G01 X210.7940 Y41.9331
G01 X210.8132 Y42.0828
G01 X210.9061 Y42.9303
G01 X210.9188 Y43.0806
G01 X210.9745 Y43.9314
G01 X210.9807 Y44.0822
G01 X210.9993 Y44.9346
G01 X210.9996 Y109.4673
G01 X210.9997 Y120.4673
G01 X211.0000 Y185.0000
G01 X210.9803 Y185.9378
G01 X210.9732 Y186.0886
G01 X210.9175 Y186.9393
G01 X210.9039 Y187.0896
G01 X210.8111 Y187.9371
G01 X210.7909 Y188.0867
G01 X210.6612 Y188.9293
G01 X210.6346 Y189.0779
G01 X210.4683 Y189.9141
G01 X210.4352 Y190.0613
G01 X210.2325 Y190.8894
G01 X210.1931 Y191.0351
G01 X209.9545 Y191.8536
G01 X209.9087 Y191.9974
G01 X209.6346 Y192.8047
G01 X209.5826 Y192.9464
G01 X209.2736 Y193.7410
G01 X209.2155 Y193.8802
G01 X208.8721 Y194.6606
G01 X208.8079 Y194.7972
G01 X208.4308 Y195.5618
G01 X208.3608 Y195.6955
G01 X207.9507 Y196.4430
G01 X207.8749 Y196.5734
G01 X207.4326 Y197.3023
G01 X207.3511 Y197.4293
G01 X206.8774 Y198.1382
G01 X206.7905 Y198.2616
G01 X206.2864 Y198.9492
G01 X206.1942 Y199.0686
G01 X205.6605 Y199.7335
G01 X205.5632 Y199.8488
G01 X205.0011 Y200.4898
G01 X204.8988 Y200.6008
G01 X204.3092 Y201.2167
G01 X204.2022 Y201.3231
G01 X203.5863 Y201.9126
G01 X203.4748 Y202.0143
G01 X202.8338 Y202.5764
G01 X202.7179 Y202.6731
G01 X202.0530 Y203.2067
G01 X201.9330 Y203.2982
G01 X201.2455 Y203.8024
G01 X201.1216 Y203.8886
G01 X200.4127 Y204.3622
G01 X200.2852 Y204.4429
G01 X199.5563 Y204.8852
G01 X199.4254 Y204.9603
G01 X198.6779 Y205.3704
G01 X198.5439 Y205.4397
G01 X197.7792 Y205.8168
G01 X197.6423 Y205.8801
G01 X196.8619 Y206.2235
G01 X196.7223 Y206.2809
G01 X195.9277 Y206.5899
G01 X195.7858 Y206.6411
G01 X194.9784 Y206.9151
G01 X194.8344 Y206.9601
G01 X194.0159 Y207.1987
G01 X193.8700 Y207.2373
G01 X193.0418 Y207.4399
G01 X192.8944 Y207.4722
G01 X192.0582 Y207.6385
G01 X191.9096 Y207.6643
G01 X191.0669 Y207.7940
G01 X190.9172 Y207.8132
G01 X190.0697 Y207.9061
G01 X189.9194 Y207.9188
G01 X189.0686 Y207.9745
G01 X188.9178 Y207.9807
G01 X188.0654 Y207.9993
G01 X187.9800 Y208.0000
G01 X153.4900
G01 X142.4900
G01 X108.0000
G01 X107.0622 Y207.9803
G01 X106.9114 Y207.9732
G01 X106.0607 Y207.9175
G01 X105.9104 Y207.9039
G01 X105.0629 Y207.8111
G01 X104.9133 Y207.7909
G01 X104.0707 Y207.6612
G01 X103.9221 Y207.6346
G01 X103.0859 Y207.4683
G01 X102.9387 Y207.4352
G01 X102.1106 Y207.2325
G01 X101.9649 Y207.1931
G01 X101.1464 Y206.9545
G01 X101.0026 Y206.9087
G01 X100.1953 Y206.6346
G01 X100.0536 Y206.5826
G01 X99.2590 Y206.2736
G01 X99.1198 Y206.2155
G01 X98.3394 Y205.8721
G01 X98.2028 Y205.8079
G01 X97.4382 Y205.4308
G01 X97.3045 Y205.3608
G01 X96.5570 Y204.9507
G01 X96.4266 Y204.8749
G01 X95.6977 Y204.4326
G01 X95.5707 Y204.3511
G01 X94.8618 Y203.8774
G01 X94.7384 Y203.7905
G01 X94.0508 Y203.2864
G01 X93.9314 Y203.1942
G01 X93.2665 Y202.6605
G01 X93.1512 Y202.5632
G01 X92.5102 Y202.0011
G01 X92.3992 Y201.8988
G01 X91.7833 Y201.3092
G01 X91.6769 Y201.2022
G01 X91.0874 Y200.5863
G01 X90.9857 Y200.4748
G01 X90.4236 Y199.8338
G01 X90.3269 Y199.7179
G01 X89.7933 Y199.0530
G01 X89.7018 Y198.9330
G01 X89.1976 Y198.2455
G01 X89.1114 Y198.1216
G01 X88.6378 Y197.4127
G01 X88.5571 Y197.2852
G01 X88.1148 Y196.5563
G01 X88.0397 Y196.4254
G01 X87.6296 Y195.6779
G01 X87.5603 Y195.5439
G01 X87.1832 Y194.7792
G01 X87.1199 Y194.6423
G01 X86.7765 Y193.8619
G01 X86.7191 Y193.7223
G01 X86.4101 Y192.9277
G01 X86.3589 Y192.7858
G01 X86.0849 Y191.9784
G01 X86.0399 Y191.8344
G01 X85.8013 Y191.0159
G01 X85.7627 Y190.8700
G01 X85.5601 Y190.0418
G01 X85.5278 Y189.8944
G01 X85.3615 Y189.0582
G01 X85.3357 Y188.9096
G01 X85.2060 Y188.0669
G01 X85.1868 Y187.9172
G01 X85.0939 Y187.0697
G01 X85.0812 Y186.9194
G01 X85.0255 Y186.0686
G01 X85.0193 Y185.9178
G01 X85.0007 Y185.0654
G01 X85.0004 Y120.5327
G01 X85.0003 Y109.5327
G01 Z-6.0000 F60
G01 X85.0000 Y45.0000 F900
G01 X85.0197 Y44.0622
G01 X85.0268 Y43.9114
G01 X85.0825 Y43.0607
G01 X85.0961 Y42.9104
G01 X85.1889 Y42.0629
G01 X85.2091 Y41.9133
G01 X85.3388 Y41.0707
G01 X85.3654 Y40.9221
G01 X85.5317 Y40.0859
G01 X85.5648 Y39.9387
G01 X85.7675 Y39.1106
G01 X85.8069 Y38.9649
G01 X86.0455 Y38.1464
G01 X86.0913 Y38.0026
G01 X86.3654 Y37.1953
G01 X86.4174 Y37.0536
G01 X86.7264 Y36.2590
G01 X86.7845 Y36.1198
G01 X87.1279 Y35.3394
G01 X87.1921 Y35.2028
G01 X87.5692 Y34.4382
G01 X87.6392 Y34.3045
G01 X88.0493 Y33.5570
G01 X88.1251 Y33.4266
G01 X88.5674 Y32.6977
G01 X88.6489 Y32.5707
G01 X89.1226 Y31.8618
G01 X89.2095 Y31.7384
G01 X89.7136 Y31.0508
G01 X89.8058 Y30.9314
G01 X90.3395 Y30.2665
G01 X90.4368 Y30.1512
G01 X90.9989 Y29.5102
G01 X91.1012 Y29.3992
G01 X91.6908 Y28.7833
G01 X91.7978 Y28.6769
G01 X92.4137 Y28.0874
G01 X92.5252 Y27.9857
G01 X93.1662 Y27.4236
G01 X93.2821 Y27.3269
G01 X93.9470 Y26.7933
G01 X94.0670 Y26.7018
G01 X94.7545 Y26.1976
G01 X94.8784 Y26.1114
G01 X95.5873 Y25.6378
G01 X95.7148 Y25.5571
G01 X96.4437 Y25.1148
G01 X96.5746 Y25.0397
G01 X97.3221 Y24.6296
G01 X97.4561 Y24.5603
G01 X98.2208 Y24.1832
G01 X98.3577 Y24.1199
G01 X99.1381 Y23.7765
G01 X99.2777 Y23.7191
G01 X100.0723 Y23.4101
G01 X100.2142 Y23.3589
G01 X101.0216 Y23.0849
G01 X101.1656 Y23.0399
G01 X101.9841 Y22.8013
G01 X102.1300 Y22.7627
G01 X102.9582 Y22.5601
G01 X103.1056 Y22.5278
G01 X103.9418 Y22.3615
G01 X104.0904 Y22.3357
G01 X104.9331 Y22.2060
G01 X105.0828 Y22.1868
G01 X105.9303 Y22.0939
G01 X106.0806 Y22.0812
G01 X106.9314 Y22.0255
G01 X107.0822 Y22.0193
G01 X107.9346 Y22.0007
G01 X108.0200 Y22.0000
G01 X142.5100
G01 X153.5100
G01 X188.0000
G01 X188.9378 Y22.0197
G01 X189.0886 Y22.0268
G01 X189.9393 Y22.0825
G01 X190.0896 Y22.0961
G01 X190.9371 Y22.1889
G01 X191.0867 Y22.2091
G01 X191.9293 Y22.3388
G01 X192.0779 Y22.3654
G01 X192.9141 Y22.5317
G01 X193.0613 Y22.5648
G01 X193.8894 Y22.7675
G01 X194.0351 Y22.8069
G01 X194.8536 Y23.0455
G01 X194.9974 Y23.0913
G01 X195.8047 Y23.3654
G01 X195.9464 Y23.4174
G01 X196.7410 Y23.7264
G01 X196.8802 Y23.7845
G01 X197.6606 Y24.1279
G01 X197.7972 Y24.1921
G01 X198.5618 Y24.5692
G01 X198.6955 Y24.6392
G01 X199.4430 Y25.0493
G01 X199.5734 Y25.1251
G01 X200.3023 Y25.5674
G01 X200.4293 Y25.6489
G01 X201.1382 Y26.1226
G01 X201.2616 Y26.2095
G01 X201.9492 Y26.7136
G01 X202.0686 Y26.8058
G01 X202.7335 Y27.3395
G01 X202.8488 Y27.4368
G01 X203.4898 Y27.9989
G01 X203.6008 Y28.1012
G01 X204.2167 Y28.6908
G01 X204.3231 Y28.7978
G01 X204.9126 Y29.4137
G01 X205.0143 Y29.5252
G01 X205.5764 Y30.1662
G01 X205.6731 Y30.2821
G01 X206.2067 Y30.9470
G01 X206.2982 Y31.0670
G01 X206.8024 Y31.7545
G01 X206.8886 Y31.8784
G01 X207.3622 Y32.5873
G01 X207.4429 Y32.7148
G01 X207.8852 Y33.4437
G01 X207.9603 Y33.5746
G01 X208.3704 Y34.3221
G01 X208.4397 Y34.4561
G01 X208.8168 Y35.2208
G01 X208.8801 Y35.3577
G01 X209.2235 Y36.1381
G01 X209.2809 Y36.2777
G01 X209.5899 Y37.0723
G01 X209.6411 Y37.2142
G01 X209.9151 Y38.0216
G01 X209.9601 Y38.1656
G01 X210.1987 Y38.9841
G01 X210.2373 Y39.1300
G01 X210.4399 Y39.9582
G01 X210.4722 Y40.1056
G01 X210.6385 Y40.9418
G01 X210.6643 Y41.0904
G01 X210.7940 Y41.9331
G01 X210.8132 Y42.0828
G01 X210.9061 Y42.9303
G01 X210.9188 Y43.0806
G01 X210.9745 Y43.9314
G01 X210.9807 Y44.0822
G01 X210.9993 Y44.9346
G01 X210.9996 Y109.4673
G01 X210.9997 Y120.4673
G01 X211.0000 Y185.0000
G01 X210.9803 Y185.9378
G01 X210.9732 Y186.0886
G01 X210.9175 Y186.9393
G01 X210.9039 Y187.0896
G01 X210.8111 Y187.9371
G01 X210.7909 Y188.0867
G01 X210.6612 Y188.9293
G01 X210.6346 Y189.0779
G01 X210.4683 Y189.9141
G01 X210.4352 Y190.0613
G01 X210.2325 Y190.8894
G01 X210.1931 Y191.0351
G01 X209.9545 Y191.8536
G01 X209.9087 Y191.9974
G01 X209.6346 Y192.8047
G01 X209.5826 Y192.9464
G01 X209.2736 Y193.7410
G01 X209.2155 Y193.8802
G01 X208.8721 Y194.6606
G01 X208.8079 Y194.7972
G01 X208.4308 Y195.5618
G01 X208.3608 Y195.6955
G01 X207.9507 Y196.4430
G01 X207.8749 Y196.5734
G01 X207.4326 Y197.3023
G01 X207.3511 Y197.4293
G01 X206.8774 Y198.1382
G01 X206.7905 Y198.2616
G01 X206.2864 Y198.9492
G01 X206.1942 Y199.0686
G01 X205.6605 Y199.7335
G01 X205.5632 Y199.8488
G01 X205.0011 Y200.4898
G01 X204.8988 Y200.6008
G01 X204.3092 Y201.2167
G01 X204.2022 Y201.3231
G01 X203.5863 Y201.9126
G01 X203.4748 Y202.0143
G01 X202.8338 Y202.5764
G01 X202.7179 Y202.6731
G01 X202.0530 Y203.2067
G01 X201.9330 Y203.2982
G01 X201.2455 Y203.8024
G01 X201.1216 Y203.8886
G01 X200.4127 Y204.3622
G01 X200.2852 Y204.4429
G01 X199.5563 Y204.8852
G01 X199.4254 Y204.9603
G01 X198.6779 Y205.3704
G01 X198.5439 Y205.4397
G01 X197.7792 Y205.8168
G01 X197.6423 Y205.8801
G01 X196.8619 Y206.2235
G01 X196.7223 Y206.2809
G01 X195.9277 Y206.5899
G01 X195.7858 Y206.6411
G01 X194.9784 Y206.9151
G01 X194.8344 Y206.9601
G01 X194.0159 Y207.1987
G01 X193.8700 Y207.2373
G01 X193.0418 Y207.4399
G01 X192.8944 Y207.4722
G01 X192.0582 Y207.6385
G01 X191.9096 Y207.6643
G01 X191.0669 Y207.7940
G01 X190.9172 Y207.8132
G01 X190.0697 Y207.9061
G01 X189.9194 Y207.9188
G01 X189.0686 Y207.9745
G01 X188.9178 Y207.9807
G01 X188.0654 Y207.9993
G01 X187.9800 Y208.0000
G01 X153.4900
G01 X142.4900
G01 X108.0000
G01 X107.0622 Y207.9803
G01 X106.9114 Y207.9732
G01 X106.0607 Y207.9175
G01 X105.9104 Y207.9039
G01 X105.0629 Y207.8111
G01 X104.9133 Y207.7909
G01 X104.0707 Y207.6612
G01 X103.9221 Y207.6346
G01 X103.0859 Y207.4683
G01 X102.9387 Y207.4352
G01 X102.1106 Y207.2325
G01 X101.9649 Y207.1931
G01 X101.1464 Y206.9545
G01 X101.0026 Y206.9087
G01 X100.1953 Y206.6346
G01 X100.0536 Y206.5826
G01 X99.2590 Y206.2736
G01 X99.1198 Y206.2155
G01 X98.3394 Y205.8721
G01 X98.2028 Y205.8079
G01 X97.4382 Y205.4308
G01 X97.3045 Y205.3608
G01 X96.5570 Y204.9507
G01 X96.4266 Y204.8749
G01 X95.6977 Y204.4326
G01 X95.5707 Y204.3511
G01 X94.8618 Y203.8774
G01 X94.7384 Y203.7905
G01 X94.0508 Y203.2864
G01 X93.9314 Y203.1942
G01 X93.2665 Y202.6605
G01 X93.1512 Y202.5632
G01 X92.5102 Y202.0011
G01 X92.3992 Y201.8988
G01 X91.7833 Y201.3092
G01 X91.6769 Y201.2022
G01 X91.0874 Y200.5863
G01 X90.9857 Y200.4748
G01 X90.4236 Y199.8338
G01 X90.3269 Y199.7179
G01 X89.7933 Y199.0530
G01 X89.7018 Y198.9330
G01 X89.1976 Y198.2455
G01 X89.1114 Y198.1216
G01 X88.6378 Y197.4127
G01 X88.5571 Y197.2852
G01 X88.1148 Y196.5563
G01 X88.0397 Y196.4254
G01 X87.6296 Y195.6779
G01 X87.5603 Y195.5439
G01 X87.1832 Y194.7792
G01 X87.1199 Y194.6423
G01 X86.7765 Y193.8619
G01 X86.7191 Y193.7223
G01 X86.4101 Y192.9277
G01 X86.3589 Y192.7858
G01 X86.0849 Y191.9784
G01 X86.0399 Y191.8344
G01 X85.8013 Y191.0159
G01 X85.7627 Y190.8700
G01 X85.5601 Y190.0418
G01 X85.5278 Y189.8944
G01 X85.3615 Y189.0582
G01 X85.3357 Y188.9096
G01 X85.2060 Y188.0669
G01 X85.1868 Y187.9172
G01 X85.0939 Y187.0697
G01 X85.0812 Y186.9194
G01 X85.0255 Y186.0686
G01 X85.0193 Y185.9178
G01 X85.0007 Y185.0654
G01 X85.0004 Y120.5327
G01 X85.0003 Y109.5327
G01 Z-8.0000 F60
G01 X85.0000 Y45.0000 F900
G01 X85.0197 Y44.0622
G01 X85.0268 Y43.9114
G01 X85.0825 Y43.0607
G01 X85.0961 Y42.9104
G01 X85.1889 Y42.0629
G01 X85.2091 Y41.9133
G01 X85.3388 Y41.0707
G01 X85.3654 Y40.9221
G01 X85.5317 Y40.0859
G01 X85.5648 Y39.9387
G01 X85.7675 Y39.1106
G01 X85.8069 Y38.9649
G01 X86.0455 Y38.1464
G01 X86.0913 Y38.0026
G01 X86.3654 Y37.1953
G01 X86.4174 Y37.0536
G01 X86.7264 Y36.2590
G01 X86.7845 Y36.1198
G01 X87.1279 Y35.3394
G01 X87.1921 Y35.2028
G01 X87.5692 Y34.4382
G01 X87.6392 Y34.3045
G01 X88.0493 Y33.5570
G01 X88.1251 Y33.4266
G01 X88.5674 Y32.6977
G01 X88.6489 Y32.5707
G01 X89.1226 Y31.8618
G01 X89.2095 Y31.7384
G01 X89.7136 Y31.0508
G01 X89.8058 Y30.9314
G01 X90.3395 Y30.2665
G01 X90.4368 Y30.1512
G01 X90.9989 Y29.5102
G01 X91.1012 Y29.3992
G01 X91.6908 Y28.7833
G01 X91.7978 Y28.6769
G01 X92.4137 Y28.0874
G01 X92.5252 Y27.9857
G01 X93.1662 Y27.4236
G01 X93.2821 Y27.3269
G01 X93.9470 Y26.7933
G01 X94.0670 Y26.7018
G01 X94.7545 Y26.1976
G01 X94.8784 Y26.1114
G01 X95.5873 Y25.6378
G01 X95.7148 Y25.5571
G01 X96.4437 Y25.1148
G01 X96.5746 Y25.0397
G01 X97.3221 Y24.6296
G01 X97.4561 Y24.5603
G01 X98.2208 Y24.1832
G01 X98.3577 Y24.1199
G01 X99.1381 Y23.7765
G01 X99.2777 Y23.7191
G01 X100.0723 Y23.4101
G01 X100.2142 Y23.3589
G01 X101.0216 Y23.0849
G01 X101.1656 Y23.0399
G01 X101.9841 Y22.8013
G01 X102.1300 Y22.7627
G01 X102.9582 Y22.5601
G01 X103.1056 Y22.5278
G01 X103.9418 Y22.3615
G01 X104.0904 Y22.3357
G01 X104.9331 Y22.2060
G01 X105.0828 Y22.1868
G01 X105.9303 Y22.0939
G01 X106.0806 Y22.0812
G01 X106.9314 Y22.0255
G01 X107.0822 Y22.0193
G01 X107.9346 Y22.0007
G01 X108.0200 Y22.0000
G01 X142.5100
G01 X153.5100
G01 X188.0000
G01 X188.9378 Y22.0197
G01 X189.0886 Y22.0268
G01 X189.9393 Y22.0825
G01 X190.0896 Y22.0961
G01 X190.9371 Y22.1889
G01 X191.0867 Y22.2091
G01 X191.9293 Y22.3388
G01 X192.0779 Y22.3654
G01 X192.9141 Y22.5317
G01 X193.0613 Y22.5648
G01 X193.8894 Y22.7675
G01 X194.0351 Y22.8069
G01 X194.8536 Y23.0455
G01 X194.9974 Y23.0913
G01 X195.8047 Y23.3654
G01 X195.9464 Y23.4174
G01 X196.7410 Y23.7264
G01 X196.8802 Y23.7845
G01 X197.6606 Y24.1279
G01 X197.7972 Y24.1921
G01 X198.5618 Y24.5692
G01 X198.6955 Y24.6392
G01 X199.4430 Y25.0493
G01 X199.5734 Y25.1251
G01 X200.3023 Y25.5674
G01 X200.4293 Y25.6489
G01 X201.1382 Y26.1226
G01 X201.2616 Y26.2095
G01 X201.9492 Y26.7136
G01 X202.0686 Y26.8058
G01 X202.7335 Y27.3395
G01 X202.8488 Y27.4368
G01 X203.4898 Y27.9989
G01 X203.6008 Y28.1012
G01 X204.2167 Y28.6908
G01 X204.3231 Y28.7978
G01 X204.9126 Y29.4137
G01 X205.0143 Y29.5252
G01 X205.5764 Y30.1662
G01 X205.6731 Y30.2821
G01 X206.2067 Y30.9470
G01 X206.2982 Y31.0670
G01 X206.8024 Y31.7545
G01 X206.8886 Y31.8784
G01 X207.3622 Y32.5873
G01 X207.4429 Y32.7148
G01 X207.8852 Y33.4437
G01 X207.9603 Y33.5746
G01 X208.3704 Y34.3221
G01 X208.4397 Y34.4561
G01 X208.8168 Y35.2208
G01 X208.8801 Y35.3577
G01 X209.2235 Y36.1381
G01 X209.2809 Y36.2777
G01 X209.5899 Y37.0723
G01 X209.6411 Y37.2142
G01 X209.9151 Y38.0216
G01 X209.9601 Y38.1656
G01 X210.1987 Y38.9841
G01 X210.2373 Y39.1300
G01 X210.4399 Y39.9582
G01 X210.4722 Y40.1056
G01 X210.6385 Y40.9418
G01 X210.6643 Y41.0904
G01 X210.7940 Y41.9331
G01 X210.8132 Y42.0828
G01 X210.9061 Y42.9303
G01 X210.9188 Y43.0806
G01 X210.9745 Y43.9314
G01 X210.9807 Y44.0822
G01 X210.9993 Y44.9346
G01 X210.9996 Y109.4673
G01 X210.9997 Y120.4673
G01 X211.0000 Y185.0000
G01 X210.9803 Y185.9378
G01 X210.9732 Y186.0886
G01 X210.9175 Y186.9393
G01 X210.9039 Y187.0896
G01 X210.8111 Y187.9371
G01 X210.7909 Y188.0867
G01 X210.6612 Y188.9293
G01 X210.6346 Y189.0779
G01 X210.4683 Y189.9141
G01 X210.4352 Y190.0613
G01 X210.2325 Y190.8894
G01 X210.1931 Y191.0351
G01 X209.9545 Y191.8536
G01 X209.9087 Y191.9974
G01 X209.6346 Y192.8047
G01 X209.5826 Y192.9464
G01 X209.2736 Y193.7410
G01 X209.2155 Y193.8802
G01 X208.8721 Y194.6606
G01 X208.8079 Y194.7972
G01 X208.4308 Y195.5618
G01 X208.3608 Y195.6955
G01 X207.9507 Y196.4430
G01 X207.8749 Y196.5734
G01 X207.4326 Y197.3023
G01 X207.3511 Y197.4293
G01 X206.8774 Y198.1382
G01 X206.7905 Y198.2616
G01 X206.2864 Y198.9492
G01 X206.1942 Y199.0686
G01 X205.6605 Y199.7335
G01 X205.5632 Y199.8488
G01 X205.0011 Y200.4898
G01 X204.8988 Y200.6008
G01 X204.3092 Y201.2167
G01 X204.2022 Y201.3231
G01 X203.5863 Y201.9126
G01 X203.4748 Y202.0143
G01 X202.8338 Y202.5764
G01 X202.7179 Y202.6731
G01 X202.0530 Y203.2067
G01 X201.9330 Y203.2982
G01 X201.2455 Y203.8024
G01 X201.1216 Y203.8886
G01 X200.4127 Y204.3622
G01 X200.2852 Y204.4429
G01 X199.5563 Y204.8852
G01 X199.4254 Y204.9603
G01 X198.6779 Y205.3704
G01 X198.5439 Y205.4397
G01 X197.7792 Y205.8168
G01 X197.6423 Y205.8801
G01 X196.8619 Y206.2235
G01 X196.7223 Y206.2809
G01 X195.9277 Y206.5899
G01 X195.7858 Y206.6411
G01 X194.9784 Y206.9151
G01 X194.8344 Y206.9601
G01 X194.0159 Y207.1987
G01 X193.8700 Y207.2373
G01 X193.0418 Y207.4399
G01 X192.8944 Y207.4722
G01 X192.0582 Y207.6385
G01 X191.9096 Y207.6643
G01 X191.0669 Y207.7940
G01 X190.9172 Y207.8132
G01 X190.0697 Y207.9061
G01 X189.9194 Y207.9188
G01 X189.0686 Y207.9745
G01 X188.9178 Y207.9807
G01 X188.0654 Y207.9993
G01 X187.9800 Y208.0000
G01 X153.4900
G01 X142.4900
G01 X108.0000
G01 X107.0622 Y207.9803
G01 X106.9114 Y207.9732
G01 X106.0607 Y207.9175
G01 X105.9104 Y207.9039
G01 X105.0629 Y207.8111
G01 X104.9133 Y207.7909
G01 X104.0707 Y207.6612
G01 X103.9221 Y207.6346
G01 X103.0859 Y207.4683
G01 X102.9387 Y207.4352
G01 X102.1106 Y207.2325
G01 X101.9649 Y207.1931
G01 X101.1464 Y206.9545
G01 X101.0026 Y206.9087
G01 X100.1953 Y206.6346
G01 X100.0536 Y206.5826
G01 X99.2590 Y206.2736
G01 X99.1198 Y206.2155
G01 X98.3394 Y205.8721
G01 X98.2028 Y205.8079
G01 X97.4382 Y205.4308
G01 X97.3045 Y205.3608
G01 X96.5570 Y204.9507
G01 X96.4266 Y204.8749
G01 X95.6977 Y204.4326
G01 X95.5707 Y204.3511
G01 X94.8618 Y203.8774
G01 X94.7384 Y203.7905
G01 X94.0508 Y203.2864
G01 X93.9314 Y203.1942
G01 X93.2665 Y202.6605
G01 X93.1512 Y202.5632
G01 X92.5102 Y202.0011
G01 X92.3992 Y201.8988
G01 X91.7833 Y201.3092
G01 X91.6769 Y201.2022
G01 X91.0874 Y200.5863
G01 X90.9857 Y200.4748
G01 X90.4236 Y199.8338
G01 X90.3269 Y199.7179
G01 X89.7933 Y199.0530
G01 X89.7018 Y198.9330
G01 X89.1976 Y198.2455
G01 X89.1114 Y198.1216
G01 X88.6378 Y197.4127
G01 X88.5571 Y197.2852
G01 X88.1148 Y196.5563
G01 X88.0397 Y196.4254
G01 X87.6296 Y195.6779
G01 X87.5603 Y195.5439
G01 X87.1832 Y194.7792
G01 X87.1199 Y194.6423
G01 X86.7765 Y193.8619
G01 X86.7191 Y193.7223
G01 X86.4101 Y192.9277
G01 X86.3589 Y192.7858
G01 X86.0849 Y191.9784
G01 X86.0399 Y191.8344
G01 X85.8013 Y191.0159
G01 X85.7627 Y190.8700
G01 X85.5601 Y190.0418
G01 X85.5278 Y189.8944
G01 X85.3615 Y189.0582
G01 X85.3357 Y188.9096
G01 X85.2060 Y188.0669
G01 X85.1868 Y187.9172
G01 X85.0939 Y187.0697
G01 X85.0812 Y186.9194
G01 X85.0255 Y186.0686
G01 X85.0193 Y185.9178
G01 X85.0007 Y185.0654
G01 X85.0004 Y120.5327
G01 X85.0003 Y109.5327
G01 Z-10.0000 F60
G01 X85.0000 Y45.0000 F900
G01 X85.0197 Y44.0622
G01 X85.0268 Y43.9114
G01 X85.0825 Y43.0607
G01 X85.0961 Y42.9104
G01 X85.1889 Y42.0629
G01 X85.2091 Y41.9133
G01 X85.3388 Y41.0707
G01 X85.3654 Y40.9221
G01 X85.5317 Y40.0859
G01 X85.5648 Y39.9387
G01 X85.7675 Y39.1106
G01 X85.8069 Y38.9649
G01 X86.0455 Y38.1464
G01 X86.0913 Y38.0026
G01 X86.3654 Y37.1953
G01 X86.4174 Y37.0536
G01 X86.7264 Y36.2590
G01 X86.7845 Y36.1198
G01 X87.1279 Y35.3394
G01 X87.1921 Y35.2028
G01 X87.5692 Y34.4382
G01 X87.6392 Y34.3045
G01 X88.0493 Y33.5570
G01 X88.1251 Y33.4266
G01 X88.5674 Y32.6977
G01 X88.6489 Y32.5707
G01 X89.1226 Y31.8618
G01 X89.2095 Y31.7384
G01 X89.7136 Y31.0508
G01 X89.8058 Y30.9314
G01 X90.3395 Y30.2665
G01 X90.4368 Y30.1512
G01 X90.9989 Y29.5102
G01 X91.1012 Y29.3992
G01 X91.6908 Y28.7833
G01 X91.7978 Y28.6769
G01 X92.4137 Y28.0874
G01 X92.5252 Y27.9857
G01 X93.1662 Y27.4236
G01 X93.2821 Y27.3269
G01 X93.9470 Y26.7933
G01 X94.0670 Y26.7018
G01 X94.7545 Y26.1976
G01 X94.8784 Y26.1114
G01 X95.5873 Y25.6378
G01 X95.7148 Y25.5571
G01 X96.4437 Y25.1148
G01 X96.5746 Y25.0397
G01 X97.3221 Y24.6296
G01 X97.4561 Y24.5603
G01 X98.2208 Y24.1832
G01 X98.3577 Y24.1199
G01 X99.1381 Y23.7765
G01 X99.2777 Y23.7191
G01 X100.0723 Y23.4101
G01 X100.2142 Y23.3589
G01 X101.0216 Y23.0849
G01 X101.1656 Y23.0399
G01 X101.9841 Y22.8013
G01 X102.1300 Y22.7627
G01 X102.9582 Y22.5601
G01 X103.1056 Y22.5278
G01 X103.9418 Y22.3615
G01 X104.0904 Y22.3357
G01 X104.9331 Y22.2060
G01 X105.0828 Y22.1868
G01 X105.9303 Y22.0939
G01 X106.0806 Y22.0812
G01 X106.9314 Y22.0255
G01 X107.0822 Y22.0193
G01 X107.9346 Y22.0007
G01 X108.0200 Y22.0000
G01 X142.5100
G01 X153.5100
G01 X188.0000
G01 X188.9378 Y22.0197
G01 X189.0886 Y22.0268
G01 X189.9393 Y22.0825
G01 X190.0896 Y22.0961
G01 X190.9371 Y22.1889
G01 X191.0867 Y22.2091
G01 X191.9293 Y22.3388
G01 X192.0779 Y22.3654
G01 X192.9141 Y22.5317
G01 X193.0613 Y22.5648
G01 X193.8894 Y22.7675
G01 X194.0351 Y22.8069
G01 X194.8536 Y23.0455
G01 X194.9974 Y23.0913
G01 X195.8047 Y23.3654
G01 X195.9464 Y23.4174
G01 X196.7410 Y23.7264
G01 X196.8802 Y23.7845
G01 X197.6606 Y24.1279
G01 X197.7972 Y24.1921
G01 X198.5618 Y24.5692
G01 X198.6955 Y24.6392
G01 X199.4430 Y25.0493
G01 X199.5734 Y25.1251
G01 X200.3023 Y25.5674
G01 X200.4293 Y25.6489
G01 X201.1382 Y26.1226
G01 X201.2616 Y26.2095
G01 X201.9492 Y26.7136
G01 X202.0686 Y26.8058
G01 X202.7335 Y27.3395
G01 X202.8488 Y27.4368
G01 X203.4898 Y27.9989
G01 X203.6008 Y28.1012
G01 X204.2167 Y28.6908
G01 X204.3231 Y28.7978
G01 X204.9126 Y29.4137
G01 X205.0143 Y29.5252
G01 X205.5764 Y30.1662
G01 X205.6731 Y30.2821
G01 X206.2067 Y30.9470
G01 X206.2982 Y31.0670
G01 X206.8024 Y31.7545
G01 X206.8886 Y31.8784
G01 X207.3622 Y32.5873
G01 X207.4429 Y32.7148
G01 X207.8852 Y33.4437
G01 X207.9603 Y33.5746
G01 X208.3704 Y34.3221
G01 X208.4397 Y34.4561
G01 X208.8168 Y35.2208
G01 X208.8801 Y35.3577
G01 X209.2235 Y36.1381
G01 X209.2809 Y36.2777
G01 X209.5899 Y37.0723
G01 X209.6411 Y37.2142
G01 X209.9151 Y38.0216
G01 X209.9601 Y38.1656
G01 X210.1987 Y38.9841
G01 X210.2373 Y39.1300
G01 X210.4399 Y39.9582
G01 X210.4722 Y40.1056
G01 X210.6385 Y40.9418
G01 X210.6643 Y41.0904
G01 X210.7940 Y41.9331
G01 X210.8132 Y42.0828
G01 X210.9061 Y42.9303
G01 X210.9188 Y43.0806
G01 X210.9745 Y43.9314
G01 X210.9807 Y44.0822
G01 X210.9993 Y44.9346
G01 X210.9996 Y109.4673
G01 X210.9997 Y120.4673
G01 X211.0000 Y185.0000
G01 X210.9803 Y185.9378
G01 X210.9732 Y186.0886
G01 X210.9175 Y186.9393
G01 X210.9039 Y187.0896
G01 X210.8111 Y187.9371
G01 X210.7909 Y188.0867
G01 X210.6612 Y188.9293
G01 X210.6346 Y189.0779
G01 X210.4683 Y189.9141
G01 X210.4352 Y190.0613
G01 X210.2325 Y190.8894
G01 X210.1931 Y191.0351
G01 X209.9545 Y191.8536
G01 X209.9087 Y191.9974
G01 X209.6346 Y192.8047
G01 X209.5826 Y192.9464
G01 X209.2736 Y193.7410
G01 X209.2155 Y193.8802
G01 X208.8721 Y194.6606
G01 X208.8079 Y194.7972
G01 X208.4308 Y195.5618
G01 X208.3608 Y195.6955
G01 X207.9507 Y196.4430
G01 X207.8749 Y196.5734
G01 X207.4326 Y197.3023
G01 X207.3511 Y197.4293
G01 X206.8774 Y198.1382
G01 X206.7905 Y198.2616
G01 X206.2864 Y198.9492
G01 X206.1942 Y199.0686
G01 X205.6605 Y199.7335
G01 X205.5632 Y199.8488
G01 X205.0011 Y200.4898
G01 X204.8988 Y200.6008
G01 X204.3092 Y201.2167
G01 X204.2022 Y201.3231
G01 X203.5863 Y201.9126
G01 X203.4748 Y202.0143
G01 X202.8338 Y202.5764
G01 X202.7179 Y202.6731
G01 X202.0530 Y203.2067
G01 X201.9330 Y203.2982
G01 X201.2455 Y203.8024
G01 X201.1216 Y203.8886
G01 X200.4127 Y204.3622
G01 X200.2852 Y204.4429
G01 X199.5563 Y204.8852
G01 X199.4254 Y204.9603
G01 X198.6779 Y205.3704
G01 X198.5439 Y205.4397
G01 X197.7792 Y205.8168
G01 X197.6423 Y205.8801
G01 X196.8619 Y206.2235
G01 X196.7223 Y206.2809
G01 X195.9277 Y206.5899
G01 X195.7858 Y206.6411
G01 X194.9784 Y206.9151
G01 X194.8344 Y206.9601
G01 X194.0159 Y207.1987
G01 X193.8700 Y207.2373
G01 X193.0418 Y207.4399
G01 X192.8944 Y207.4722
G01 X192.0582 Y207.6385
G01 X191.9096 Y207.6643
G01 X191.0669 Y207.7940
G01 X190.9172 Y207.8132
G01 X190.0697 Y207.9061
G01 X189.9194 Y207.9188
G01 X189.0686 Y207.9745
G01 X188.9178 Y207.9807
G01 X188.0654 Y207.9993
G01 X187.9800 Y208.0000
G01 X153.4900
G01 X142.4900
G01 X108.0000
G01 X107.0622 Y207.9803
G01 X106.9114 Y207.9732
G01 X106.0607 Y207.9175
G01 X105.9104 Y207.9039
G01 X105.0629 Y207.8111
G01 X104.9133 Y207.7909
G01 X104.0707 Y207.6612
G01 X103.9221 Y207.6346
G01 X103.0859 Y207.4683
G01 X102.9387 Y207.4352
G01 X102.1106 Y207.2325
G01 X101.9649 Y207.1931
G01 X101.1464 Y206.9545
G01 X101.0026 Y206.9087
G01 X100.1953 Y206.6346
G01 X100.0536 Y206.5826
G01 X99.2590 Y206.2736
G01 X99.1198 Y206.2155
G01 X98.3394 Y205.8721
G01 X98.2028 Y205.8079
G01 X97.4382 Y205.4308
G01 X97.3045 Y205.3608
G01 X96.5570 Y204.9507
G01 X96.4266 Y204.8749
G01 X95.6977 Y204.4326
G01 X95.5707 Y204.3511
G01 X94.8618 Y203.8774
G01 X94.7384 Y203.7905
G01 X94.0508 Y203.2864
G01 X93.9314 Y203.1942
G01 X93.2665 Y202.6605
G01 X93.1512 Y202.5632
G01 X92.5102 Y202.0011
G01 X92.3992 Y201.8988
G01 X91.7833 Y201.3092
G01 X91.6769 Y201.2022
G01 X91.0874 Y200.5863
G01 X90.9857 Y200.4748
G01 X90.4236 Y199.8338
G01 X90.3269 Y199.7179
G01 X89.7933 Y199.0530
G01 X89.7018 Y198.9330
G01 X89.1976 Y198.2455
G01 X89.1114 Y198.1216
G01 X88.6378 Y197.4127
G01 X88.5571 Y197.2852
G01 X88.1148 Y196.5563
G01 X88.0397 Y196.4254
G01 X87.6296 Y195.6779
G01 X87.5603 Y195.5439
G01 X87.1832 Y194.7792
G01 X87.1199 Y194.6423
G01 X86.7765 Y193.8619
G01 X86.7191 Y193.7223
G01 X86.4101 Y192.9277
G01 X86.3589 Y192.7858
G01 X86.0849 Y191.9784
G01 X86.0399 Y191.8344
G01 X85.8013 Y191.0159
G01 X85.7627 Y190.8700
G01 X85.5601 Y190.0418
G01 X85.5278 Y189.8944
G01 X85.3615 Y189.0582
G01 X85.3357 Y188.9096
G01 X85.2060 Y188.0669
G01 X85.1868 Y187.9172
G01 X85.0939 Y187.0697
G01 X85.0812 Y186.9194
G01 X85.0255 Y186.0686
G01 X85.0193 Y185.9178
G01 X85.0007 Y185.0654
G01 X85.0004 Y120.5327
G01 X85.0003 Y109.5327
G01 Z-12.0000 F60
G01 X85.0000 Y45.0000 F900
G01 X85.0197 Y44.0622
G01 X85.0268 Y43.9114
G01 X85.0825 Y43.0607
G01 X85.0961 Y42.9104
G01 X85.1889 Y42.0629
G01 X85.2091 Y41.9133
G01 X85.3388 Y41.0707
G01 X85.3654 Y40.9221
G01 X85.5317 Y40.0859
G01 X85.5648 Y39.9387
G01 X85.7675 Y39.1106
G01 X85.8069 Y38.9649
G01 X86.0455 Y38.1464
G01 X86.0913 Y38.0026
G01 X86.3654 Y37.1953
G01 X86.4174 Y37.0536
G01 X86.7264 Y36.2590
G01 X86.7845 Y36.1198
G01 X87.1279 Y35.3394
G01 X87.1921 Y35.2028
G01 X87.5692 Y34.4382
G01 X87.6392 Y34.3045
G01 X88.0493 Y33.5570
G01 X88.1251 Y33.4266
G01 X88.5674 Y32.6977
G01 X88.6489 Y32.5707
G01 X89.1226 Y31.8618
G01 X89.2095 Y31.7384
G01 X89.7136 Y31.0508
G01 X89.8058 Y30.9314
G01 X90.3395 Y30.2665
G01 X90.4368 Y30.1512
G01 X90.9989 Y29.5102
G01 X91.1012 Y29.3992
G01 X91.6908 Y28.7833
G01 X91.7978 Y28.6769
G01 X92.4137 Y28.0874
G01 X92.5252 Y27.9857
G01 X93.1662 Y27.4236
G01 X93.2821 Y27.3269
G01 X93.9470 Y26.7933
G01 X94.0670 Y26.7018
G01 X94.7545 Y26.1976
G01 X94.8784 Y26.1114
G01 X95.5873 Y25.6378
G01 X95.7148 Y25.5571
G01 X96.4437 Y25.1148
G01 X96.5746 Y25.0397
G01 X97.3221 Y24.6296
G01 X97.4561 Y24.5603
G01 X98.2208 Y24.1832
G01 X98.3577 Y24.1199
G01 X99.1381 Y23.7765
G01 X99.2777 Y23.7191
G01 X100.0723 Y23.4101
G01 X100.2142 Y23.3589
G01 X101.0216 Y23.0849
G01 X101.1656 Y23.0399
G01 X101.9841 Y22.8013
G01 X102.1300 Y22.7627
G01 X102.9582 Y22.5601
G01 X103.1056 Y22.5278
G01 X103.9418 Y22.3615
G01 X104.0904 Y22.3357
G01 X104.9331 Y22.2060
G01 X105.0828 Y22.1868
G01 X105.9303 Y22.0939
G01 X106.0806 Y22.0812
G01 X106.9314 Y22.0255
G01 X107.0822 Y22.0193
G01 X107.9346 Y22.0007
G01 X108.0200 Y22.0000
G01 X142.5100
G01 X153.5100
G01 X188.0000
G01 X188.9378 Y22.0197
G01 X189.0886 Y22.0268
G01 X189.9393 Y22.0825
G01 X190.0896 Y22.0961
G01 X190.9371 Y22.1889
G01 X191.0867 Y22.2091
G01 X191.9293 Y22.3388
G01 X192.0779 Y22.3654
G01 X192.9141 Y22.5317
G01 X193.0613 Y22.5648
G01 X193.8894 Y22.7675
G01 X194.0351 Y22.8069
G01 X194.8536 Y23.0455
G01 X194.9974 Y23.0913
G01 X195.8047 Y23.3654
G01 X195.9464 Y23.4174
G01 X196.7410 Y23.7264
G01 X196.8802 Y23.7845
G01 X197.6606 Y24.1279
G01 X197.7972 Y24.1921
G01 X198.5618 Y24.5692
G01 X198.6955 Y24.6392
G01 X199.4430 Y25.0493
G01 X199.5734 Y25.1251
G01 X200.3023 Y25.5674
G01 X200.4293 Y25.6489
G01 X201.1382 Y26.1226
G01 X201.2616 Y26.2095
G01 X201.9492 Y26.7136
G01 X202.0686 Y26.8058
G01 X202.7335 Y27.3395
G01 X202.8488 Y27.4368
G01 X203.4898 Y27.9989
G01 X203.6008 Y28.1012
G01 X204.2167 Y28.6908
G01 X204.3231 Y28.7978
G01 X204.9126 Y29.4137
G01 X205.0143 Y29.5252
G01 X205.5764 Y30.1662
G01 X205.6731 Y30.2821
G01 X206.2067 Y30.9470
G01 X206.2982 Y31.0670
G01 X206.8024 Y31.7545
G01 X206.8886 Y31.8784
G01 X207.3622 Y32.5873
G01 X207.4429 Y32.7148
G01 X207.8852 Y33.4437
G01 X207.9603 Y33.5746
G01 X208.3704 Y34.3221
G01 X208.4397 Y34.4561
G01 X208.8168 Y35.2208
G01 X208.8801 Y35.3577
G01 X209.2235 Y36.1381
G01 X209.2809 Y36.2777
G01 X209.5899 Y37.0723
G01 X209.6411 Y37.2142
G01 X209.9151 Y38.0216
G01 X209.9601 Y38.1656
G01 X210.1987 Y38.9841
G01 X210.2373 Y39.1300
G01 X210.4399 Y39.9582
G01 X210.4722 Y40.1056
G01 X210.6385 Y40.9418
G01 X210.6643 Y41.0904
G01 X210.7940 Y41.9331
G01 X210.8132 Y42.0828
G01 X210.9061 Y42.9303
G01 X210.9188 Y43.0806
G01 X210.9745 Y43.9314
G01 X210.9807 Y44.0822
G01 X210.9993 Y44.9346
G01 X210.9996 Y109.4673
G01 X210.9997 Y120.4673
G01 X211.0000 Y185.0000
G01 X210.9803 Y185.9378
G01 X210.9732 Y186.0886
G01 X210.9175 Y186.9393
G01 X210.9039 Y187.0896
G01 X210.8111 Y187.9371
G01 X210.7909 Y188.0867
G01 X210.6612 Y188.9293
G01 X210.6346 Y189.0779
G01 X210.4683 Y189.9141
G01 X210.4352 Y190.0613
G01 X210.2325 Y190.8894
G01 X210.1931 Y191.0351
G01 X209.9545 Y191.8536
G01 X209.9087 Y191.9974
G01 X209.6346 Y192.8047
G01 X209.5826 Y192.9464
G01 X209.2736 Y193.7410
G01 X209.2155 Y193.8802
G01 X208.8721 Y194.6606
G01 X208.8079 Y194.7972
G01 X208.4308 Y195.5618
G01 X208.3608 Y195.6955
G01 X207.9507 Y196.4430
G01 X207.8749 Y196.5734
G01 X207.4326 Y197.3023
G01 X207.3511 Y197.4293
G01 X206.8774 Y198.1382
G01 X206.7905 Y198.2616
G01 X206.2864 Y198.9492
G01 X206.1942 Y199.0686
G01 X205.6605 Y199.7335
G01 X205.5632 Y199.8488
G01 X205.0011 Y200.4898
G01 X204.8988 Y200.6008
G01 X204.3092 Y201.2167
G01 X204.2022 Y201.3231
G01 X203.5863 Y201.9126
G01 X203.4748 Y202.0143
G01 X202.8338 Y202.5764
G01 X202.7179 Y202.6731
G01 X202.0530 Y203.2067
G01 X201.9330 Y203.2982
G01 X201.2455 Y203.8024
G01 X201.1216 Y203.8886
G01 X200.4127 Y204.3622
G01 X200.2852 Y204.4429
G01 X199.5563 Y204.8852
G01 X199.4254 Y204.9603
G01 X198.6779 Y205.3704
G01 X198.5439 Y205.4397
G01 X197.7792 Y205.8168
G01 X197.6423 Y205.8801
G01 X196.8619 Y206.2235
G01 X196.7223 Y206.2809
G01 X195.9277 Y206.5899
G01 X195.7858 Y206.6411
G01 X194.9784 Y206.9151
G01 X194.8344 Y206.9601
G01 X194.0159 Y207.1987
G01 X193.8700 Y207.2373
G01 X193.0418 Y207.4399
G01 X192.8944 Y207.4722
G01 X192.0582 Y207.6385
G01 X191.9096 Y207.6643
G01 X191.0669 Y207.7940
G01 X190.9172 Y207.8132
G01 X190.0697 Y207.9061
G01 X189.9194 Y207.9188
G01 X189.0686 Y207.9745
G01 X188.9178 Y207.9807
G01 X188.0654 Y207.9993
G01 X187.9800 Y208.0000
G01 X153.4900
G01 X142.4900
G01 X108.0000
G01 X107.0622 Y207.9803
G01 X106.9114 Y207.9732
G01 X106.0607 Y207.9175
G01 X105.9104 Y207.9039
G01 X105.0629 Y207.8111
G01 X104.9133 Y207.7909
G01 X104.0707 Y207.6612
G01 X103.9221 Y207.6346
G01 X103.0859 Y207.4683
G01 X102.9387 Y207.4352
G01 X102.1106 Y207.2325
G01 X101.9649 Y207.1931
G01 X101.1464 Y206.9545
G01 X101.0026 Y206.9087
G01 X100.1953 Y206.6346
G01 X100.0536 Y206.5826
G01 X99.2590 Y206.2736
G01 X99.1198 Y206.2155
G01 X98.3394 Y205.8721
G01 X98.2028 Y205.8079
G01 X97.4382 Y205.4308
G01 X97.3045 Y205.3608
G01 X96.5570 Y204.9507
G01 X96.4266 Y204.8749
G01 X95.6977 Y204.4326
G01 X95.5707 Y204.3511
G01 X94.8618 Y203.8774
G01 X94.7384 Y203.7905
G01 X94.0508 Y203.2864
G01 X93.9314 Y203.1942
G01 X93.2665 Y202.6605
G01 X93.1512 Y202.5632
G01 X92.5102 Y202.0011
G01 X92.3992 Y201.8988
G01 X91.7833 Y201.3092
G01 X91.6769 Y201.2022
G01 X91.0874 Y200.5863
G01 X90.9857 Y200.4748
G01 X90.4236 Y199.8338
G01 X90.3269 Y199.7179
G01 X89.7933 Y199.0530
G01 X89.7018 Y198.9330
G01 X89.1976 Y198.2455
G01 X89.1114 Y198.1216
G01 X88.6378 Y197.4127
G01 X88.5571 Y197.2852
G01 X88.1148 Y196.5563
G01 X88.0397 Y196.4254
G01 X87.6296 Y195.6779
G01 X87.5603 Y195.5439
G01 X87.1832 Y194.7792
G01 X87.1199 Y194.6423
G01 X86.7765 Y193.8619
G01 X86.7191 Y193.7223
G01 X86.4101 Y192.9277
G01 X86.3589 Y192.7858
G01 X86.0849 Y191.9784
G01 X86.0399 Y191.8344
G01 X85.8013 Y191.0159
G01 X85.7627 Y190.8700
G01 X85.5601 Y190.0418
G01 X85.5278 Y189.8944
G01 X85.3615 Y189.0582
G01 X85.3357 Y188.9096
G01 X85.2060 Y188.0669
G01 X85.1868 Y187.9172
G01 X85.0939 Y187.0697
G01 X85.0812 Y186.9194
G01 X85.0255 Y186.0686
G01 X85.0193 Y185.9178
G01 X85.0007 Y185.0654
G01 X85.0004 Y120.5327
G01 X85.0003 Y109.5327
G01 Z-14.0000 F60
G01 X85.0000 Y45.0000 F900
G01 X85.0197 Y44.0622
G01 X85.0268 Y43.9114
G01 X85.0825 Y43.0607
G01 X85.0961 Y42.9104
G01 X85.1889 Y42.0629
G01 X85.2091 Y41.9133
G01 X85.3388 Y41.0707
G01 X85.3654 Y40.9221
G01 X85.5317 Y40.0859
G01 X85.5648 Y39.9387
G01 X85.7675 Y39.1106
G01 X85.8069 Y38.9649
G01 X86.0455 Y38.1464
G01 X86.0913 Y38.0026
G01 X86.3654 Y37.1953
G01 X86.4174 Y37.0536
G01 X86.7264 Y36.2590
G01 X86.7845 Y36.1198
G01 X87.1279 Y35.3394
G01 X87.1921 Y35.2028
G01 X87.5692 Y34.4382
G01 X87.6392 Y34.3045
G01 X88.0493 Y33.5570
G01 X88.1251 Y33.4266
G01 X88.5674 Y32.6977
G01 X88.6489 Y32.5707
G01 X89.1226 Y31.8618
G01 X89.2095 Y31.7384
G01 X89.7136 Y31.0508
G01 X89.8058 Y30.9314
G01 X90.3395 Y30.2665
G01 X90.4368 Y30.1512
G01 X90.9989 Y29.5102
G01 X91.1012 Y29.3992
G01 X91.6908 Y28.7833
G01 X91.7978 Y28.6769
G01 X92.4137 Y28.0874
G01 X92.5252 Y27.9857
G01 X93.1662 Y27.4236
G01 X93.2821 Y27.3269
G01 X93.9470 Y26.7933
G01 X94.0670 Y26.7018
G01 X94.7545 Y26.1976
G01 X94.8784 Y26.1114
G01 X95.5873 Y25.6378
G01 X95.7148 Y25.5571
G01 X96.4437 Y25.1148
G01 X96.5746 Y25.0397
G01 X97.3221 Y24.6296
G01 X97.4561 Y24.5603
G01 X98.2208 Y24.1832
G01 X98.3577 Y24.1199
G01 X99.1381 Y23.7765
G01 X99.2777 Y23.7191
G01 X100.0723 Y23.4101
G01 X100.2142 Y23.3589
G01 X101.0216 Y23.0849
G01 X101.1656 Y23.0399
G01 X101.9841 Y22.8013
G01 X102.1300 Y22.7627
G01 X102.9582 Y22.5601
G01 X103.1056 Y22.5278
G01 X103.9418 Y22.3615
G01 X104.0904 Y22.3357
G01 X104.9331 Y22.2060
G01 X105.0828 Y22.1868
G01 X105.9303 Y22.0939
G01 X106.0806 Y22.0812
G01 X106.9314 Y22.0255
G01 X107.0822 Y22.0193
G01 X107.9346 Y22.0007
G01 X108.0200 Y22.0000
G01 X142.5100
G01 X153.5100
G01 X188.0000
G01 X188.9378 Y22.0197
G01 X189.0886 Y22.0268
G01 X189.9393 Y22.0825
G01 X190.0896 Y22.0961
G01 X190.9371 Y22.1889
G01 X191.0867 Y22.2091
G01 X191.9293 Y22.3388
G01 X192.0779 Y22.3654
G01 X192.9141 Y22.5317
G01 X193.0613 Y22.5648
G01 X193.8894 Y22.7675
G01 X194.0351 Y22.8069
G01 X194.8536 Y23.0455
G01 X194.9974 Y23.0913
G01 X195.8047 Y23.3654
G01 X195.9464 Y23.4174
G01 X196.7410 Y23.7264
G01 X196.8802 Y23.7845
G01 X197.6606 Y24.1279
G01 X197.7972 Y24.1921
G01 X198.5618 Y24.5692
G01 X198.6955 Y24.6392
G01 X199.4430 Y25.0493
G01 X199.5734 Y25.1251
G01 X200.3023 Y25.5674
G01 X200.4293 Y25.6489
G01 X201.1382 Y26.1226
G01 X201.2616 Y26.2095
G01 X201.9492 Y26.7136
G01 X202.0686 Y26.8058
G01 X202.7335 Y27.3395
G01 X202.8488 Y27.4368
G01 X203.4898 Y27.9989
G01 X203.6008 Y28.1012
G01 X204.2167 Y28.6908
G01 X204.3231 Y28.7978
G01 X204.9126 Y29.4137
G01 X205.0143 Y29.5252
G01 X205.5764 Y30.1662
G01 X205.6731 Y30.2821
G01 X206.2067 Y30.9470
G01 X206.2982 Y31.0670
G01 X206.8024 Y31.7545
G01 X206.8886 Y31.8784
G01 X207.3622 Y32.5873
G01 X207.4429 Y32.7148
G01 X207.8852 Y33.4437
G01 X207.9603 Y33.5746
G01 X208.3704 Y34.3221
G01 X208.4397 Y34.4561
G01 X208.8168 Y35.2208
G01 X208.8801 Y35.3577
G01 X209.2235 Y36.1381
G01 X209.2809 Y36.2777
G01 X209.5899 Y37.0723
G01 X209.6411 Y37.2142
G01 X209.9151 Y38.0216
G01 X209.9601 Y38.1656
G01 X210.1987 Y38.9841
G01 X210.2373 Y39.1300
G01 X210.4399 Y39.9582
G01 X210.4722 Y40.1056
G01 X210.6385 Y40.9418
G01 X210.6643 Y41.0904
G01 X210.7940 Y41.9331
G01 X210.8132 Y42.0828
G01 X210.9061 Y42.9303
G01 X210.9188 Y43.0806
G01 X210.9745 Y43.9314
G01 X210.9807 Y44.0822
G01 X210.9993 Y44.9346
G01 X210.9996 Y109.4673
G01 X210.9997 Y120.4673
G01 X211.0000 Y185.0000
G01 X210.9803 Y185.9378
G01 X210.9732 Y186.0886
G01 X210.9175 Y186.9393
G01 X210.9039 Y187.0896
G01 X210.8111 Y187.9371
G01 X210.7909 Y188.0867
G01 X210.6612 Y188.9293
G01 X210.6346 Y189.0779
G01 X210.4683 Y189.9141
G01 X210.4352 Y190.0613
G01 X210.2325 Y190.8894
G01 X210.1931 Y191.0351
G01 X209.9545 Y191.8536
G01 X209.9087 Y191.9974
G01 X209.6346 Y192.8047
G01 X209.5826 Y192.9464
G01 X209.2736 Y193.7410
G01 X209.2155 Y193.8802
G01 X208.8721 Y194.6606
G01 X208.8079 Y194.7972
G01 X208.4308 Y195.5618
G01 X208.3608 Y195.6955
G01 X207.9507 Y196.4430
G01 X207.8749 Y196.5734
G01 X207.4326 Y197.3023
G01 X207.3511 Y197.4293
G01 X206.8774 Y198.1382
G01 X206.7905 Y198.2616
G01 X206.2864 Y198.9492
G01 X206.1942 Y199.0686
G01 X205.6605 Y199.7335
G01 X205.5632 Y199.8488
G01 X205.0011 Y200.4898
G01 X204.8988 Y200.6008
G01 X204.3092 Y201.2167
G01 X204.2022 Y201.3231
G01 X203.5863 Y201.9126
G01 X203.4748 Y202.0143
G01 X202.8338 Y202.5764
G01 X202.7179 Y202.6731
G01 X202.0530 Y203.2067
G01 X201.9330 Y203.2982
G01 X201.2455 Y203.8024
G01 X201.1216 Y203.8886
G01 X200.4127 Y204.3622
G01 X200.2852 Y204.4429
G01 X199.5563 Y204.8852
G01 X199.4254 Y204.9603
G01 X198.6779 Y205.3704
G01 X198.5439 Y205.4397
G01 X197.7792 Y205.8168
G01 X197.6423 Y205.8801
G01 X196.8619 Y206.2235
G01 X196.7223 Y206.2809
G01 X195.9277 Y206.5899
G01 X195.7858 Y206.6411
G01 X194.9784 Y206.9151
G01 X194.8344 Y206.9601
G01 X194.0159 Y207.1987
G01 X193.8700 Y207.2373
G01 X193.0418 Y207.4399
G01 X192.8944 Y207.4722
G01 X192.0582 Y207.6385
G01 X191.9096 Y207.6643
G01 X191.0669 Y207.7940
G01 X190.9172 Y207.8132
G01 X190.0697 Y207.9061
G01 X189.9194 Y207.9188
G01 X189.0686 Y207.9745
G01 X188.9178 Y207.9807
G01 X188.0654 Y207.9993
G01 X187.9800 Y208.0000
G01 X153.4900
G01 X142.4900
G01 X108.0000
G01 X107.0622 Y207.9803
G01 X106.9114 Y207.9732
G01 X106.0607 Y207.9175
G01 X105.9104 Y207.9039
G01 X105.0629 Y207.8111
G01 X104.9133 Y207.7909
G01 X104.0707 Y207.6612
G01 X103.9221 Y207.6346
G01 X103.0859 Y207.4683
G01 X102.9387 Y207.4352
G01 X102.1106 Y207.2325
G01 X101.9649 Y207.1931
G01 X101.1464 Y206.9545
G01 X101.0026 Y206.9087
G01 X100.1953 Y206.6346
G01 X100.0536 Y206.5826
G01 X99.2590 Y206.2736
G01 X99.1198 Y206.2155
G01 X98.3394 Y205.8721
G01 X98.2028 Y205.8079
G01 X97.4382 Y205.4308
G01 X97.3045 Y205.3608
G01 X96.5570 Y204.9507
G01 X96.4266 Y204.8749
G01 X95.6977 Y204.4326
G01 X95.5707 Y204.3511
G01 X94.8618 Y203.8774
G01 X94.7384 Y203.7905
G01 X94.0508 Y203.2864
G01 X93.9314 Y203.1942
G01 X93.2665 Y202.6605
G01 X93.1512 Y202.5632
G01 X92.5102 Y202.0011
G01 X92.3992 Y201.8988
G01 X91.7833 Y201.3092
G01 X91.6769 Y201.2022
G01 X91.0874 Y200.5863
G01 X90.9857 Y200.4748
G01 X90.4236 Y199.8338
G01 X90.3269 Y199.7179
G01 X89.7933 Y199.0530
G01 X89.7018 Y198.9330
G01 X89.1976 Y198.2455
G01 X89.1114 Y198.1216
G01 X88.6378 Y197.4127
G01 X88.5571 Y197.2852
G01 X88.1148 Y196.5563
G01 X88.0397 Y196.4254
G01 X87.6296 Y195.6779
G01 X87.5603 Y195.5439
G01 X87.1832 Y194.7792
G01 X87.1199 Y194.6423
G01 X86.7765 Y193.8619
G01 X86.7191 Y193.7223
G01 X86.4101 Y192.9277
G01 X86.3589 Y192.7858
G01 X86.0849 Y191.9784
G01 X86.0399 Y191.8344
G01 X85.8013 Y191.0159
G01 X85.7627 Y190.8700
G01 X85.5601 Y190.0418
G01 X85.5278 Y189.8944
G01 X85.3615 Y189.0582
G01 X85.3357 Y188.9096
G01 X85.2060 Y188.0669
G01 X85.1868 Y187.9172
G01 X85.0939 Y187.0697
G01 X85.0812 Y186.9194
G01 X85.0255 Y186.0686
G01 X85.0193 Y185.9178
G01 X85.0007 Y185.0654
G01 X85.0004 Y120.5327
G01 X85.0003 Y109.5327
G01 Z-16.0000 F60
G01 X85.0000 Y45.0000 F900
G01 X85.0197 Y44.0622
G01 X85.0268 Y43.9114
G01 X85.0825 Y43.0607
G01 X85.0961 Y42.9104
G01 X85.1889 Y42.0629
G01 X85.2091 Y41.9133
G01 X85.3388 Y41.0707
G01 X85.3654 Y40.9221
G01 X85.5317 Y40.0859
G01 X85.5648 Y39.9387
G01 X85.7675 Y39.1106
G01 X85.8069 Y38.9649
G01 X86.0455 Y38.1464
G01 X86.0913 Y38.0026
G01 X86.3654 Y37.1953
G01 X86.4174 Y37.0536
G01 X86.7264 Y36.2590
G01 X86.7845 Y36.1198
G01 X87.1279 Y35.3394
G01 X87.1921 Y35.2028
G01 X87.5692 Y34.4382
G01 X87.6392 Y34.3045
G01 X88.0493 Y33.5570
G01 X88.1251 Y33.4266
G01 X88.5674 Y32.6977
G01 X88.6489 Y32.5707
G01 X89.1226 Y31.8618
G01 X89.2095 Y31.7384
G01 X89.7136 Y31.0508
G01 X89.8058 Y30.9314
G01 X90.3395 Y30.2665
G01 X90.4368 Y30.1512
G01 X90.9989 Y29.5102
G01 X91.1012 Y29.3992
G01 X91.6908 Y28.7833
G01 X91.7978 Y28.6769
G01 X92.4137 Y28.0874
G01 X92.5252 Y27.9857
G01 X93.1662 Y27.4236
G01 X93.2821 Y27.3269
G01 X93.9470 Y26.7933
G01 X94.0670 Y26.7018
G01 X94.7545 Y26.1976
G01 X94.8784 Y26.1114
G01 X95.5873 Y25.6378
G01 X95.7148 Y25.5571
G01 X96.4437 Y25.1148
G01 X96.5746 Y25.0397
G01 X97.3221 Y24.6296
G01 X97.4561 Y24.5603
G01 X98.2208 Y24.1832
G01 X98.3577 Y24.1199
G01 X99.1381 Y23.7765
G01 X99.2777 Y23.7191
G01 X100.0723 Y23.4101
G01 X100.2142 Y23.3589
G01 X101.0216 Y23.0849
G01 X101.1656 Y23.0399
G01 X101.9841 Y22.8013
G01 X102.1300 Y22.7627
G01 X102.9582 Y22.5601
G01 X103.1056 Y22.5278
G01 X103.9418 Y22.3615
G01 X104.0904 Y22.3357
G01 X104.9331 Y22.2060
G01 X105.0828 Y22.1868
G01 X105.9303 Y22.0939
G01 X106.0806 Y22.0812
G01 X106.9314 Y22.0255
G01 X107.0822 Y22.0193
G01 X107.9346 Y22.0007
G01 X108.0200 Y22.0000
G01 X142.5100
G01 X153.5100
G01 X188.0000
G01 X188.9378 Y22.0197
G01 X189.0886 Y22.0268
G01 X189.9393 Y22.0825
G01 X190.0896 Y22.0961
G01 X190.9371 Y22.1889
G01 X191.0867 Y22.2091
G01 X191.9293 Y22.3388
G01 X192.0779 Y22.3654
G01 X192.9141 Y22.5317
G01 X193.0613 Y22.5648
G01 X193.8894 Y22.7675
G01 X194.0351 Y22.8069
G01 X194.8536 Y23.0455
G01 X194.9974 Y23.0913
G01 X195.8047 Y23.3654
G01 X195.9464 Y23.4174
G01 X196.7410 Y23.7264
G01 X196.8802 Y23.7845
G01 X197.6606 Y24.1279
G01 X197.7972 Y24.1921
G01 X198.5618 Y24.5692
G01 X198.6955 Y24.6392
G01 X199.4430 Y25.0493
G01 X199.5734 Y25.1251
G01 X200.3023 Y25.5674
G01 X200.4293 Y25.6489
G01 X201.1382 Y26.1226
G01 X201.2616 Y26.2095
G01 X201.9492 Y26.7136
G01 X202.0686 Y26.8058
G01 X202.7335 Y27.3395
G01 X202.8488 Y27.4368
G01 X203.4898 Y27.9989
G01 X203.6008 Y28.1012
G01 X204.2167 Y28.6908
G01 X204.3231 Y28.7978
G01 X204.9126 Y29.4137
G01 X205.0143 Y29.5252
G01 X205.5764 Y30.1662
G01 X205.6731 Y30.2821
G01 X206.2067 Y30.9470
G01 X206.2982 Y31.0670
G01 X206.8024 Y31.7545
G01 X206.8886 Y31.8784
G01 X207.3622 Y32.5873
G01 X207.4429 Y32.7148
G01 X207.8852 Y33.4437
G01 X207.9603 Y33.5746
G01 X208.3704 Y34.3221
G01 X208.4397 Y34.4561
G01 X208.8168 Y35.2208
G01 X208.8801 Y35.3577
G01 X209.2235 Y36.1381
G01 X209.2809 Y36.2777
G01 X209.5899 Y37.0723
G01 X209.6411 Y37.2142
G01 X209.9151 Y38.0216
G01 X209.9601 Y38.1656
G01 X210.1987 Y38.9841
G01 X210.2373 Y39.1300
G01 X210.4399 Y39.9582
G01 X210.4722 Y40.1056
G01 X210.6385 Y40.9418
G01 X210.6643 Y41.0904
G01 X210.7940 Y41.9331
G01 X210.8132 Y42.0828
G01 X210.9061 Y42.9303
G01 X210.9188 Y43.0806
G01 X210.9745 Y43.9314
G01 X210.9807 Y44.0822
G01 X210.9993 Y44.9346
G01 X210.9996 Y109.4673
G01 X210.9997 Y120.4673
G01 X211.0000 Y185.0000
G01 X210.9803 Y185.9378
G01 X210.9732 Y186.0886
G01 X210.9175 Y186.9393
G01 X210.9039 Y187.0896
G01 X210.8111 Y187.9371
G01 X210.7909 Y188.0867
G01 X210.6612 Y188.9293
G01 X210.6346 Y189.0779
G01 X210.4683 Y189.9141
G01 X210.4352 Y190.0613
G01 X210.2325 Y190.8894
G01 X210.1931 Y191.0351
G01 X209.9545 Y191.8536
G01 X209.9087 Y191.9974
G01 X209.6346 Y192.8047
G01 X209.5826 Y192.9464
G01 X209.2736 Y193.7410
G01 X209.2155 Y193.8802
G01 X208.8721 Y194.6606
G01 X208.8079 Y194.7972
G01 X208.4308 Y195.5618
G01 X208.3608 Y195.6955
G01 X207.9507 Y196.4430
G01 X207.8749 Y196.5734
G01 X207.4326 Y197.3023
G01 X207.3511 Y197.4293
G01 X206.8774 Y198.1382
G01 X206.7905 Y198.2616
G01 X206.2864 Y198.9492
G01 X206.1942 Y199.0686
G01 X205.6605 Y199.7335
G01 X205.5632 Y199.8488
G01 X205.0011 Y200.4898
G01 X204.8988 Y200.6008
G01 X204.3092 Y201.2167
G01 X204.2022 Y201.3231
G01 X203.5863 Y201.9126
G01 X203.4748 Y202.0143
G01 X202.8338 Y202.5764
G01 X202.7179 Y202.6731
G01 X202.0530 Y203.2067
G01 X201.9330 Y203.2982
G01 X201.2455 Y203.8024
G01 X201.1216 Y203.8886
G01 X200.4127 Y204.3622
G01 X200.2852 Y204.4429
G01 X199.5563 Y204.8852
G01 X199.4254 Y204.9603
G01 X198.6779 Y205.3704
G01 X198.5439 Y205.4397
G01 X197.7792 Y205.8168
G01 X197.6423 Y205.8801
G01 X196.8619 Y206.2235
G01 X196.7223 Y206.2809
G01 X195.9277 Y206.5899
G01 X195.7858 Y206.6411
G01 X194.9784 Y206.9151
G01 X194.8344 Y206.9601
G01 X194.0159 Y207.1987
G01 X193.8700 Y207.2373
G01 X193.0418 Y207.4399
G01 X192.8944 Y207.4722
G01 X192.0582 Y207.6385
G01 X191.9096 Y207.6643
G01 X191.0669 Y207.7940
G01 X190.9172 Y207.8132
G01 X190.0697 Y207.9061
G01 X189.9194 Y207.9188
G01 X189.0686 Y207.9745
G01 X188.9178 Y207.9807
G01 X188.0654 Y207.9993
G01 X187.9800 Y208.0000
G01 X153.4900
G01 X142.4900
G01 X108.0000
G01 X107.0622 Y207.9803
G01 X106.9114 Y207.9732
G01 X106.0607 Y207.9175
G01 X105.9104 Y207.9039
G01 X105.0629 Y207.8111
G01 X104.9133 Y207.7909
G01 X104.0707 Y207.6612
G01 X103.9221 Y207.6346
G01 X103.0859 Y207.4683
G01 X102.9387 Y207.4352
G01 X102.1106 Y207.2325
G01 X101.9649 Y207.1931
G01 X101.1464 Y206.9545
G01 X101.0026 Y206.9087
G01 X100.1953 Y206.6346
G01 X100.0536 Y206.5826
G01 X99.2590 Y206.2736
G01 X99.1198 Y206.2155
G01 X98.3394 Y205.8721
G01 X98.2028 Y205.8079
G01 X97.4382 Y205.4308
G01 X97.3045 Y205.3608
G01 X96.5570 Y204.9507
G01 X96.4266 Y204.8749
G01 X95.6977 Y204.4326
G01 X95.5707 Y204.3511
G01 X94.8618 Y203.8774
G01 X94.7384 Y203.7905
G01 X94.0508 Y203.2864
G01 X93.9314 Y203.1942
G01 X93.2665 Y202.6605
G01 X93.1512 Y202.5632
G01 X92.5102 Y202.0011
G01 X92.3992 Y201.8988
G01 X91.7833 Y201.3092
G01 X91.6769 Y201.2022
G01 X91.0874 Y200.5863
G01 X90.9857 Y200.4748
G01 X90.4236 Y199.8338
G01 X90.3269 Y199.7179
G01 X89.7933 Y199.0530
G01 X89.7018 Y198.9330
G01 X89.1976 Y198.2455
G01 X89.1114 Y198.1216
G01 X88.6378 Y197.4127
G01 X88.5571 Y197.2852
G01 X88.1148 Y196.5563
G01 X88.0397 Y196.4254
G01 X87.6296 Y195.6779
G01 X87.5603 Y195.5439
G01 X87.1832 Y194.7792
G01 X87.1199 Y194.6423
G01 X86.7765 Y193.8619
G01 X86.7191 Y193.7223
G01 X86.4101 Y192.9277
G01 X86.3589 Y192.7858
G01 X86.0849 Y191.9784
G01 X86.0399 Y191.8344
G01 X85.8013 Y191.0159
G01 X85.7627 Y190.8700
G01 X85.5601 Y190.0418
G01 X85.5278 Y189.8944
G01 X85.3615 Y189.0582
G01 X85.3357 Y188.9096
G01 X85.2060 Y188.0669
G01 X85.1868 Y187.9172
G01 X85.0939 Y187.0697
G01 X85.0812 Y186.9194
G01 X85.0255 Y186.0686
G01 X85.0193 Y185.9178
G01 X85.0007 Y185.0654
G01 X85.0004 Y120.5327
G01 X85.0003 Y109.5327
G01 Z-18.0000 F60
G01 X85.0000 Y45.0000 F900
G01 X85.0197 Y44.0622
G01 X85.0268 Y43.9114
G01 X85.0825 Y43.0607
G01 X85.0961 Y42.9104
G01 X85.1889 Y42.0629
G01 X85.2091 Y41.9133
G01 X85.3388 Y41.0707
G01 X85.3654 Y40.9221
G01 X85.5317 Y40.0859
G01 X85.5648 Y39.9387
G01 X85.7675 Y39.1106
G01 X85.8069 Y38.9649
G01 X86.0455 Y38.1464
G01 X86.0913 Y38.0026
G01 X86.3654 Y37.1953
G01 X86.4174 Y37.0536
G01 X86.7264 Y36.2590
G01 X86.7845 Y36.1198
G01 X87.1279 Y35.3394
G01 X87.1921 Y35.2028
G01 X87.5692 Y34.4382
G01 X87.6392 Y34.3045
G01 X88.0493 Y33.5570
G01 X88.1251 Y33.4266
G01 X88.5674 Y32.6977
G01 X88.6489 Y32.5707
G01 X89.1226 Y31.8618
G01 X89.2095 Y31.7384
G01 X89.7136 Y31.0508
G01 X89.8058 Y30.9314
G01 X90.3395 Y30.2665
G01 X90.4368 Y30.1512
G01 X90.9989 Y29.5102
G01 X91.1012 Y29.3992
G01 X91.6908 Y28.7833
G01 X91.7978 Y28.6769
G01 X92.4137 Y28.0874
G01 X92.5252 Y27.9857
G01 X93.1662 Y27.4236
G01 X93.2821 Y27.3269
G01 X93.9470 Y26.7933
G01 X94.0670 Y26.7018
G01 X94.7545 Y26.1976
G01 X94.8784 Y26.1114
G01 X95.5873 Y25.6378
G01 X95.7148 Y25.5571
G01 X96.4437 Y25.1148
G01 X96.5746 Y25.0397
G01 X97.3221 Y24.6296
G01 X97.4561 Y24.5603
G01 X98.2208 Y24.1832
G01 X98.3577 Y24.1199
G01 X99.1381 Y23.7765
G01 X99.2777 Y23.7191
G01 X100.0723 Y23.4101
G01 X100.2142 Y23.3589
G01 X101.0216 Y23.0849
G01 X101.1656 Y23.0399
G01 X101.9841 Y22.8013
G01 X102.1300 Y22.7627
G01 X102.9582 Y22.5601
G01 X103.1056 Y22.5278
G01 X103.9418 Y22.3615
G01 X104.0904 Y22.3357
G01 X104.9331 Y22.2060
G01 X105.0828 Y22.1868
G01 X105.9303 Y22.0939
G01 X106.0806 Y22.0812
G01 X106.9314 Y22.0255
G01 X107.0822 Y22.0193
G01 X107.9346 Y22.0007
G01 X108.0200 Y22.0000
G01 X142.5100
G01 X153.5100
G01 X188.0000
G01 X188.9378 Y22.0197
G01 X189.0886 Y22.0268
G01 X189.9393 Y22.0825
G01 X190.0896 Y22.0961
G01 X190.9371 Y22.1889
G01 X191.0867 Y22.2091
G01 X191.9293 Y22.3388
G01 X192.0779 Y22.3654
G01 X192.9141 Y22.5317
G01 X193.0613 Y22.5648
G01 X193.8894 Y22.7675
G01 X194.0351 Y22.8069
G01 X194.8536 Y23.0455
G01 X194.9974 Y23.0913
G01 X195.8047 Y23.3654
G01 X195.9464 Y23.4174
G01 X196.7410 Y23.7264
G01 X196.8802 Y23.7845
G01 X197.6606 Y24.1279
G01 X197.7972 Y24.1921
G01 X198.5618 Y24.5692
G01 X198.6955 Y24.6392
G01 X199.4430 Y25.0493
G01 X199.5734 Y25.1251
G01 X200.3023 Y25.5674
G01 X200.4293 Y25.6489
G01 X201.1382 Y26.1226
G01 X201.2616 Y26.2095
G01 X201.9492 Y26.7136
G01 X202.0686 Y26.8058
G01 X202.7335 Y27.3395
G01 X202.8488 Y27.4368
G01 X203.4898 Y27.9989
G01 X203.6008 Y28.1012
G01 X204.2167 Y28.6908
G01 X204.3231 Y28.7978
G01 X204.9126 Y29.4137
G01 X205.0143 Y29.5252
G01 X205.5764 Y30.1662
G01 X205.6731 Y30.2821
G01 X206.2067 Y30.9470
G01 X206.2982 Y31.0670
G01 X206.8024 Y31.7545
G01 X206.8886 Y31.8784
G01 X207.3622 Y32.5873
G01 X207.4429 Y32.7148
G01 X207.8852 Y33.4437
G01 X207.9603 Y33.5746
G01 X208.3704 Y34.3221
G01 X208.4397 Y34.4561
G01 X208.8168 Y35.2208
G01 X208.8801 Y35.3577
G01 X209.2235 Y36.1381
G01 X209.2809 Y36.2777
G01 X209.5899 Y37.0723
G01 X209.6411 Y37.2142
G01 X209.9151 Y38.0216
G01 X209.9601 Y38.1656
G01 X210.1987 Y38.9841
G01 X210.2373 Y39.1300
G01 X210.4399 Y39.9582
G01 X210.4722 Y40.1056
G01 X210.6385 Y40.9418
G01 X210.6643 Y41.0904
G01 X210.7940 Y41.9331
G01 X210.8132 Y42.0828
G01 X210.9061 Y42.9303
G01 X210.9188 Y43.0806
G01 X210.9745 Y43.9314
G01 X210.9807 Y44.0822
G01 X210.9993 Y44.9346
G01 X210.9996 Y109.4673
G01 X210.9997 Y120.4673
G01 X211.0000 Y185.0000
G01 X210.9803 Y185.9378
G01 X210.9732 Y186.0886
G01 X210.9175 Y186.9393
G01 X210.9039 Y187.0896
G01 X210.8111 Y187.9371
G01 X210.7909 Y188.0867
G01 X210.6612 Y188.9293
G01 X210.6346 Y189.0779
G01 X210.4683 Y189.9141
G01 X210.4352 Y190.0613
G01 X210.2325 Y190.8894
G01 X210.1931 Y191.0351
G01 X209.9545 Y191.8536
G01 X209.9087 Y191.9974
G01 X209.6346 Y192.8047
G01 X209.5826 Y192.9464
G01 X209.2736 Y193.7410
G01 X209.2155 Y193.8802
G01 X208.8721 Y194.6606
G01 X208.8079 Y194.7972
G01 X208.4308 Y195.5618
G01 X208.3608 Y195.6955
G01 X207.9507 Y196.4430
G01 X207.8749 Y196.5734
G01 X207.4326 Y197.3023
G01 X207.3511 Y197.4293
G01 X206.8774 Y198.1382
G01 X206.7905 Y198.2616
G01 X206.2864 Y198.9492
G01 X206.1942 Y199.0686
G01 X205.6605 Y199.7335
G01 X205.5632 Y199.8488
G01 X205.0011 Y200.4898
G01 X204.8988 Y200.6008
G01 X204.3092 Y201.2167
G01 X204.2022 Y201.3231
G01 X203.5863 Y201.9126
G01 X203.4748 Y202.0143
G01 X202.8338 Y202.5764
G01 X202.7179 Y202.6731
G01 X202.0530 Y203.2067
G01 X201.9330 Y203.2982
G01 X201.2455 Y203.8024
G01 X201.1216 Y203.8886
G01 X200.4127 Y204.3622
G01 X200.2852 Y204.4429
G01 X199.5563 Y204.8852
G01 X199.4254 Y204.9603
G01 X198.6779 Y205.3704
G01 X198.5439 Y205.4397
G01 X197.7792 Y205.8168
G01 X197.6423 Y205.8801
G01 X196.8619 Y206.2235
G01 X196.7223 Y206.2809
G01 X195.9277 Y206.5899
G01 X195.7858 Y206.6411
G01 X194.9784 Y206.9151
G01 X194.8344 Y206.9601
G01 X194.0159 Y207.1987
G01 X193.8700 Y207.2373
G01 X193.0418 Y207.4399
G01 X192.8944 Y207.4722
G01 X192.0582 Y207.6385
G01 X191.9096 Y207.6643
G01 X191.0669 Y207.7940
G01 X190.9172 Y207.8132
G01 X190.0697 Y207.9061
G01 X189.9194 Y207.9188
G01 X189.0686 Y207.9745
G01 X188.9178 Y207.9807
G01 X188.0654 Y207.9993
G01 X187.9800 Y208.0000
G01 X153.4900
G01 X142.4900
G01 X108.0000
G01 X107.0622 Y207.9803
G01 X106.9114 Y207.9732
G01 X106.0607 Y207.9175
G01 X105.9104 Y207.9039
G01 X105.0629 Y207.8111
G01 X104.9133 Y207.7909
G01 X104.0707 Y207.6612
G01 X103.9221 Y207.6346
G01 X103.0859 Y207.4683
G01 X102.9387 Y207.4352
G01 X102.1106 Y207.2325
G01 X101.9649 Y207.1931
G01 X101.1464 Y206.9545
G01 X101.0026 Y206.9087
G01 X100.1953 Y206.6346
G01 X100.0536 Y206.5826
G01 X99.2590 Y206.2736
G01 X99.1198 Y206.2155
G01 X98.3394 Y205.8721
G01 X98.2028 Y205.8079
G01 X97.4382 Y205.4308
G01 X97.3045 Y205.3608
G01 X96.5570 Y204.9507
G01 X96.4266 Y204.8749
G01 X95.6977 Y204.4326
G01 X95.5707 Y204.3511
G01 X94.8618 Y203.8774
G01 X94.7384 Y203.7905
G01 X94.0508 Y203.2864
G01 X93.9314 Y203.1942
G01 X93.2665 Y202.6605
G01 X93.1512 Y202.5632
G01 X92.5102 Y202.0011
G01 X92.3992 Y201.8988
G01 X91.7833 Y201.3092
G01 X91.6769 Y201.2022
G01 X91.0874 Y200.5863
G01 X90.9857 Y200.4748
G01 X90.4236 Y199.8338
G01 X90.3269 Y199.7179
G01 X89.7933 Y199.0530
G01 X89.7018 Y198.9330
G01 X89.1976 Y198.2455
G01 X89.1114 Y198.1216
G01 X88.6378 Y197.4127
G01 X88.5571 Y197.2852
G01 X88.1148 Y196.5563
G01 X88.0397 Y196.4254
G01 X87.6296 Y195.6779
G01 X87.5603 Y195.5439
G01 X87.1832 Y194.7792
G01 X87.1199 Y194.6423
G01 X86.7765 Y193.8619
G01 X86.7191 Y193.7223
G01 X86.4101 Y192.9277
G01 X86.3589 Y192.7858
G01 X86.0849 Y191.9784
G01 X86.0399 Y191.8344
G01 X85.8013 Y191.0159
G01 X85.7627 Y190.8700
G01 X85.5601 Y190.0418
G01 X85.5278 Y189.8944
G01 X85.3615 Y189.0582
G01 X85.3357 Y188.9096
G01 X85.2060 Y188.0669
G01 X85.1868 Y187.9172
G01 X85.0939 Y187.0697
G01 X85.0812 Y186.9194
G01 X85.0255 Y186.0686
G01 X85.0193 Y185.9178
G01 X85.0007 Y185.0654
G01 X85.0004 Y120.5327
G01 X85.0003 Y109.5327
G01 Z-20.0000 F60
G01 X85.0000 Y45.0000 F900
G01 X85.0197 Y44.0622
G01 X85.0268 Y43.9114
G01 X85.0825 Y43.0607
G01 X85.0961 Y42.9104
G01 X85.1889 Y42.0629
G01 X85.2091 Y41.9133
G01 X85.3388 Y41.0707
G01 X85.3654 Y40.9221
G01 X85.5317 Y40.0859
G01 X85.5648 Y39.9387
G01 X85.7675 Y39.1106
G01 X85.8069 Y38.9649
G01 X86.0455 Y38.1464
G01 X86.0913 Y38.0026
G01 X86.3654 Y37.1953
G01 X86.4174 Y37.0536
G01 X86.7264 Y36.2590
G01 X86.7845 Y36.1198
G01 X87.1279 Y35.3394
G01 X87.1921 Y35.2028
G01 X87.5692 Y34.4382
G01 X87.6392 Y34.3045
G01 X88.0493 Y33.5570
G01 X88.1251 Y33.4266
G01 X88.5674 Y32.6977
G01 X88.6489 Y32.5707
G01 X89.1226 Y31.8618
G01 X89.2095 Y31.7384
G01 X89.7136 Y31.0508
G01 X89.8058 Y30.9314
G01 X90.3395 Y30.2665
G01 X90.4368 Y30.1512
G01 X90.9989 Y29.5102
G01 X91.1012 Y29.3992
G01 X91.6908 Y28.7833
G01 X91.7978 Y28.6769
G01 X92.4137 Y28.0874
G01 X92.5252 Y27.9857
G01 X93.1662 Y27.4236
G01 X93.2821 Y27.3269
G01 X93.9470 Y26.7933
G01 X94.0670 Y26.7018
G01 X94.7545 Y26.1976
G01 X94.8784 Y26.1114
G01 X95.5873 Y25.6378
G01 X95.7148 Y25.5571
G01 X96.4437 Y25.1148
G01 X96.5746 Y25.0397
G01 X97.3221 Y24.6296
G01 X97.4561 Y24.5603
G01 X98.2208 Y24.1832
G01 X98.3577 Y24.1199
G01 X99.1381 Y23.7765
G01 X99.2777 Y23.7191
G01 X100.0723 Y23.4101
G01 X100.2142 Y23.3589
G01 X101.0216 Y23.0849
G01 X101.1656 Y23.0399
G01 X101.9841 Y22.8013
G01 X102.1300 Y22.7627
G01 X102.9582 Y22.5601
G01 X103.1056 Y22.5278
G01 X103.9418 Y22.3615
G01 X104.0904 Y22.3357
G01 X104.9331 Y22.2060
G01 X105.0828 Y22.1868
G01 X105.9303 Y22.0939
G01 X106.0806 Y22.0812
G01 X106.9314 Y22.0255
G01 X107.0822 Y22.0193
G01 X107.9346 Y22.0007
G01 X108.0200 Y22.0000
G01 X142.5100
G01 X153.5100
G01 X188.0000
G01 X188.9378 Y22.0197
G01 X189.0886 Y22.0268
G01 X189.9393 Y22.0825
G01 X190.0896 Y22.0961
G01 X190.9371 Y22.1889
G01 X191.0867 Y22.2091
G01 X191.9293 Y22.3388
G01 X192.0779 Y22.3654
G01 X192.9141 Y22.5317
G01 X193.0613 Y22.5648
G01 X193.8894 Y22.7675
G01 X194.0351 Y22.8069
G01 X194.8536 Y23.0455
G01 X194.9974 Y23.0913
G01 X195.8047 Y23.3654
G01 X195.9464 Y23.4174
G01 X196.7410 Y23.7264
G01 X196.8802 Y23.7845
G01 X197.6606 Y24.1279
G01 X197.7972 Y24.1921
G01 X198.5618 Y24.5692
G01 X198.6955 Y24.6392
G01 X199.4430 Y25.0493
G01 X199.5734 Y25.1251
G01 X200.3023 Y25.5674
G01 X200.4293 Y25.6489
G01 X201.1382 Y26.1226
G01 X201.2616 Y26.2095
G01 X201.9492 Y26.7136
G01 X202.0686 Y26.8058
G01 X202.7335 Y27.3395
G01 X202.8488 Y27.4368
G01 X203.4898 Y27.9989
G01 X203.6008 Y28.1012
G01 X204.2167 Y28.6908
G01 X204.3231 Y28.7978
G01 X204.9126 Y29.4137
G01 X205.0143 Y29.5252
G01 X205.5764 Y30.1662
G01 X205.6731 Y30.2821
G01 X206.2067 Y30.9470
G01 X206.2982 Y31.0670
G01 X206.8024 Y31.7545
G01 X206.8886 Y31.8784
G01 X207.3622 Y32.5873
G01 X207.4429 Y32.7148
G01 X207.8852 Y33.4437
G01 X207.9603 Y33.5746
G01 X208.3704 Y34.3221
G01 X208.4397 Y34.4561
G01 X208.8168 Y35.2208
G01 X208.8801 Y35.3577
G01 X209.2235 Y36.1381
G01 X209.2809 Y36.2777
G01 X209.5899 Y37.0723
G01 X209.6411 Y37.2142
G01 X209.9151 Y38.0216
G01 X209.9601 Y38.1656
G01 X210.1987 Y38.9841
G01 X210.2373 Y39.1300
G01 X210.4399 Y39.9582
G01 X210.4722 Y40.1056
G01 X210.6385 Y40.9418
G01 X210.6643 Y41.0904
G01 X210.7940 Y41.9331
G01 X210.8132 Y42.0828
G01 X210.9061 Y42.9303
G01 X210.9188 Y43.0806
G01 X210.9745 Y43.9314
G01 X210.9807 Y44.0822
G01 X210.9993 Y44.9346
G01 X210.9996 Y109.4673
G01 X210.9997 Y120.4673
G01 X211.0000 Y185.0000
G01 X210.9803 Y185.9378
G01 X210.9732 Y186.0886
G01 X210.9175 Y186.9393
G01 X210.9039 Y187.0896
G01 X210.8111 Y187.9371
G01 X210.7909 Y188.0867
G01 X210.6612 Y188.9293
G01 X210.6346 Y189.0779
G01 X210.4683 Y189.9141
G01 X210.4352 Y190.0613
G01 X210.2325 Y190.8894
G01 X210.1931 Y191.0351
G01 X209.9545 Y191.8536
G01 X209.9087 Y191.9974
G01 X209.6346 Y192.8047
G01 X209.5826 Y192.9464
G01 X209.2736 Y193.7410
G01 X209.2155 Y193.8802
G01 X208.8721 Y194.6606
G01 X208.8079 Y194.7972
G01 X208.4308 Y195.5618
G01 X208.3608 Y195.6955
G01 X207.9507 Y196.4430
G01 X207.8749 Y196.5734
G01 X207.4326 Y197.3023
G01 X207.3511 Y197.4293
G01 X206.8774 Y198.1382
G01 X206.7905 Y198.2616
G01 X206.2864 Y198.9492
G01 X206.1942 Y199.0686
G01 X205.6605 Y199.7335
G01 X205.5632 Y199.8488
G01 X205.0011 Y200.4898
G01 X204.8988 Y200.6008
G01 X204.3092 Y201.2167
G01 X204.2022 Y201.3231
G01 X203.5863 Y201.9126
G01 X203.4748 Y202.0143
G01 X202.8338 Y202.5764
G01 X202.7179 Y202.6731
G01 X202.0530 Y203.2067
G01 X201.9330 Y203.2982
G01 X201.2455 Y203.8024
G01 X201.1216 Y203.8886
G01 X200.4127 Y204.3622
G01 X200.2852 Y204.4429
G01 X199.5563 Y204.8852
G01 X199.4254 Y204.9603
G01 X198.6779 Y205.3704
G01 X198.5439 Y205.4397
G01 X197.7792 Y205.8168
G01 X197.6423 Y205.8801
G01 X196.8619 Y206.2235
G01 X196.7223 Y206.2809
G01 X195.9277 Y206.5899
G01 X195.7858 Y206.6411
G01 X194.9784 Y206.9151
G01 X194.8344 Y206.9601
G01 X194.0159 Y207.1987
G01 X193.8700 Y207.2373
G01 X193.0418 Y207.4399
G01 X192.8944 Y207.4722
G01 X192.0582 Y207.6385
G01 X191.9096 Y207.6643
G01 X191.0669 Y207.7940
G01 X190.9172 Y207.8132
G01 X190.0697 Y207.9061
G01 X189.9194 Y207.9188
G01 X189.0686 Y207.9745
G01 X188.9178 Y207.9807
G01 X188.0654 Y207.9993
G01 X187.9800 Y208.0000
G01 X153.4900
G01 X142.4900
G01 X108.0000
G01 X107.0622 Y207.9803
G01 X106.9114 Y207.9732
G01 X106.0607 Y207.9175
G01 X105.9104 Y207.9039
G01 X105.0629 Y207.8111
G01 X104.9133 Y207.7909
G01 X104.0707 Y207.6612
G01 X103.9221 Y207.6346
G01 X103.0859 Y207.4683
G01 X102.9387 Y207.4352
G01 X102.1106 Y207.2325
G01 X101.9649 Y207.1931
G01 X101.1464 Y206.9545
G01 X101.0026 Y206.9087
G01 X100.1953 Y206.6346
G01 X100.0536 Y206.5826
G01 X99.2590 Y206.2736
G01 X99.1198 Y206.2155
G01 X98.3394 Y205.8721
G01 X98.2028 Y205.8079
G01 X97.4382 Y205.4308
G01 X97.3045 Y205.3608
G01 X96.5570 Y204.9507
G01 X96.4266 Y204.8749
G01 X95.6977 Y204.4326
G01 X95.5707 Y204.3511
G01 X94.8618 Y203.8774
G01 X94.7384 Y203.7905
G01 X94.0508 Y203.2864
G01 X93.9314 Y203.1942
G01 X93.2665 Y202.6605
G01 X93.1512 Y202.5632
G01 X92.5102 Y202.0011
G01 X92.3992 Y201.8988
G01 X91.7833 Y201.3092
G01 X91.6769 Y201.2022
G01 X91.0874 Y200.5863
G01 X90.9857 Y200.4748
G01 X90.4236 Y199.8338
G01 X90.3269 Y199.7179
G01 X89.7933 Y199.0530
G01 X89.7018 Y198.9330
G01 X89.1976 Y198.2455
G01 X89.1114 Y198.1216
G01 X88.6378 Y197.4127
G01 X88.5571 Y197.2852
G01 X88.1148 Y196.5563
G01 X88.0397 Y196.4254
G01 X87.6296 Y195.6779
G01 X87.5603 Y195.5439
G01 X87.1832 Y194.7792
G01 X87.1199 Y194.6423
G01 X86.7765 Y193.8619
G01 X86.7191 Y193.7223
G01 X86.4101 Y192.9277
G01 X86.3589 Y192.7858
G01 X86.0849 Y191.9784
G01 X86.0399 Y191.8344
G01 X85.8013 Y191.0159
G01 X85.7627 Y190.8700
G01 X85.5601 Y190.0418
G01 X85.5278 Y189.8944
G01 X85.3615 Y189.0582
G01 X85.3357 Y188.9096
G01 X85.2060 Y188.0669
G01 X85.1868 Y187.9172
G01 X85.0939 Y187.0697
G01 X85.0812 Y186.9194
G01 X85.0255 Y186.0686
G01 X85.0193 Y185.9178
G01 X85.0007 Y185.0654
G01 X85.0004 Y120.5327
G01 X85.0003 Y109.5327
G01 Z-22.0000 F60
G01 X85.0000 Y45.0000 F900
G01 X85.0197 Y44.0622
G01 X85.0268 Y43.9114
G01 X85.0825 Y43.0607
G01 X85.0961 Y42.9104
G01 X85.1889 Y42.0629
G01 X85.2091 Y41.9133
G01 X85.3388 Y41.0707
G01 X85.3654 Y40.9221
G01 X85.5317 Y40.0859
G01 X85.5648 Y39.9387
G01 X85.7675 Y39.1106
G01 X85.8069 Y38.9649
G01 X86.0455 Y38.1464
G01 X86.0913 Y38.0026
G01 X86.3654 Y37.1953
G01 X86.4174 Y37.0536
G01 X86.7264 Y36.2590
G01 X86.7845 Y36.1198
G01 X87.1279 Y35.3394
G01 X87.1921 Y35.2028
G01 X87.5692 Y34.4382
G01 X87.6392 Y34.3045
G01 X88.0493 Y33.5570
G01 X88.1251 Y33.4266
G01 X88.5674 Y32.6977
G01 X88.6489 Y32.5707
G01 X89.1226 Y31.8618
G01 X89.2095 Y31.7384
G01 X89.7136 Y31.0508
G01 X89.8058 Y30.9314
G01 X90.3395 Y30.2665
G01 X90.4368 Y30.1512
G01 X90.9989 Y29.5102
G01 X91.1012 Y29.3992
G01 X91.6908 Y28.7833
G01 X91.7978 Y28.6769
G01 X92.4137 Y28.0874
G01 X92.5252 Y27.9857
G01 X93.1662 Y27.4236
G01 X93.2821 Y27.3269
G01 X93.9470 Y26.7933
G01 X94.0670 Y26.7018
G01 X94.7545 Y26.1976
G01 X94.8784 Y26.1114
G01 X95.5873 Y25.6378
G01 X95.7148 Y25.5571
G01 X96.4437 Y25.1148
G01 X96.5746 Y25.0397
G01 X97.3221 Y24.6296
G01 X97.4561 Y24.5603
G01 X98.2208 Y24.1832
G01 X98.3577 Y24.1199
G01 X99.1381 Y23.7765
G01 X99.2777 Y23.7191
G01 X100.0723 Y23.4101
G01 X100.2142 Y23.3589
G01 X101.0216 Y23.0849
G01 X101.1656 Y23.0399
G01 X101.9841 Y22.8013
G01 X102.1300 Y22.7627
G01 X102.9582 Y22.5601
G01 X103.1056 Y22.5278
G01 X103.9418 Y22.3615
G01 X104.0904 Y22.3357
G01 X104.9331 Y22.2060
G01 X105.0828 Y22.1868
G01 X105.9303 Y22.0939
G01 X106.0806 Y22.0812
G01 X106.9314 Y22.0255
G01 X107.0822 Y22.0193
G01 X107.9346 Y22.0007
G01 X108.0200 Y22.0000
G01 X142.5100
G01 X153.5100
G01 X188.0000
G01 X188.9378 Y22.0197
G01 X189.0886 Y22.0268
G01 X189.9393 Y22.0825
G01 X190.0896 Y22.0961
G01 X190.9371 Y22.1889
G01 X191.0867 Y22.2091
G01 X191.9293 Y22.3388
G01 X192.0779 Y22.3654
G01 X192.9141 Y22.5317
G01 X193.0613 Y22.5648
G01 X193.8894 Y22.7675
G01 X194.0351 Y22.8069
G01 X194.8536 Y23.0455
G01 X194.9974 Y23.0913
G01 X195.8047 Y23.3654
G01 X195.9464 Y23.4174
G01 X196.7410 Y23.7264
G01 X196.8802 Y23.7845
G01 X197.6606 Y24.1279
G01 X197.7972 Y24.1921
G01 X198.5618 Y24.5692
G01 X198.6955 Y24.6392
G01 X199.4430 Y25.0493
G01 X199.5734 Y25.1251
G01 X200.3023 Y25.5674
G01 X200.4293 Y25.6489
G01 X201.1382 Y26.1226
G01 X201.2616 Y26.2095
G01 X201.9492 Y26.7136
G01 X202.0686 Y26.8058
G01 X202.7335 Y27.3395
G01 X202.8488 Y27.4368
G01 X203.4898 Y27.9989
G01 X203.6008 Y28.1012
G01 X204.2167 Y28.6908
G01 X204.3231 Y28.7978
G01 X204.9126 Y29.4137
G01 X205.0143 Y29.5252
G01 X205.5764 Y30.1662
G01 X205.6731 Y30.2821
G01 X206.2067 Y30.9470
G01 X206.2982 Y31.0670
G01 X206.8024 Y31.7545
G01 X206.8886 Y31.8784
G01 X207.3622 Y32.5873
G01 X207.4429 Y32.7148
G01 X207.8852 Y33.4437
G01 X207.9603 Y33.5746
G01 X208.3704 Y34.3221
G01 X208.4397 Y34.4561
G01 X208.8168 Y35.2208
G01 X208.8801 Y35.3577
G01 X209.2235 Y36.1381
G01 X209.2809 Y36.2777
G01 X209.5899 Y37.0723
G01 X209.6411 Y37.2142
G01 X209.9151 Y38.0216
G01 X209.9601 Y38.1656
G01 X210.1987 Y38.9841
G01 X210.2373 Y39.1300
G01 X210.4399 Y39.9582
G01 X210.4722 Y40.1056
G01 X210.6385 Y40.9418
G01 X210.6643 Y41.0904
G01 X210.7940 Y41.9331
G01 X210.8132 Y42.0828
G01 X210.9061 Y42.9303
G01 X210.9188 Y43.0806
G01 X210.9745 Y43.9314
G01 X210.9807 Y44.0822
G01 X210.9993 Y44.9346
G01 X210.9996 Y109.4673
G01 X210.9997 Y120.4673
G01 X211.0000 Y185.0000
G01 X210.9803 Y185.9378
G01 X210.9732 Y186.0886
G01 X210.9175 Y186.9393
G01 X210.9039 Y187.0896
G01 X210.8111 Y187.9371
G01 X210.7909 Y188.0867
G01 X210.6612 Y188.9293
G01 X210.6346 Y189.0779
G01 X210.4683 Y189.9141
G01 X210.4352 Y190.0613
G01 X210.2325 Y190.8894
G01 X210.1931 Y191.0351
G01 X209.9545 Y191.8536
G01 X209.9087 Y191.9974
G01 X209.6346 Y192.8047
G01 X209.5826 Y192.9464
G01 X209.2736 Y193.7410
G01 X209.2155 Y193.8802
G01 X208.8721 Y194.6606
G01 X208.8079 Y194.7972
G01 X208.4308 Y195.5618
G01 X208.3608 Y195.6955
G01 X207.9507 Y196.4430
G01 X207.8749 Y196.5734
G01 X207.4326 Y197.3023
G01 X207.3511 Y197.4293
G01 X206.8774 Y198.1382
G01 X206.7905 Y198.2616
G01 X206.2864 Y198.9492
G01 X206.1942 Y199.0686
G01 X205.6605 Y199.7335
G01 X205.5632 Y199.8488
G01 X205.0011 Y200.4898
G01 X204.8988 Y200.6008
G01 X204.3092 Y201.2167
G01 X204.2022 Y201.3231
G01 X203.5863 Y201.9126
G01 X203.4748 Y202.0143
G01 X202.8338 Y202.5764
G01 X202.7179 Y202.6731
G01 X202.0530 Y203.2067
G01 X201.9330 Y203.2982
G01 X201.2455 Y203.8024
G01 X201.1216 Y203.8886
G01 X200.4127 Y204.3622
G01 X200.2852 Y204.4429
G01 X199.5563 Y204.8852
G01 X199.4254 Y204.9603
G01 X198.6779 Y205.3704
G01 X198.5439 Y205.4397
G01 X197.7792 Y205.8168
G01 X197.6423 Y205.8801
G01 X196.8619 Y206.2235
G01 X196.7223 Y206.2809
G01 X195.9277 Y206.5899
G01 X195.7858 Y206.6411
G01 X194.9784 Y206.9151
G01 X194.8344 Y206.9601
G01 X194.0159 Y207.1987
G01 X193.8700 Y207.2373
G01 X193.0418 Y207.4399
G01 X192.8944 Y207.4722
G01 X192.0582 Y207.6385
G01 X191.9096 Y207.6643
G01 X191.0669 Y207.7940
G01 X190.9172 Y207.8132
G01 X190.0697 Y207.9061
G01 X189.9194 Y207.9188
G01 X189.0686 Y207.9745
G01 X188.9178 Y207.9807
G01 X188.0654 Y207.9993
G01 X187.9800 Y208.0000
G01 X153.4900
G01 X142.4900
G01 X108.0000
G01 X107.0622 Y207.9803
G01 X106.9114 Y207.9732
G01 X106.0607 Y207.9175
G01 X105.9104 Y207.9039
G01 X105.0629 Y207.8111
G01 X104.9133 Y207.7909
G01 X104.0707 Y207.6612
G01 X103.9221 Y207.6346
G01 X103.0859 Y207.4683
G01 X102.9387 Y207.4352
G01 X102.1106 Y207.2325
G01 X101.9649 Y207.1931
G01 X101.1464 Y206.9545
G01 X101.0026 Y206.9087
G01 X100.1953 Y206.6346
G01 X100.0536 Y206.5826
G01 X99.2590 Y206.2736
G01 X99.1198 Y206.2155
G01 X98.3394 Y205.8721
