;FLAVOR:Marlin
;TIME:7832
;Filament used: 5.30768m
;Layer height: 0.2
;MINX:89.631
;MINY:88.781
;MINZ:0.2
;MAXX:161.314
;MAXY:146.214
;MAXZ:21.2
;Generated with Cura_SteamEngine 5.0.0
M82 ;absolute extrusion mode
; OctoLapse Settings

; --- Global Settings
; layer_height = 0.2
; smooth_spiralized_contours = True
; magic_mesh_surface_mode = normal
; machine_extruder_count = 1
; --- Single Extruder Settings
; speed_z_hop = 5
; retraction_amount = 5
; retraction_hop = 0.2
; retraction_hop_enabled = False
; retraction_enable = True
; retraction_speed = 45
; retraction_retract_speed = 45
; retraction_prime_speed = 45
; speed_travel = 150.0

; Ender 3 Custom Start G-code

M104 S160  ; Start warming extruder to 160
M190 S60 ; Wait for Heat Bed temperature
G28        ; Home all axes
G29 A      ; Activate the UBL System.
G29 L0    ; Load UBL
G29 J2     ; 4-point level
G92 E0     ; Reset Extruder

G1 Z2.0 F3000                   ; Move Z Axis up little to prevent scratching of Heat Bed
G1 X10.1 Y20 Z0.3 F5000.0        ; Move to start position
M109 S210.0 ; Wait for extruder temperature
G1 X10.1 Y200.0 Z0.3 F1500.0 E15 ; Draw the first line
G1 X10.4 Y200.0 Z0.3 F5000.0     ; Move to side a little
G1 X10.4 Y20 Z0.3 F1500.0 E30    ; Draw the second line
G92 E0                          ; Reset Extruder
G1 Z2.0 F3000                   ; Move Z Axis up little to prevent scratching of Heat Bed
G1 X15 Y20 Z0.3 F5000.0          ; Move over to prevent blob squish

; End of custom start GCode
G92 E0
G92 E0
G1 F2700 E-5
;LAYER_COUNT:106
;LAYER:0
M107
G0 F6000 X91.077 Y92.221 Z0.2
G0 X89.64 Y96.576
;TYPE:SKIRT
G1 F2700 E0
G1 F1200 X89.649 Y95.883 E0.02305
G1 X89.698 Y95.216 E0.0453
G1 X89.826 Y94.559 E0.06756
G1 X90.031 Y93.923 E0.08978
G1 X90.311 Y93.315 E0.11205
G1 X90.661 Y92.745 E0.13429
G1 X91.077 Y92.221 E0.15655
G1 X91.552 Y91.75 E0.1788
G1 X92.08 Y91.339 E0.20105
G1 X92.653 Y90.994 E0.2233
G1 X93.264 Y90.72 E0.24557
G1 X93.902 Y90.52 E0.26781
G1 X94.56 Y90.399 E0.29006
G1 X95.097 Y90.358 E0.30797
G1 X97.59 Y90.29 E0.39092
G1 X100.303 Y90.151 E0.48127
G1 X102.943 Y89.94 E0.56936
G1 X105.59 Y89.653 E0.65791
G1 X108.259 Y89.288 E0.74751
G1 X110.796 Y88.875 E0.833
G1 X111.583 Y88.803 E0.85929
G1 X112.743 Y88.781 E0.89788
G1 X122.543 Y88.781 E1.22383
G1 X123.346 Y88.793 E1.25054
G1 X123.967 Y88.837 E1.27124
G1 X125.347 Y89.013 E1.31751
G1 X127.648 Y89.285 E1.39458
G1 X130.333 Y89.526 E1.48424
G1 X133.017 Y89.69 E1.57368
G1 X135.667 Y89.777 E1.66187
G1 X138.357 Y89.791 E1.75134
G1 X140.981 Y89.728 E1.83864
G1 X142.561 Y89.655 E1.89124
G1 X143.285 Y89.639 E1.91533
G1 X153.312 Y89.646 E2.24883
G1 X155.077 Y89.641 E2.30753
G1 X155.77 Y89.649 E2.33058
G1 X156.437 Y89.697 E2.35283
G1 X157.094 Y89.824 E2.37508
G1 X157.731 Y90.028 E2.39733
G1 X158.339 Y90.307 E2.41958
G1 X158.91 Y90.657 E2.44185
G1 X159.434 Y91.071 E2.46407
G1 X159.906 Y91.546 E2.48634
G1 X160.318 Y92.073 E2.50859
G1 X160.663 Y92.646 E2.53083
G1 X160.938 Y93.256 E2.55309
G1 X161.139 Y93.894 E2.57534
G1 X161.261 Y94.552 E2.59759
G1 X161.303 Y95.117 E2.61644
G1 X161.314 Y95.631 E2.63354
G1 X161.314 Y139.094 E4.07912
G1 X161.305 Y139.821 E4.1033
G1 X161.256 Y140.489 E4.12558
G1 X161.129 Y141.145 E4.14781
G1 X160.924 Y141.782 E4.17006
G1 X160.645 Y142.39 E4.19231
G1 X160.295 Y142.96 E4.21456
G1 X159.879 Y143.485 E4.23684
G1 X159.404 Y143.956 E4.25909
G1 X158.877 Y144.367 E4.28131
G1 X158.304 Y144.713 E4.30358
G1 X157.694 Y144.987 E4.32582
G1 X157.055 Y145.187 E4.34809
G1 X156.397 Y145.309 E4.37035
G1 X155.824 Y145.351 E4.38946
G1 X155.315 Y145.36 E4.40639
G1 X153.168 Y145.354 E4.4778
G1 X150.433 Y145.386 E4.56877
G1 X147.747 Y145.493 E4.65818
G1 X145.101 Y145.673 E4.74639
G1 X142.473 Y145.926 E4.8342
G1 X141.896 Y146.002 E4.85356
G1 X141.675 Y146.018 E4.86093
G1 X140.394 Y146.167 E4.90382
G1 X139.864 Y146.204 E4.92149
G1 X139.322 Y146.214 E4.93952
G1 X95.85 Y146.213 E6.38541
G1 X95.152 Y146.201 E6.40862
G1 X94.485 Y146.15 E6.43087
G1 X93.829 Y146.019 E6.45312
G1 X93.193 Y145.811 E6.47538
G1 X92.586 Y145.529 E6.49764
G1 X92.018 Y145.176 E6.51988
G1 X91.495 Y144.758 E6.54215
G1 X91.026 Y144.281 E6.5644
G1 X90.618 Y143.751 E6.58665
G1 X90.275 Y143.177 E6.60889
G1 X90.003 Y142.565 E6.63116
G1 X89.807 Y141.926 E6.65339
G1 X89.688 Y141.267 E6.67567
G1 X89.649 Y140.7 E6.69457
G1 X89.64 Y140.134 E6.7134
G1 X89.646 Y137.555 E6.79917
G1 X89.64 Y128.364 E7.10487
G1 X89.648 Y127.808 E7.12336
G1 X89.631 Y125.652 E7.19507
G1 X89.646 Y125.361 E7.20477
G1 X89.64 Y124.308 E7.23979
G1 X89.646 Y121.655 E7.32803
G1 X89.64 Y112.464 E7.63372
G1 X89.648 Y111.908 E7.65222
G1 X89.631 Y109.752 E7.72393
G1 X89.646 Y109.461 E7.73362
G1 X89.64 Y108.408 E7.76864
G1 X89.646 Y105.755 E7.85688
G1 X89.64 Y96.576 E8.16218
G0 F6000 X90.04 Y96.581
G1 F1200 X90.049 Y95.888 E8.18523
G1 X90.098 Y95.246 E8.20664
G1 X90.225 Y94.614 E8.22808
G1 X90.43 Y94.002 E8.24955
G1 X90.709 Y93.421 E8.27099
G1 X91.057 Y92.879 E8.29241
G1 X91.47 Y92.384 E8.31385
G1 X91.941 Y91.944 E8.33529
G1 X92.463 Y91.565 E8.35675
G1 X93.028 Y91.254 E8.3782
G1 X93.627 Y91.016 E8.39963
G1 X94.251 Y90.853 E8.42109
G1 X95.108 Y90.758 E8.44976
G1 X97.62 Y90.69 E8.53334
G1 X100.283 Y90.553 E8.62203
G1 X102.984 Y90.337 E8.71215
G1 X105.651 Y90.048 E8.80138
G1 X108.304 Y89.685 E8.89044
G1 X110.861 Y89.269 E8.9766
G1 X111.591 Y89.203 E9.00098
G1 X112.743 Y89.181 E9.03931
G1 X122.543 Y89.181 E9.36526
G1 X123.34 Y89.193 E9.39177
G1 X123.917 Y89.234 E9.41101
G1 X125.26 Y89.405 E9.45604
G1 X127.636 Y89.686 E9.53561
G1 X130.308 Y89.926 E9.62484
G1 X132.978 Y90.089 E9.71381
G1 X135.652 Y90.177 E9.8028
G1 X138.33 Y90.191 E9.89187
G1 X141.05 Y90.126 E9.98236
G1 X142.571 Y90.054 E10.03301
G1 X143.285 Y90.039 E10.05676
G1 X153.314 Y90.046 E10.39033
G1 X155.072 Y90.041 E10.4488
G1 X155.765 Y90.049 E10.47185
G1 X156.408 Y90.097 E10.49329
G1 X157.04 Y90.223 E10.51473
G1 X157.652 Y90.427 E10.53618
G1 X158.233 Y90.705 E10.55761
G1 X158.776 Y91.053 E10.57906
G1 X159.272 Y91.465 E10.6005
G1 X159.713 Y91.936 E10.62196
G1 X160.092 Y92.457 E10.64339
G1 X160.404 Y93.021 E10.66483
G1 X160.643 Y93.62 E10.68628
G1 X160.807 Y94.243 E10.70771
G1 X160.904 Y95.127 E10.73729
G1 X160.914 Y95.631 E10.75405
G1 X160.914 Y139.089 E12.19947
G1 X160.905 Y139.816 E12.22365
G1 X160.857 Y140.459 E12.2451
G1 X160.73 Y141.091 E12.26654
G1 X160.525 Y141.703 E12.28801
G1 X160.247 Y142.284 E12.30943
G1 X159.899 Y142.827 E12.33088
G1 X159.486 Y143.322 E12.35232
G1 X159.015 Y143.762 E12.37376
G1 X158.493 Y144.141 E12.39521
G1 X157.929 Y144.452 E12.41664
G1 X157.33 Y144.691 E12.43809
G1 X156.707 Y144.855 E12.45951
G1 X155.816 Y144.951 E12.48932
G1 X155.316 Y144.96 E12.50595
G1 X153.165 Y144.954 E12.5775
G1 X150.412 Y144.986 E12.66907
G1 X147.74 Y145.092 E12.75801
G1 X145.072 Y145.274 E12.84695
G1 X142.411 Y145.531 E12.93587
G1 X141.844 Y145.605 E12.95489
G1 X141.647 Y145.619 E12.96146
G1 X140.348 Y145.77 E13.00495
G1 X139.856 Y145.804 E13.02135
G1 X139.322 Y145.814 E13.03912
G1 X95.857 Y145.813 E14.48477
G1 X95.159 Y145.801 E14.50799
G1 X94.516 Y145.75 E14.52944
G1 X93.885 Y145.62 E14.55087
G1 X93.274 Y145.413 E14.57233
G1 X92.694 Y145.132 E14.59376
G1 X92.153 Y144.781 E14.61521
G1 X91.66 Y144.366 E14.63665
G1 X91.222 Y143.893 E14.65809
G1 X90.846 Y143.369 E14.67954
G1 X90.537 Y142.803 E14.70099
G1 X90.301 Y142.203 E14.72243
G1 X90.141 Y141.579 E14.74386
G1 X90.049 Y140.693 E14.77348
G1 X90.04 Y140.135 E14.79204
G1 X90.046 Y137.556 E14.87782
G1 X90.04 Y128.369 E15.18338
G1 X90.048 Y127.808 E15.20204
G1 X90.031 Y125.649 E15.27385
G1 X90.046 Y125.367 E15.28325
G1 X90.04 Y124.309 E15.31844
G1 X90.046 Y121.656 E15.40668
G1 X90.04 Y112.469 E15.71224
G1 X90.048 Y111.908 E15.7309
G1 X90.031 Y109.749 E15.80271
G1 X90.046 Y109.467 E15.8121
G1 X90.04 Y108.409 E15.84729
G1 X90.046 Y105.756 E15.93553
G1 X90.04 Y96.581 E16.24069
G1 F2700 E11.24069
G0 F6000 X94.586 Y95.293
G0 X110.612 Y95.291
G0 X114.695 Y98.269
G0 X115.152 Y98.181
G1 F2700 E16.24069
G1 F1200 X119.849 Y98.181 E16.39692
G1 X119.447 Y100.275 E16.46783
G1 X115.553 Y100.275 E16.59735
G1 X115.152 Y98.181 E16.66826
G0 F6000 X114.667 Y97.781
G1 F1200 X120.333 Y97.781 E16.85671
G1 X119.778 Y100.675 E16.95472
G1 X115.223 Y100.675 E17.10622
G1 X114.667 Y97.781 E17.20424
G0 F6000 X114.183 Y97.381
G1 F1200 X120.818 Y97.381 E17.42492
G1 X120.108 Y101.075 E17.55003
G1 X114.892 Y101.075 E17.72352
G1 X114.183 Y97.381 E17.84862
G0 F6000 X113.699 Y96.981
G1 F1200 X121.302 Y96.981 E18.1015
G1 X120.439 Y101.475 E18.2537
G1 X114.561 Y101.475 E18.4492
G1 X113.699 Y96.981 E18.6014
G0 F6000 X113.216 Y96.581
G1 F1200 X121.785 Y96.581 E18.8864
G1 X120.769 Y101.875 E19.0657
G1 X114.232 Y101.875 E19.28312
G1 X113.216 Y96.581 E19.46241
G0 F6000 X112.761 Y96.333
G1 F1200 X112.841 Y96.181 E19.46812
G1 X122.159 Y96.181 E19.77804
G1 X122.24 Y96.337 E19.78389
G1 X121.1 Y102.275 E19.98499
G1 X113.901 Y102.275 E20.22443
G1 X112.761 Y96.333 E20.42567
G0 F6000 X112.342 Y96.272
G1 F1200 X112.6 Y95.781 E20.44412
G1 X122.401 Y95.781 E20.7701
G1 X122.659 Y96.275 E20.78864
G1 X121.43 Y102.675 E21.00539
G1 X113.57 Y102.675 E21.26682
G1 X112.342 Y96.272 E21.48366
G0 F6000 X111.922 Y96.209
G1 F1200 X112.359 Y95.381 E21.5148
G1 X122.643 Y95.381 E21.85685
G1 X123.078 Y96.214 E21.8881
G1 X121.761 Y103.075 E22.12047
G1 X113.239 Y103.075 E22.40391
G1 X111.922 Y96.209 E22.63644
G0 F6000 X111.503 Y96.147
G1 F1200 X112.117 Y94.981 E22.68027
G1 X122.886 Y94.981 E23.03845
G1 X123.497 Y96.153 E23.08241
G1 X122.092 Y103.475 E23.33038
G1 X112.909 Y103.475 E23.63581
G1 X111.503 Y96.147 E23.88398
G0 F6000 X111.083 Y96.085
G1 F1200 X111.876 Y94.581 E23.94053
G1 X123.129 Y94.581 E24.31481
G1 X123.917 Y96.091 E24.37146
G1 X122.422 Y103.875 E24.63509
G1 X112.578 Y103.875 E24.9625
G1 X111.083 Y96.085 E25.22633
G1 F2700 E20.22633
G0 F6000 X110.612 Y95.291
G0 X94.586 Y95.293
G0 X94.584 Y109.467
G0 X111.876 Y110.481
G1 F2700 E25.22633
G1 F1200 X123.129 Y110.481 E25.6006
G1 X123.917 Y111.991 E25.65725
G1 X122.422 Y119.775 E25.92088
G1 X112.578 Y119.775 E26.24829
G1 X111.083 Y111.985 E26.51212
G1 X111.876 Y110.481 E26.56867
G0 F6000 X111.503 Y112.047
G1 F1200 X112.117 Y110.881 E26.6125
G1 X122.886 Y110.881 E26.97068
G1 X123.497 Y112.053 E27.01464
G1 X122.092 Y119.375 E27.26261
G1 X112.909 Y119.375 E27.56804
G1 X111.503 Y112.047 E27.81622
G0 F6000 X111.922 Y112.109
G1 F1200 X112.359 Y111.281 E27.84735
G1 X122.643 Y111.281 E28.1894
G1 X123.078 Y112.114 E28.22066
G1 X121.761 Y118.975 E28.45302
G1 X113.239 Y118.975 E28.73646
G1 X111.922 Y112.109 E28.96899
G0 F6000 X112.342 Y112.172
G1 F1200 X112.6 Y111.681 E28.98744
G1 X122.401 Y111.681 E29.31342
G1 X122.659 Y112.175 E29.33196
G1 X121.43 Y118.575 E29.54871
G1 X113.57 Y118.575 E29.81014
G1 X112.342 Y112.172 E30.02698
G0 F6000 X112.761 Y112.233
G1 F1200 X112.841 Y112.081 E30.0327
G1 X122.159 Y112.081 E30.34261
G1 X122.24 Y112.237 E30.34846
G1 X121.1 Y118.175 E30.54957
G1 X113.901 Y118.175 E30.78901
G1 X112.761 Y112.233 E30.99024
G0 F6000 X113.216 Y112.481
G1 F1200 X121.785 Y112.481 E31.27525
G1 X120.769 Y117.775 E31.45454
G1 X114.232 Y117.775 E31.67196
G1 X113.216 Y112.481 E31.85125
G0 F6000 X113.699 Y112.881
G1 F1200 X121.302 Y112.881 E32.10413
G1 X120.439 Y117.375 E32.25633
G1 X114.561 Y117.375 E32.45184
G1 X113.699 Y112.881 E32.60403
G0 F6000 X114.183 Y113.281
G1 F1200 X120.818 Y113.281 E32.82471
G1 X120.108 Y116.975 E32.94983
G1 X114.892 Y116.975 E33.12331
G1 X114.183 Y113.281 E33.24842
G0 F6000 X114.667 Y113.681
G1 F1200 X120.333 Y113.681 E33.43687
G1 X119.778 Y116.575 E33.53488
G1 X115.223 Y116.575 E33.68638
G1 X114.667 Y113.681 E33.78439
G0 F6000 X115.152 Y114.081
G1 F1200 X119.849 Y114.081 E33.94061
G1 X119.447 Y116.175 E34.01153
G1 X115.553 Y116.175 E34.14105
G1 X115.152 Y114.081 E34.21196
G1 F2700 E29.21196
G0 F6000 X114.695 Y114.169
G0 X110.612 Y111.191
G0 X94.586 Y111.193
G0 X94.584 Y125.367
G0 X111.876 Y126.381
G1 F2700 E34.21196
G1 F1200 X123.129 Y126.381 E34.58624
G1 X123.917 Y127.891 E34.64289
G1 X122.422 Y135.675 E34.90652
G1 X112.578 Y135.675 E35.23393
G1 X111.083 Y127.885 E35.49775
G1 X111.876 Y126.381 E35.5543
G0 F6000 X111.503 Y127.947
G1 F1200 X112.117 Y126.781 E35.59813
G1 X122.886 Y126.781 E35.95631
G1 X123.497 Y127.953 E36.00027
G1 X122.092 Y135.275 E36.24825
G1 X112.909 Y135.275 E36.55367
G1 X111.503 Y127.947 E36.80185
G0 F6000 X111.922 Y128.009
G1 F1200 X112.359 Y127.181 E36.83299
G1 X122.643 Y127.181 E37.17504
G1 X123.078 Y128.014 E37.20629
G1 X121.761 Y134.875 E37.43866
G1 X113.239 Y134.875 E37.7221
G1 X111.922 Y128.009 E37.95463
G0 F6000 X112.342 Y128.072
G1 F1200 X112.6 Y127.581 E37.97307
G1 X122.401 Y127.581 E38.29906
G1 X122.659 Y128.075 E38.31759
G1 X121.43 Y134.475 E38.53435
G1 X113.57 Y134.475 E38.79577
G1 X112.342 Y128.072 E39.01262
G0 F6000 X112.761 Y128.133
G1 F1200 X112.841 Y127.981 E39.01833
G1 X122.159 Y127.981 E39.32825
G1 X122.24 Y128.137 E39.33409
G1 X121.1 Y134.075 E39.5352
G1 X113.901 Y134.075 E39.77464
G1 X112.761 Y128.133 E39.97588
G0 F6000 X113.216 Y128.381
G1 F1200 X121.785 Y128.381 E40.26088
G1 X120.769 Y133.675 E40.44017
G1 X114.232 Y133.675 E40.6576
G1 X113.216 Y128.381 E40.83689
G0 F6000 X113.699 Y128.781
G1 F1200 X121.302 Y128.781 E41.08977
G1 X120.439 Y133.275 E41.24197
G1 X114.561 Y133.275 E41.43747
G1 X113.699 Y128.781 E41.58967
G0 F6000 X114.183 Y129.181
G1 F1200 X120.818 Y129.181 E41.81035
G1 X120.108 Y132.875 E41.93546
G1 X114.892 Y132.875 E42.10894
G1 X114.183 Y129.181 E42.23405
G0 F6000 X114.667 Y129.581
G1 F1200 X120.333 Y129.581 E42.4225
G1 X119.778 Y132.475 E42.52051
G1 X115.223 Y132.475 E42.67201
G1 X114.667 Y129.581 E42.77003
G0 F6000 X115.152 Y129.981
G1 F1200 X119.849 Y129.981 E42.92625
G1 X119.447 Y132.075 E42.99717
G1 X115.553 Y132.075 E43.12668
G1 X115.152 Y129.981 E43.19759
G1 F2700 E38.19759
G0 F6000 X115.152 Y129.516
G0 X124.389 Y127.09
G0 X140.416 Y125.367
G0 X141.481 Y123.133
G1 F2700 E43.19759
G1 F1200 X141.481 Y111.871 E43.57217
G1 X142.99 Y111.083 E43.62879
G1 X150.775 Y112.578 E43.89245
G1 X150.775 Y122.422 E44.21986
G1 X142.968 Y123.92 E44.48426
G1 X141.481 Y123.133 E44.54022
G0 F6000 X141.881 Y122.893
G1 F1200 X141.881 Y112.114 E44.89873
G1 X143.052 Y111.503 E44.94266
G1 X150.375 Y112.909 E45.19067
G1 X150.375 Y122.091 E45.49607
G1 X143.029 Y123.501 E45.74486
G1 X141.881 Y122.893 E45.78807
G0 F6000 X142.281 Y122.652
G1 F1200 X142.281 Y112.356 E46.13051
G1 X143.112 Y111.922 E46.16169
G1 X149.975 Y113.239 E46.39412
G1 X149.975 Y121.761 E46.67757
G1 X143.093 Y123.082 E46.91064
G1 X142.281 Y122.652 E46.9412
G0 F6000 X142.681 Y122.412
G1 F1200 X142.681 Y112.598 E47.26762
G1 X143.174 Y112.341 E47.28611
G1 X149.575 Y113.57 E47.50289
G1 X149.575 Y121.43 E47.76432
G1 X143.154 Y122.662 E47.98178
G1 X142.681 Y122.412 E47.99957
G0 F6000 X143.081 Y122.17
G1 F1200 X143.081 Y112.841 E48.30986
G1 X143.236 Y112.76 E48.31567
G1 X149.175 Y113.901 E48.51682
G1 X149.175 Y121.099 E48.75622
G1 X143.218 Y122.243 E48.95797
G1 X143.081 Y122.17 E48.96314
G0 F6000 X143.481 Y121.785
G1 F1200 X143.481 Y113.215 E49.24818
G1 X148.775 Y114.231 E49.42747
G1 X148.775 Y120.769 E49.64492
G1 X143.481 Y121.785 E49.82422
G0 F6000 X143.881 Y121.301
G1 F1200 X143.881 Y113.698 E50.07709
G1 X148.375 Y114.561 E50.2293
G1 X148.375 Y120.439 E50.4248
G1 X143.881 Y121.301 E50.57699
G0 F6000 X144.281 Y120.817
G1 F1200 X144.281 Y114.182 E50.79768
G1 X147.975 Y114.892 E50.92279
G1 X147.975 Y120.108 E51.09627
G1 X144.281 Y120.817 E51.22138
G0 F6000 X144.681 Y120.333
G1 F1200 X144.681 Y114.667 E51.40983
G1 X147.575 Y115.222 E51.50784
G1 X147.575 Y119.777 E51.65934
G1 X144.681 Y120.333 E51.75735
G0 F6000 X145.081 Y119.849
G1 F1200 X145.081 Y115.151 E51.91361
G1 X147.175 Y115.553 E51.98453
G1 X147.175 Y119.447 E52.11404
G1 X145.081 Y119.849 E52.18496
G1 F2700 E47.18496
G0 F6000 X144.616 Y119.849
G0 X144.616 Y115.636
G0 X145.481 Y115.636
;TYPE:SUPPORT
G1 F2700 E52.18496
G1 F1200 X145.481 Y119.365 E52.30899
G1 X146.775 Y119.116 E52.35282
G1 X146.775 Y116.418 E52.44255
G1 X146.775 Y115.884 E52.46031
G1 X145.481 Y115.636 E52.50414
G0 F6000 X145.679 Y116
G1 F1200 X146.323 Y116 E52.52555
G0 F6000 X146 Y115.94
